; generated by PrusaSlicer 2.5.0+win64 on 2023-02-06 at 08:34:47 UTC


;
;
; 

; external perimeters extrusion width = 0.50mm
; perimeters extrusion width = 0.50mm
; infill extrusion width = 0.50mm
; solid infill extrusion width = 0.50mm
; top infill extrusion width = 0.50mm
; first layer extrusion width = 0.50mm

M73 P0 R36
M73 Q0 S36
M201 X1000 Y1000 Z200 E5000 ; sets maximum accelerations, mm/sec^2
M203 X200 Y200 Z12 E120 ; sets maximum feedrates, mm / sec
M204 P1250 R1250 T1250 ; sets acceleration (P, T) and retract acceleration (R), mm/sec^2
M205 X8.00 Y8.00 Z0.40 E4.50 ; sets the jerk limits, mm/sec
M205 S0 T0 ; sets the minimum extruding and travel feed rate, mm/sec
M107
;TYPE:Custom
M862.3 P "MK3S" ; printer model check
M862.1 P0.4 ; nozzle diameter check
M115 U3.11.0 ; tell printer latest fw version
G90 ; use absolute coordinates
M83 ; extruder relative mode
M104 S215 ; set extruder temp
M140 S60 ; set bed temp
M190 S60 ; wait for bed temp
M109 S215 ; wait for extruder temp
G28 W ; home all without mesh bed level
G80 ; mesh bed leveling

G1 Z0.2 F720
G1 Y-3 F1000 ; go outside print area
G92 E0
G1 X60 E9 F1000 ; intro line
G1 X100 E12.5 F1000 ; intro line

G92 E0
M221 S95

; Don't change E values below. Excessive value can damage the printer.
M907 E430 ; set extruder motor current
G21 ; set units to millimeters
G90 ; use absolute coordinates
M83 ; use relative distances for extrusion
M900 K0.05 ; Filament gcode LA 1.5
M900 K30 ; Filament gcode LA 1.0
M107
;LAYER_CHANGE
;Z:0.2
;HEIGHT:0.2
;BEFORE_LAYER_CHANGE
G92 E0.0
;0.2


G1 E-.8 F2100
G1 Z.4 F720
;AFTER_LAYER_CHANGE
;0.2
G1 X104.01 Y91.169 F10800
G1 Z.2 F720
G1 E.8 F2100
M204 S800
;TYPE:Skirt/Brim
;WIDTH:0.5
G1 F1200
G1 X105.06 Y90.262 E.05274
G1 X106.075 Y90.043 E.03945
G1 X143.925 Y90.043 E1.43854
G1 X145.256 Y90.435 E.05274
G1 X146.163 Y91.485 E.05274
G1 X146.382 Y92.5 E.03945
G1 X146.382 Y117.5 E.95016
G1 X145.99 Y118.831 E.05274
G1 X144.94 Y119.738 E.05274
G1 X143.925 Y119.957 E.03945
G1 X106.075 Y119.957 E1.43854
G1 X104.744 Y119.565 E.05274
G1 X103.837 Y118.515 E.05274
G1 X103.618 Y117.5 E.03945
G1 X103.618 Y92.5 E.95016
G1 X103.993 Y91.226 E.05046
M204 S1000
; printing object Holder support R1 .stl id:0 copy 0
;WIPE_START
M73 P0 R35
G1 F8640
G1 X105.06 Y90.262 E-.33215
G1 X106.075 Y90.043 E-.23969
G1 X106.89 Y90.043 E-.18816
;WIPE_END
G1 E-.04 F2100
G1 Z.6 F720
G1 X139.831 Y94.319 F10800
G1 Z.2 F720
G1 E.8 F2100
M204 S800
;TYPE:Perimeter
;WIDTH:0.499999
G1 F1200
G1 X142.104 Y94.321 E.08639
G1 X142.104 Y95.046 E.02756
G1 X142.104 Y96.679 E.06205
G1 X142.121 Y96.934 E.00972
;WIDTH:0.466501
G1 X142.137 Y97.189 E.009
;WIDTH:0.433003
G1 X142.154 Y97.444 E.00829
;WIDTH:0.399505
G1 X142.164 Y98.193 E.02219
;WIDTH:0.420135
G1 X142.144 Y98.442 E.00785
;WIDTH:0.460067
G1 X142.124 Y98.691 E.00868
;WIDTH:0.499999
G1 X142.104 Y98.941 E.00951
G1 X142.104 Y110.679 E.44612
G1 X142.121 Y110.934 E.00972
;WIDTH:0.466501
G1 X142.137 Y111.189 E.009
;WIDTH:0.433003
G1 X142.154 Y111.444 E.00829
;WIDTH:0.399505
G1 X142.164 Y112.193 E.02219
;WIDTH:0.420135
G1 X142.144 Y112.442 E.00785
;WIDTH:0.460067
G1 X142.124 Y112.691 E.00868
;WIDTH:0.499999
G1 X142.104 Y112.941 E.00951
G1 X142.104 Y115.679 E.10406
G1 X139.485 Y115.679 E.09955
G1 X139.107 Y115.702 E.01436
;WIDTH:0.453588
G1 X138.73 Y115.725 E.01291
;WIDTH:0.420066
G1 X137.977 Y115.719 E.02361
;WIDTH:0.460033
G1 X137.593 Y115.699 E.01335
;WIDTH:0.499999
G1 X137.208 Y115.679 E.01463
G1 X114.485 Y115.679 E.86365
G1 X114.107 Y115.702 E.01436
;WIDTH:0.453588
G1 X113.73 Y115.725 E.01291
;WIDTH:0.420066
G1 X112.977 Y115.719 E.02361
;WIDTH:0.460033
G1 X112.593 Y115.699 E.01335
;WIDTH:0.499999
G1 X112.208 Y115.679 E.01463
G1 X107.896 Y115.679 E.16389
G1 X107.896 Y94.321 E.81172
G1 X112.082 Y94.321 E.1591
G1 X112.432 Y94.305 E.0133
;WIDTH:0.467565
G1 X112.781 Y94.289 E.01235
;WIDTH:0.435131
G1 X113.345 Y94.273 E.0184
;WIDTH:0.430082
G1 X114.099 Y94.286 E.02428
;WIDTH:0.465041
G1 X114.486 Y94.304 E.01358
;WIDTH:0.499999
G1 X114.872 Y94.321 E.01471
G1 X137.082 Y94.321 E.84412
G1 X137.432 Y94.305 E.0133
;WIDTH:0.467565
G1 X137.781 Y94.289 E.01235
;WIDTH:0.435131
G1 X138.345 Y94.273 E.0184
;WIDTH:0.430082
G1 X139.099 Y94.286 E.02428
;WIDTH:0.465041
G1 X139.486 Y94.304 E.01358
;WIDTH:0.499999
G1 X139.771 Y94.317 E.01083
M204 S1000
;WIPE_START
G1 F8640
G1 X142.104 Y94.321 E-.53871
G1 X142.104 Y95.046 E-.16742
G1 X142.104 Y95.28 E-.05388
;WIPE_END
G1 E-.04 F2100
G1 Z.6 F720
G1 X142.561 Y116.136 F10800
G1 Z.2 F720
G1 E.8 F2100
M204 S800
G1 F1200
G1 X107.439 Y116.136 E1.33484
G1 X107.439 Y93.864 E.84646
M73 P1 R35
M73 Q1 S35
G1 X142.561 Y93.864 E1.33484
G1 X142.561 Y116.076 E.84418
M204 S1000
G1 X143.018 Y116.593 F10800
M204 S800
G1 F1200
G1 X106.982 Y116.593 E1.36959
G1 X106.982 Y93.407 E.88121
G1 X143.018 Y93.407 E1.36959
G1 X143.018 Y116.533 E.87893
M204 S1000
G1 X143.475 Y117.05 F10800
M204 S800
;TYPE:External perimeter
G1 F1200
G1 X106.525 Y117.05 E1.40433
G1 X106.525 Y92.95 E.91595
G1 X143.475 Y92.95 E1.40433
G1 X143.475 Y116.99 E.91367
M204 S1000
G1 X143.082 Y116.973 F10800
;WIPE_START
G1 F8640
G1 X140.184 Y116.995 E-.76
;WIPE_END
G1 E-.04 F2100
G1 Z.6 F720
G1 X140.298 Y95.119 F10800
G1 Z.2 F720
G1 E.8 F2100
M204 S800
;TYPE:Perimeter
G1 F1200
G1 X140.439 Y95.209 E.00635
G1 X140.835 Y95.535 E.01951
G1 X141.107 Y95.821 E.01499
G1 X141.506 Y96.422 E.02744
G1 X141.768 Y97.095 E.02744
;WIDTH:0.496793
G1 X141.787 Y97.332 E.00899
;WIDTH:0.45793
G1 X141.807 Y97.57 E.00822
;WIDTH:0.419066
G1 X141.826 Y97.807 E.00745
;WIDTH:0.393147
G1 X141.81 Y98.46 E.019
;WIDTH:0.428765
G1 X141.796 Y98.608 E.00478
;WIDTH:0.464382
G1 X141.783 Y98.757 E.00523
;WIDTH:0.499999
G1 X141.77 Y98.905 E.00567
G1 X141.506 Y99.577 E.02744
G1 X141.301 Y99.914 E.01499
G1 X140.982 Y100.316 E.01951
G1 X140.395 Y100.826 E.02955
G1 X139.758 Y101.167 E.02745
G1 X139.063 Y101.366 E.02745
G1 X138.452 Y101.412 E.0233
G1 X138.006 Y101.384 E.01699
G1 X137.456 Y101.266 E.02138
G1 X136.951 Y101.058 E.02076
G1 X136.435 Y100.735 E.02314
G1 X136.089 Y100.445 E.01715
G1 X135.732 Y100.045 E.02036
G1 X135.434 Y99.557 E.02177
G1 X135.211 Y98.994 E.023
G1 X135.098 Y98.496 E.0194
G1 X135.062 Y97.984 E.01952
G1 X135.083 Y97.59 E.01499
G1 X135.245 Y96.887 E.02744
G1 X135.551 Y96.233 E.02745
G1 X135.988 Y95.657 E.02745
G1 X136.536 Y95.187 E.02745
G1 X137.171 Y94.842 E.02745
G1 X137.48 Y94.762 E.01215
;WIDTH:0.468654
G1 X137.789 Y94.681 E.01132
;WIDTH:0.437308
G1 X138.315 Y94.634 E.0173
;WIDTH:0.430082
G1 X139.055 Y94.668 E.02387
;WIDTH:0.463961
G1 X139.247 Y94.696 E.00677
;WIDTH:0.497839
G1 X139.438 Y94.723 E.00731
;WIDTH:0.499999
G1 X140.106 Y94.998 E.02743
G1 X140.247 Y95.087 E.00636
M204 S1000
G1 X140.005 Y95.484 F10800
M204 S800
G1 F1200
G1 X140.148 Y95.562 E.0062
G1 X140.545 Y95.888 E.01951
G1 X140.967 Y96.402 E.02528
G1 X141.247 Y96.961 E.02379
G1 X141.404 Y97.567 E.02378
G1 X141.429 Y98.193 E.02379
G1 X141.412 Y98.39 E.00753
G1 X141.247 Y99.039 E.02544
G1 X140.943 Y99.63 E.02528
G1 X140.623 Y100.032 E.01951
G1 X140.117 Y100.463 E.02528
G1 X139.562 Y100.753 E.02379
G1 X138.959 Y100.921 E.02379
G1 X138.444 Y100.955 E.01963
G1 X138.094 Y100.936 E.01332
G1 X137.593 Y100.83 E.01945
G1 X137.132 Y100.638 E.01901
G1 X136.7 Y100.362 E.01947
G1 X136.426 Y100.137 E.01348
G1 X136.08 Y99.747 E.01979
G1 X135.81 Y99.294 E.02007
G1 X135.609 Y98.74 E.02238
G1 X135.518 Y97.952 E.03017
G1 X135.601 Y97.292 E.02528
G1 X135.814 Y96.703 E.02379
G1 X136.146 Y96.173 E.02379
G1 X136.582 Y95.724 E.02379
G1 X137.103 Y95.377 E.02379
G1 X137.684 Y95.147 E.02377
G1 X138.315 Y95.043 E.02429
G1 X138.959 Y95.079 E.02454
G1 X139.562 Y95.247 E.02379
G1 X139.952 Y95.456 E.0168
M204 S1000
G1 X139.782 Y95.875 F10800
M204 S800
G1 F1200
G1 X139.858 Y95.915 E.00324
G1 X140.254 Y96.241 E.01951
G1 X140.599 Y96.673 E.02101
G1 X140.831 Y97.149 E.02012
G1 X140.957 Y97.663 E.02012
G1 X140.962 Y98.311 E.02462
G1 X140.831 Y98.851 E.02111
G1 X140.585 Y99.346 E.02101
G1 X140.265 Y99.748 E.01951
G1 X139.839 Y100.1 E.02101
G1 X139.367 Y100.34 E.02012
G1 X138.855 Y100.475 E.02012
G1 X138.327 Y100.5 E.02012
G1 X137.805 Y100.413 E.02011
G1 X137.312 Y100.218 E.02014
G1 X136.872 Y99.924 E.02012
G1 X136.503 Y99.544 E.02012
G1 X136.223 Y99.095 E.02012
G1 X136.043 Y98.597 E.02011
G1 X135.974 Y97.919 E.0259
G1 X136.05 Y97.372 E.02101
G1 X136.237 Y96.876 E.02012
G1 X136.523 Y96.431 E.02012
G1 X136.896 Y96.056 E.02012
G1 X137.34 Y95.767 E.02012
G1 X137.835 Y95.579 E.02011
G1 X138.327 Y95.5 E.01895
G1 X138.855 Y95.525 E.02011
G1 X139.367 Y95.66 E.02012
G1 X139.729 Y95.848 E.01549
M204 S1000
G1 X139.547 Y96.257 F10800
M204 S800
;TYPE:External perimeter
G1 F1200
G1 X139.964 Y96.594 E.02038
G1 X140.256 Y96.986 E.01857
G1 X140.429 Y97.383 E.01646
G1 X140.515 Y97.807 E.01646
G1 X140.512 Y98.232 E.01614
G1 X140.414 Y98.663 E.01679
G1 X140.226 Y99.062 E.01675
G1 X139.907 Y99.464 E.01951
G1 X139.52 Y99.762 E.01857
G1 X139.126 Y99.943 E.01646
G1 X138.704 Y100.036 E.01646
G1 X138.27 Y100.039 E.01646
G1 X137.739 Y99.904 E.02082
G1 X137.45 Y99.775 E.01204
G1 X137.1 Y99.52 E.01646
G1 X136.812 Y99.197 E.01646
G1 X136.597 Y98.82 E.01646
G1 X136.466 Y98.399 E.01675
G1 X136.43 Y97.887 E.01952
G1 X136.514 Y97.406 E.01857
G1 X136.683 Y97.007 E.01646
G1 X136.931 Y96.652 E.01646
G1 X137.249 Y96.358 E.01646
G1 X137.622 Y96.137 E.01646
G1 X138.024 Y96 E.01615
G1 X138.319 Y95.957 E.01132
G1 X138.751 Y95.97 E.01645
G1 X139.172 Y96.073 E.01646
G1 X139.493 Y96.231 E.01359
M204 S1000
G1 X139.902 Y96.073 F10800
;WIPE_START
G1 F8640
G1 X139.964 Y96.594 E-.13734
G1 X140.256 Y96.986 E-.11284
G1 X140.429 Y97.383 E-.10002
M73 Q2 S35
G1 X140.515 Y97.807 E-.10001
G1 X140.512 Y98.232 E-.09805
G1 X140.414 Y98.663 E-.10203
G1 X140.226 Y99.062 E-.10176
G1 X140.205 Y99.089 E-.00796
;WIPE_END
G1 E-.04 F2100
G1 Z.6 F720
G1 X136.35 Y109.33 F10800
G1 Z.2 F720
M73 P2 R35
G1 E.8 F2100
M204 S800
;TYPE:Perimeter
G1 F1200
G1 X136.437 Y109.252 E.00442
G1 X136.864 Y108.987 E.01914
G1 X137.358 Y108.768 E.02049
G1 X138.006 Y108.616 E.02531
G1 X138.728 Y108.593 E.02745
G1 X139.438 Y108.722 E.02745
G1 X140.106 Y108.998 E.02744
G1 X140.439 Y109.209 E.01499
G1 X140.835 Y109.535 E.01951
G1 X141.335 Y110.13 E.02955
G1 X141.664 Y110.773 E.02745
G1 X141.768 Y111.095 E.01285
;WIDTH:0.496793
G1 X141.787 Y111.332 E.00899
;WIDTH:0.45793
G1 X141.807 Y111.57 E.00822
;WIDTH:0.419066
G1 X141.826 Y111.807 E.00745
;WIDTH:0.393147
G1 X141.81 Y112.46 E.019
;WIDTH:0.428765
G1 X141.796 Y112.608 E.00478
;WIDTH:0.464382
G1 X141.783 Y112.757 E.00523
;WIDTH:0.499999
G1 X141.77 Y112.905 E.00567
G1 X141.506 Y113.577 E.02744
G1 X141.301 Y113.914 E.01499
G1 X140.982 Y114.316 E.01951
G1 X140.7 Y114.593 E.01499
G1 X140.106 Y115.002 E.02744
G1 X139.438 Y115.278 E.02745
G1 X139.083 Y115.32 E.01361
;WIDTH:0.453588
G1 X138.727 Y115.361 E.01223
;WIDTH:0.420066
G1 X138.014 Y115.345 E.02238
;WIDTH:0.458727
G1 X137.821 Y115.327 E.00669
;WIDTH:0.497387
G1 X137.628 Y115.309 E.00731
;WIDTH:0.499999
G1 X136.951 Y115.058 E.02744
G1 X136.342 Y114.669 E.02745
G1 X135.829 Y114.161 E.02745
G1 X135.434 Y113.557 E.02745
G1 X135.174 Y112.883 E.02744
G1 X135.096 Y112.458 E.01642
G1 X135.059 Y111.812 E.0246
G1 X135.151 Y111.211 E.02309
G1 X135.33 Y110.679 E.02135
G1 X135.551 Y110.233 E.01894
G1 X135.988 Y109.657 E.02745
G1 X136.306 Y109.371 E.01627
M204 S1000
G1 X136.647 Y109.675 F10800
M204 S800
G1 F1200
G1 X137.135 Y109.358 E.02207
G1 X137.659 Y109.151 E.02144
G1 X138.213 Y109.047 E.0214
G1 X138.72 Y109.05 E.01927
G1 X139.334 Y109.167 E.02379
G1 X139.91 Y109.411 E.02377
G1 X140.545 Y109.888 E.03017
G1 X140.967 Y110.402 E.02528
G1 X141.247 Y110.961 E.02379
G1 X141.404 Y111.567 E.02378
G1 X141.429 Y112.193 E.02379
G1 X141.412 Y112.39 E.00753
G1 X141.247 Y113.039 E.02544
G1 X140.943 Y113.63 E.02528
G1 X140.623 Y114.032 E.01951
G1 X140.117 Y114.463 E.02528
G1 X139.562 Y114.753 E.02379
G1 X138.959 Y114.921 E.02379
G1 X138.335 Y114.957 E.02379
G1 X137.716 Y114.862 E.02379
G1 X137.132 Y114.638 E.02379
G1 X136.607 Y114.297 E.02379
G1 X136.166 Y113.853 E.02379
G1 X135.828 Y113.326 E.02379
G1 X135.609 Y112.74 E.02377
G1 X135.518 Y111.952 E.03017
G1 X135.601 Y111.292 E.02528
G1 X135.788 Y110.767 E.02118
G1 X135.928 Y110.491 E.01178
G1 X136.302 Y109.989 E.02379
G1 X136.603 Y109.715 E.01546
M204 S1000
G1 X137.001 Y109.988 F10800
M204 S800
G1 F1200
G1 X137.34 Y109.767 E.01535
G1 X137.805 Y109.587 E.01895
G1 X138.327 Y109.5 E.02011
G1 X138.855 Y109.525 E.02012
G1 X139.367 Y109.66 E.02012
G1 X139.858 Y109.915 E.02101
G1 X140.254 Y110.241 E.01951
G1 X140.599 Y110.673 E.02101
G1 X140.831 Y111.149 E.02012
G1 X140.957 Y111.663 E.02012
G1 X140.962 Y112.311 E.02462
G1 X140.831 Y112.851 E.02111
G1 X140.585 Y113.346 E.02101
G1 X140.265 Y113.748 E.01951
G1 X139.839 Y114.1 E.02101
G1 X139.367 Y114.34 E.02012
G1 X138.855 Y114.475 E.02012
G1 X138.327 Y114.5 E.02012
G1 X137.804 Y114.413 E.02012
G1 X137.312 Y114.218 E.02012
G1 X136.872 Y113.924 E.02012
G1 X136.503 Y113.544 E.02012
G1 X136.223 Y113.095 E.02012
G1 X136.043 Y112.597 E.02011
G1 X135.974 Y111.919 E.0259
G1 X136.05 Y111.372 E.02101
G1 X136.237 Y110.876 E.02012
G1 X136.51 Y110.45 E.01926
G1 X136.896 Y110.056 E.02097
G1 X136.951 Y110.02 E.00247
M204 S1000
G1 X137.271 Y110.345 F10800
M204 S800
;TYPE:External perimeter
G1 F1200
G1 X137.614 Y110.14 E.01518
G1 X137.893 Y110.035 E.01132
G1 X138.428 Y109.959 E.02054
G1 X138.751 Y109.97 E.0123
G1 X139.172 Y110.073 E.01646
G1 X139.568 Y110.268 E.01675
G1 X139.964 Y110.594 E.01951
G1 X140.256 Y110.986 E.01857
G1 X140.429 Y111.383 E.01646
G1 X140.515 Y111.807 E.01646
G1 X140.512 Y112.232 E.01614
G1 X140.414 Y112.663 E.01679
G1 X140.226 Y113.062 E.01675
G1 X139.907 Y113.464 E.01951
G1 X139.52 Y113.762 E.01857
G1 X139.126 Y113.943 E.01646
G1 X138.704 Y114.036 E.01646
G1 X138.27 Y114.039 E.01646
G1 X137.846 Y113.95 E.01646
G1 X137.45 Y113.775 E.01646
G1 X137.1 Y113.52 E.01646
G1 X136.812 Y113.197 E.01646
G1 X136.597 Y112.82 E.01646
G1 X136.463 Y112.362 E.01816
G1 X136.43 Y111.863 E.019
G1 X136.514 Y111.406 E.01766
G1 X136.683 Y111.007 E.01646
G1 X136.931 Y110.652 E.01646
G1 X137.224 Y110.381 E.01515
M204 S1000
G1 X137.224 Y109.948 F10800
;WIPE_START
G1 F8640
G1 X137.614 Y110.14 E-.10593
G1 X137.893 Y110.035 E-.06879
G1 X138.428 Y109.959 E-.1248
G1 X138.751 Y109.97 E-.07475
G1 X139.172 Y110.073 E-.10002
G1 X139.568 Y110.268 E-.10176
G1 X139.964 Y110.594 E-.11856
G1 X140.133 Y110.821 E-.0654
;WIPE_END
G1 E-.04 F2100
G1 Z.6 F720
G1 X123.753 Y98.558 F10800
G1 Z.2 F720
G1 E.8 F2100
M204 S800
;TYPE:Perimeter
G1 F1200
G1 X124.873 Y98.274 E.04389
G1 X125.744 Y98.185 E.03329
G1 X125.998 Y98.185 E.00966
G1 X127.032 Y98.267 E.0394
G1 X127.344 Y98.324 E.01207
G1 X128.341 Y98.609 E.0394
G1 X128.636 Y98.726 E.01207
G1 X129.557 Y99.202 E.03939
G1 X130.199 Y99.677 E.03035
G1 X130.631 Y100.024 E.02108
G1 X130.858 Y100.246 E.01207
G1 X131.523 Y101.041 E.03939
G1 X131.793 Y101.473 E.01934
G1 X132.195 Y102.215 E.0321
G1 X132.505 Y103.034 E.03328
G1 X132.728 Y104.063 E.03999
G1 X132.793 Y104.905 E.03209
G1 X132.774 Y105.428 E.01992
G1 X132.729 Y105.929 E.01912
G1 X132.564 Y106.75 E.0318
G1 X132.401 Y107.23 E.01929
G1 X132.1 Y107.989 E.031
G1 X131.705 Y108.692 E.03068
G1 X131.167 Y109.403 E.03386
G1 X130.825 Y109.788 E.01957
G1 X130.043 Y110.468 E.03939
G1 X129.784 Y110.651 E.01207
G1 X128.883 Y111.164 E.03939
G1 X128.07 Y111.489 E.03328
G1 X127.046 Y111.733 E.03999
G1 X126.763 Y111.77 E.01087
G1 X125.727 Y111.811 E.03939
G1 X124.855 Y111.727 E.03329
G1 X124.606 Y111.676 E.00966
G1 X123.609 Y111.391 E.0394
G1 X123.314 Y111.274 E.01207
G1 X122.393 Y110.798 E.03939
G1 X121.752 Y110.324 E.03031
G1 X121.319 Y109.976 E.02112
G1 X120.883 Y109.504 E.02442
G1 X120.427 Y108.959 E.02702
G1 X120.065 Y108.358 E.02666
G1 X119.755 Y107.785 E.02477
G1 X119.457 Y107.001 E.03187
G1 X119.223 Y105.938 E.04135
G1 X119.157 Y105.095 E.03214
G1 X119.193 Y104.291 E.03062
G1 X119.374 Y103.31 E.03791
G1 X119.652 Y102.447 E.03443
G1 X119.863 Y101.993 E.01905
G1 X120.095 Y101.548 E.01908
G1 X120.578 Y100.835 E.03272
G1 X121.128 Y100.203 E.03186
G1 X121.792 Y99.628 E.03336
G1 X122.111 Y99.381 E.01533
