; generated by PrusaSlicer 2.5.0+win64 on 2023-01-23 at 11:02:35 UTC


;
;
; 

; external perimeters extrusion width = 0.45mm
; perimeters extrusion width = 0.45mm
; infill extrusion width = 0.45mm
; solid infill extrusion width = 0.45mm
; top infill extrusion width = 0.40mm
; first layer extrusion width = 0.42mm

M73 P0 R96
M73 Q0 S97
M201 X1000 Y1000 Z200 E5000 ; sets maximum accelerations, mm/sec^2
M203 X200 Y200 Z12 E120 ; sets maximum feedrates, mm / sec
M204 P1250 R1250 T1250 ; sets acceleration (P, T) and retract acceleration (R), mm/sec^2
M205 X8.00 Y8.00 Z0.40 E4.50 ; sets the jerk limits, mm/sec
M205 S0 T0 ; sets the minimum extruding and travel feed rate, mm/sec
M107
;TYPE:Custom
M862.3 P "MK3S" ; printer model check
M862.1 P0.4 ; nozzle diameter check
M115 U3.11.0 ; tell printer latest fw version
G90 ; use absolute coordinates
M83 ; extruder relative mode
M104 S215 ; set extruder temp
M140 S60 ; set bed temp
M190 S60 ; wait for bed temp
M109 S215 ; wait for extruder temp
G28 W ; home all without mesh bed level
G80 ; mesh bed leveling

G1 Z0.2 F720
G1 Y-3 F1000 ; go outside print area
G92 E0
G1 X60 E9 F1000 ; intro line
G1 X100 E12.5 F1000 ; intro line

G92 E0
M221 S95

; Don't change E values below. Excessive value can damage the printer.
M907 E430 ; set extruder motor current
G21 ; set units to millimeters
G90 ; use absolute coordinates
M83 ; use relative distances for extrusion
M900 K0.05 ; Filament gcode LA 1.5
M900 K30 ; Filament gcode LA 1.0
M107
;LAYER_CHANGE
;Z:0.2
;HEIGHT:0.2
;BEFORE_LAYER_CHANGE
G92 E0.0
;0.2


G1 E-.8 F2100
G1 Z.4 F720
;AFTER_LAYER_CHANGE
;0.2
G1 X74.16 Y95.317 F10800
G1 Z.2 F720
G1 E.8 F2100
M204 S800
;TYPE:Skirt/Brim
;WIDTH:0.42
G1 F1200
G1 X75.1 Y95.123 E.03008
G1 X174.9 Y95.123 E3.12916
G1 X176.207 Y95.515 E.04278
G1 X177.083 Y96.56 E.04278
G1 X177.277 Y97.5 E.03008
G1 X177.277 Y112.5 E.47031
G1 X176.885 Y113.807 E.04278
G1 X175.84 Y114.683 E.04278
G1 X174.9 Y114.877 E.03008
G1 X75.1 Y114.877 E3.12916
G1 X73.793 Y114.485 E.04278
G1 X72.917 Y113.44 E.04278
G1 X72.723 Y112.5 E.03008
G1 X72.723 Y97.5 E.47031
G1 X73.115 Y96.193 E.04278
G1 X74.114 Y95.355 E.0409
M204 S1000
; printing object Lead Screw HOlder.stl id:0 copy 0
;WIPE_START
G1 F8640
G1 X75.1 Y95.123 E-.23384
G1 X77.379 Y95.123 E-.52616
;WIPE_END
G1 E-.04 F2100
G1 Z.6 F720
G1 X76.641 Y99.041 F10800
G1 Z.2 F720
G1 E.8 F2100
M204 S800
;TYPE:Perimeter
;WIDTH:0.419999
G1 F1200
G1 X93.69 Y99.041 E.53455
;WIDTH:0.445051
G1 X94.045 Y99.054 E.01188
;WIDTH:0.470102
M73 P0 R95
G1 X94.4 Y99.066 E.01262
G1 X95.036 Y99.052 E.02258
;WIDTH:0.468339
G1 X95.579 Y99.065 E.01923
G1 X96.244 Y99.041 E.02352
;WIDTH:0.419999
G1 X123.69 Y99.041 E.86056
;WIDTH:0.445051
G1 X124.045 Y99.054 E.01188
;WIDTH:0.470103
G1 X124.4 Y99.066 E.01262
G1 X125.036 Y99.052 E.02258
;WIDTH:0.46834
G1 X125.579 Y99.065 E.01923
G1 X126.244 Y99.041 E.02352
;WIDTH:0.419999
G1 X153.69 Y99.041 E.86055
;WIDTH:0.445051
G1 X154.045 Y99.054 E.01188
;WIDTH:0.470102
G1 X154.4 Y99.066 E.01262
G1 X155.036 Y99.052 E.02258
;WIDTH:0.46834
G1 X155.579 Y99.065 E.01923
G1 X156.244 Y99.041 E.02352
;WIDTH:0.419999
G1 X173.359 Y99.041 E.53663
G1 X173.359 Y105 E.18683
G1 X173.359 Y110.959 E.18683
M73 Q0 S96
G1 X76.641 Y110.959 E3.03251
G1 X76.641 Y99.101 E.37178
M204 S1000
G1 X76.264 Y98.664 F10800
M204 S800
G1 F1200
G1 X173.736 Y98.664 E3.05615
G1 X173.736 Y111.336 E.39731
G1 X76.264 Y111.336 E3.05615
G1 X76.264 Y98.724 E.39543
M204 S1000
G1 X75.887 Y98.287 F10800
M204 S800
G1 F1200
G1 X174.113 Y98.287 E3.0798
G1 X174.113 Y111.713 E.42096
G1 X75.887 Y111.713 E3.0798
G1 X75.887 Y98.347 E.41908
M204 S1000
G1 X75.51 Y97.91 F10800
M204 S800
;TYPE:External perimeter
G1 F1200
G1 X174.49 Y97.91 E3.10344
G1 X174.49 Y112.09 E.4446
M73 P1 R95
G1 X75.51 Y112.09 E3.10344
M73 Q1 S96
G1 X75.51 Y97.97 E.44272
M204 S1000
G1 X75.91 Y97.929 F10800
;WIPE_START
G1 F8640
G1 X78.801 Y97.968 E-.76
;WIPE_END
G1 E-.04 F2100
G1 Z.6 F720
G1 X151.972 Y102.573 F10800
G1 Z.2 F720
G1 E.8 F2100
M204 S800
;TYPE:Perimeter
G1 F1200
G1 X151.969 Y102.267 E.00961
G1 X152.079 Y101.667 E.01914
G1 X152.327 Y101.058 E.02059
G1 X152.699 Y100.517 E.02059
G1 X153.17 Y100.076 E.02021
G1 X153.585 Y99.81 E.01547
;WIDTH:0.438061
G1 X154.153 Y99.574 E.0202
;WIDTH:0.470102
G1 X154.428 Y99.492 E.01019
G1 X154.959 Y99.449 E.01894
;WIDTH:0.46834
G1 X155.53 Y99.485 E.02023
G1 X156.111 Y99.671 E.02159
;WIDTH:0.419999
G1 X156.547 Y99.887 E.01526
G1 X157.073 Y100.28 E.02058
G1 X157.502 Y100.778 E.02059
G1 X157.797 Y101.31 E.0191
G1 X157.949 Y101.773 E.01526
G1 X158.037 Y102.375 E.01909
G1 X158.037 Y102.625 E.00781
G1 X157.949 Y103.227 E.0191
G1 X157.723 Y103.844 E.02059
G1 X157.371 Y104.398 E.02059
G1 X156.908 Y104.863 E.02058
G1 X156.507 Y105.14 E.01526
G1 X155.949 Y105.385 E.0191
G1 X155.307 Y105.522 E.02059
G1 X154.65 Y105.517 E.02058
G1 X154.172 Y105.425 E.01526
G1 X153.607 Y105.199 E.0191
G1 X153.059 Y104.836 E.02058
G1 X152.709 Y104.498 E.01526
G1 X152.359 Y104 E.0191
G1 X152.098 Y103.397 E.02059
G1 X151.974 Y102.755 E.02051
G1 X151.973 Y102.633 E.00381
M204 S1000
G1 X152.35 Y102.636 F10800
M204 S800
G1 F1200
G1 X152.337 Y102.531 E.00331
G1 X152.368 Y102.111 E.01321
G1 X152.513 Y101.554 E.01803
G1 X152.774 Y101.042 E.01804
G1 X153.138 Y100.599 E.01799
G1 X153.551 Y100.266 E.01662
G1 X153.932 Y100.063 E.01354
G1 X154.437 Y99.897 E.01665
G1 X154.959 Y99.836 E.01649
G1 X155.437 Y99.875 E.01502
G1 X155.959 Y100.016 E.01696
G1 X156.336 Y100.199 E.01313
G1 X156.799 Y100.539 E.01803
G1 X157.178 Y100.972 E.01804
G1 X157.444 Y101.444 E.01697
G1 X157.578 Y101.841 E.01313
G1 X157.66 Y102.375 E.01696
G1 X157.66 Y102.625 E.00781
G1 X157.578 Y103.16 E.01698
G1 X157.376 Y103.699 E.01804
G1 X157.062 Y104.181 E.01804
G1 X156.653 Y104.585 E.01803
G1 X156.155 Y104.897 E.01843
G1 X155.624 Y105.087 E.0177
G1 X155.093 Y105.162 E.01679
G1 X154.503 Y105.116 E.01857
G1 X154.099 Y105.004 E.01313
G1 X153.582 Y104.752 E.01803
G1 X153.155 Y104.42 E.01697
G1 X152.878 Y104.105 E.01313
G1 X152.583 Y103.612 E.01803
G1 X152.4 Y103.067 E.01803
G1 X152.357 Y102.696 E.01171
M204 S1000
G1 X152.721 Y102.599 F10800
M204 S800
G1 F1200
G1 X152.736 Y102.192 E.01276
G1 X152.855 Y101.713 E.01548
G1 X153.074 Y101.27 E.01549
G1 X153.383 Y100.886 E.01546
G1 X153.741 Y100.592 E.01452
G1 X154.059 Y100.418 E.01136
G1 X154.527 Y100.265 E.01545
G1 X154.987 Y100.214 E.01452
G1 X155.349 Y100.242 E.01137
G1 X155.807 Y100.361 E.01484
G1 X156.124 Y100.511 E.011
G1 X156.525 Y100.799 E.01548
G1 X156.855 Y101.166 E.01549
G1 X157.092 Y101.577 E.01485
G1 X157.207 Y101.908 E.011
G1 X157.283 Y102.375 E.01484
G1 X157.283 Y102.625 E.00781
G1 X157.194 Y103.147 E.0166
G1 X156.969 Y103.66 E.01757
G1 X156.673 Y104.056 E.01549
G1 X156.318 Y104.368 E.01485
G1 X156.015 Y104.547 E.011
G1 X155.552 Y104.717 E.01548
G1 X155.063 Y104.784 E.01549
G1 X154.59 Y104.749 E.01485
G1 X154.251 Y104.659 E.011
G1 X153.805 Y104.447 E.01548
G1 X153.428 Y104.16 E.01485
G1 X153.194 Y103.899 E.011
G1 X152.935 Y103.479 E.01548
G1 X152.773 Y103.012 E.01549
G1 X152.729 Y102.658 E.01119
M204 S1000
G1 X153.093 Y102.513 F10800
M204 S800
;TYPE:External perimeter
G1 F1200
G1 X153.104 Y102.273 E.00754
G1 X153.197 Y101.871 E.01293
G1 X153.375 Y101.498 E.01295
G1 X153.628 Y101.173 E.01293
G1 X153.931 Y100.918 E.01242
G1 X154.186 Y100.773 E.00919
G1 X154.575 Y100.639 E.01292
G1 X154.969 Y100.591 E.01241
G1 X155.261 Y100.609 E.00919
G1 X155.655 Y100.706 E.01271
G1 X155.913 Y100.823 E.00888
G1 X156.251 Y101.058 E.01293
G1 X156.532 Y101.361 E.01295
G1 X156.739 Y101.71 E.01272
G1 X156.836 Y101.976 E.00888
G1 X156.906 Y102.375 E.01271
G1 X156.906 Y102.625 E.00781
G1 X156.824 Y103.063 E.01399
G1 X156.66 Y103.442 E.01295
G1 X156.419 Y103.777 E.01294
G1 X156.117 Y104.049 E.01272
G1 X155.876 Y104.196 E.00888
G1 X155.491 Y104.345 E.01293
G1 X155.083 Y104.407 E.01295
G1 X154.678 Y104.382 E.01272
G1 X154.403 Y104.314 E.00888
G1 X154.028 Y104.143 E.01293
G1 X153.702 Y103.901 E.01272
G1 X153.51 Y103.693 E.00888
G1 X153.288 Y103.345 E.01293
G1 X153.146 Y102.958 E.01294
G1 X153.093 Y102.573 E.01217
M204 S1000
G1 X152.88 Y102.403 F10800
;WIPE_START
G1 F8640
G1 X153.104 Y102.273 E-.06936
G1 X153.197 Y101.871 E-.09525
G1 X153.375 Y101.498 E-.09533
G1 X153.628 Y101.173 E-.09525
G1 X153.931 Y100.918 E-.09146
G1 X154.186 Y100.773 E-.06768
G1 X154.575 Y100.639 E-.09516
G1 X154.969 Y100.591 E-.09142
G1 X155.224 Y100.606 E-.05909
;WIPE_END
G1 E-.04 F2100
G1 Z.6 F720
G1 X126.001 Y99.636 F10800
G1 Z.2 F720
G1 E.8 F2100
M204 S800
;TYPE:Perimeter
;WIDTH:0.46834
G1 F1200
G1 X126.111 Y99.671 E.00408
;WIDTH:0.419999
G1 X126.547 Y99.887 E.01526
G1 X127.073 Y100.28 E.02058
G1 X127.501 Y100.778 E.02059
G1 X127.813 Y101.356 E.02059
G1 X127.987 Y101.94 E.0191
G1 X128.023 Y102.186 E.00781
G1 X128.023 Y102.795 E.0191
G1 X127.889 Y103.438 E.02059
G1 X127.619 Y104.037 E.02058
G1 X127.342 Y104.437 E.01526
G1 X126.907 Y104.864 E.0191
G1 X126.355 Y105.218 E.02058
G1 X125.904 Y105.402 E.01526
G1 X125.307 Y105.522 E.01909
G1 X124.821 Y105.534 E.01526
G1 X124.219 Y105.435 E.0191
G1 X123.607 Y105.199 E.02059
G1 X123.059 Y104.836 E.02058
G1 X122.709 Y104.498 E.01526
G1 X122.359 Y104 E.0191
G1 X122.098 Y103.397 E.02059
G1 X121.974 Y102.755 E.02051
G1 X121.97 Y102.267 E.0153
G1 X122.079 Y101.667 E.01913
G1 X122.327 Y101.058 E.02059
G1 X122.699 Y100.517 E.02059
G1 X123.179 Y100.069 E.02058
G1 X123.589 Y99.808 E.01526
;WIDTH:0.438059
G1 X124.153 Y99.574 E.02003
;WIDTH:0.470103
G1 X124.428 Y99.492 E.01019
G1 X124.959 Y99.449 E.01894
;WIDTH:0.46834
G1 X125.53 Y99.485 E.02023
G1 X125.944 Y99.618 E.01539
M204 S1000
G1 X125.857 Y99.988 F10800
M204 S800
;WIDTH:0.419999
G1 F1200
G1 X125.959 Y100.016 E.00332
G1 X126.336 Y100.199 E.01313
G1 X126.799 Y100.539 E.01803
G1 X127.178 Y100.972 E.01804
G1 X127.456 Y101.476 E.01804
G1 X127.614 Y101.994 E.01698
G1 X127.65 Y102.24 E.00781
G1 X127.646 Y102.782 E.01697
G1 X127.523 Y103.344 E.01804
G1 X127.283 Y103.866 E.01803
G1 X126.927 Y104.334 E.01843
G1 X126.488 Y104.706 E.01803
G1 X126.012 Y104.963 E.01698
G1 X125.613 Y105.089 E.01313
G1 X125.094 Y105.162 E.01643
G1 X124.658 Y105.139 E.01366
G1 X124.099 Y105.004 E.01803
G1 X123.582 Y104.752 E.01804
G1 X123.155 Y104.42 E.01697
G1 X122.878 Y104.105 E.01313
G1 X122.583 Y103.612 E.01803
G1 X122.4 Y103.067 E.01803
G1 X122.337 Y102.531 E.01691
G1 X122.368 Y102.111 E.01321
G1 X122.513 Y101.554 E.01803
G1 X122.774 Y101.042 E.01804
G1 X123.14 Y100.597 E.01804
G1 X123.562 Y100.259 E.01697
G1 X123.932 Y100.063 E.01313
G1 X124.437 Y99.897 E.01665
G1 X124.959 Y99.836 E.01649
G1 X125.437 Y99.875 E.01502
G1 X125.799 Y99.973 E.01176
M204 S1000
G1 X125.754 Y100.347 F10800
M204 S800
G1 F1200
G1 X126.124 Y100.511 E.0127
G1 X126.525 Y100.799 E.01548
G1 X126.855 Y101.166 E.01549
G1 X127.099 Y101.596 E.01549
G1 X127.241 Y102.048 E.01485
G1 X127.277 Y102.295 E.00781
G1 X127.263 Y102.833 E.01688
G1 X127.115 Y103.364 E.01729
G1 X126.893 Y103.782 E.01485
G1 X126.673 Y104.056 E.011
G1 X126.3 Y104.379 E.01548
G1 X125.885 Y104.608 E.01485
G1 X125.552 Y104.717 E.011
G1 X125.083 Y104.785 E.01484
G1 X124.733 Y104.769 E.011
G1 X124.252 Y104.659 E.01548
G1 X123.805 Y104.447 E.01549
G1 X123.428 Y104.16 E.01485
G1 X123.194 Y103.899 E.011
G1 X122.935 Y103.479 E.01548
G1 X122.773 Y103.012 E.01549
G1 X122.714 Y102.544 E.01479
G1 X122.736 Y102.192 E.01107
G1 X122.855 Y101.713 E.01548
G1 X123.074 Y101.27 E.01549
G1 X123.384 Y100.885 E.01549
G1 X123.751 Y100.585 E.01485
G1 X124.059 Y100.418 E.011
G1 X124.527 Y100.265 E.01545
G1 X124.987 Y100.214 E.01452
G1 X125.349 Y100.242 E.01137
G1 X125.696 Y100.332 E.01123
M204 S1000
G1 X125.674 Y100.715 F10800
M204 S800
;TYPE:External perimeter
G1 F1200
G1 X125.913 Y100.823 E.00823
G1 X126.251 Y101.058 E.01293
G1 X126.532 Y101.361 E.01295
G1 X126.741 Y101.717 E.01294
G1 X126.868 Y102.102 E.01272
G1 X126.904 Y102.349 E.00781
G1 X126.886 Y102.795 E.01399
G1 X126.779 Y103.194 E.01295
G1 X126.593 Y103.554 E.01272
G1 X126.419 Y103.778 E.00888
G1 X126.111 Y104.053 E.01293
G1 X125.758 Y104.253 E.01272
G1 X125.491 Y104.345 E.00888
G1 X125.09 Y104.408 E.01271
G1 X124.807 Y104.399 E.00888
G1 X124.404 Y104.314 E.01293
G1 X124.028 Y104.143 E.01295
G1 X123.702 Y103.901 E.01272
G1 X123.51 Y103.693 E.00888
G1 X123.288 Y103.346 E.01293
G1 X123.146 Y102.958 E.01294
G1 X123.091 Y102.558 E.01267
G1 X123.104 Y102.273 E.00893
G1 X123.197 Y101.871 E.01293
G1 X123.375 Y101.498 E.01295
G1 X123.628 Y101.172 E.01295
G1 X123.939 Y100.912 E.01272
G1 X124.186 Y100.773 E.00888
G1 X124.575 Y100.639 E.01292
G1 X124.969 Y100.591 E.01241
G1 X125.261 Y100.609 E.00919
G1 X125.617 Y100.697 E.01148
M204 S1000
G1 X125.873 Y100.544 F10800
;WIPE_START
G1 F8640
G1 X125.913 Y100.823 E-.07433
G1 X126.251 Y101.058 E-.09523
G1 X126.532 Y101.361 E-.09534
G1 X126.741 Y101.717 E-.09532
G1 X126.868 Y102.102 E-.0937
G1 X126.904 Y102.349 E-.05755
G1 X126.886 Y102.795 E-.10305
G1 X126.779 Y103.194 E-.09534
G1 X126.679 Y103.386 E-.05014
;WIPE_END
G1 E-.04 F2100
G1 Z.6 F720
G1 X91.972 Y102.573 F10800
G1 Z.2 F720
G1 E.8 F2100
M204 S800
;TYPE:Perimeter
G1 F1200
G1 X91.969 Y102.267 E.00961
G1 X92.079 Y101.667 E.01914
G1 X92.327 Y101.058 E.02059
G1 X92.699 Y100.517 E.02059
G1 X93.17 Y100.076 E.02021
G1 X93.585 Y99.81 E.01547
;WIDTH:0.438061
G1 X94.153 Y99.574 E.0202
;WIDTH:0.470102
G1 X94.428 Y99.492 E.01019
G1 X94.789 Y99.457 E.01288
;WIDTH:0.468339
G1 X95.53 Y99.485 E.02624
G1 X96.111 Y99.671 E.02159
;WIDTH:0.419999
G1 X96.547 Y99.887 E.01526
G1 X97.073 Y100.28 E.02058
G1 X97.502 Y100.778 E.02059
G1 X97.797 Y101.31 E.0191
G1 X97.949 Y101.773 E.01526
G1 X98.037 Y102.375 E.01909
G1 X98.015 Y102.862 E.01526
G1 X97.919 Y103.355 E.01576
G1 X97.723 Y103.844 E.01653
G1 X97.371 Y104.398 E.02059
G1 X96.908 Y104.863 E.02058
G1 X96.507 Y105.14 E.01526
G1 X95.949 Y105.385 E.0191
G1 X95.307 Y105.522 E.02059
G1 X94.65 Y105.517 E.02058
G1 X94.172 Y105.425 E.01526
G1 X93.607 Y105.199 E.0191
G1 X93.059 Y104.836 E.02058
G1 X92.709 Y104.498 E.01526
G1 X92.359 Y104 E.0191
G1 X92.098 Y103.397 E.02059
G1 X91.974 Y102.755 E.02051
G1 X91.973 Y102.633 E.00381
M204 S1000
G1 X92.35 Y102.636 F10800
M204 S800
G1 F1200
G1 X92.337 Y102.531 E.00331
G1 X92.368 Y102.111 E.01321
G1 X92.513 Y101.554 E.01803
G1 X92.774 Y101.042 E.01804
G1 X93.138 Y100.599 E.01799
G1 X93.551 Y100.266 E.01662
G1 X93.932 Y100.063 E.01354
G1 X94.437 Y99.897 E.01665
G1 X94.838 Y99.844 E.01271
G1 X95.437 Y99.875 E.01878
G1 X95.959 Y100.016 E.01696
G1 X96.336 Y100.199 E.01313
G1 X96.799 Y100.539 E.01803
G1 X97.178 Y100.972 E.01804
G1 X97.444 Y101.444 E.01697
G1 X97.578 Y101.841 E.01313
G1 X97.66 Y102.375 E.01696
G1 X97.645 Y102.794 E.01313
G1 X97.52 Y103.355 E.01803
G1 X97.277 Y103.877 E.01804
G1 X96.928 Y104.334 E.01804
G1 X96.518 Y104.688 E.01698
G1 X96.155 Y104.897 E.01313
G1 X95.624 Y105.087 E.0177
G1 X95.093 Y105.162 E.01679
G1 X94.503 Y105.116 E.01857
G1 X94.099 Y105.004 E.01313
G1 X93.582 Y104.752 E.01803
G1 X93.155 Y104.42 E.01697
G1 X92.878 Y104.105 E.01313
G1 X92.583 Y103.612 E.01803
G1 X92.4 Y103.067 E.01803
G1 X92.357 Y102.696 E.01171
M204 S1000
G1 X92.721 Y102.599 F10800
M204 S800
G1 F1200
G1 X92.736 Y102.192 E.01276
G1 X92.855 Y101.713 E.01548
G1 X93.074 Y101.27 E.01549
G1 X93.383 Y100.886 E.01546
G1 X93.741 Y100.592 E.01452
G1 X94.059 Y100.418 E.01136
G1 X94.527 Y100.265 E.01545
G1 X94.887 Y100.218 E.01136
G1 X95.349 Y100.242 E.01451
G1 X95.807 Y100.361 E.01484
G1 X96.124 Y100.511 E.011
G1 X96.525 Y100.799 E.01548
G1 X96.855 Y101.166 E.01549
G1 X97.092 Y101.577 E.01485
G1 X97.207 Y101.908 E.011
G1 X97.283 Y102.375 E.01484
G1 X97.274 Y102.726 E.011
G1 X97.172 Y103.209 E.01548
G1 X96.969 Y103.66 E.01549
G1 X96.673 Y104.056 E.01549
G1 X96.318 Y104.368 E.01485
G1 X96.015 Y104.547 E.011
G1 X95.552 Y104.717 E.01548
G1 X95.063 Y104.784 E.01549
G1 X94.59 Y104.749 E.01485
G1 X94.251 Y104.659 E.011
G1 X93.805 Y104.447 E.01548
G1 X93.428 Y104.16 E.01485
G1 X93.194 Y103.899 E.011
G1 X92.935 Y103.479 E.01548
G1 X92.773 Y103.012 E.01549
G1 X92.729 Y102.658 E.01119
M204 S1000
G1 X93.093 Y102.512 F10800
M204 S800
;TYPE:External perimeter
G1 F1200
G1 X93.104 Y102.273 E.00751
G1 X93.197 Y101.871 E.01293
