; generated by PrusaSlicer 2.5.0+win64 on 2023-01-26 at 09:23:33 UTC


;
;
; 

; external perimeters extrusion width = 0.50mm
; perimeters extrusion width = 0.50mm
; infill extrusion width = 0.50mm
; solid infill extrusion width = 0.50mm
; top infill extrusion width = 0.50mm
; support material extrusion width = 0.35mm
; first layer extrusion width = 0.50mm

M73 P0 R78
M73 Q0 S79
M201 X1000 Y1000 Z200 E5000 ; sets maximum accelerations, mm/sec^2
M203 X200 Y200 Z12 E120 ; sets maximum feedrates, mm / sec
M204 P1250 R1250 T1250 ; sets acceleration (P, T) and retract acceleration (R), mm/sec^2
M205 X8.00 Y8.00 Z0.40 E4.50 ; sets the jerk limits, mm/sec
M205 S0 T0 ; sets the minimum extruding and travel feed rate, mm/sec
M107
;TYPE:Custom
M862.3 P "MK3S" ; printer model check
M862.1 P0.4 ; nozzle diameter check
M115 U3.11.0 ; tell printer latest fw version
G90 ; use absolute coordinates
M83 ; extruder relative mode
M104 S215 ; set extruder temp
M140 S60 ; set bed temp
M190 S60 ; wait for bed temp
M109 S215 ; wait for extruder temp
G28 W ; home all without mesh bed level
G80 ; mesh bed leveling

G1 Z0.2 F720
G1 Y-3 F1000 ; go outside print area
G92 E0
G1 X60 E9 F1000 ; intro line
G1 X100 E12.5 F1000 ; intro line

G92 E0
M221 S95

; Don't change E values below. Excessive value can damage the printer.
M907 E430 ; set extruder motor current
G21 ; set units to millimeters
G90 ; use absolute coordinates
M83 ; use relative distances for extrusion
M900 K0.05 ; Filament gcode LA 1.5
M900 K30 ; Filament gcode LA 1.0
M107
;LAYER_CHANGE
;Z:0.2
;HEIGHT:0.2
;BEFORE_LAYER_CHANGE
G92 E0.0
;0.2


G1 E-.8 F2100
G1 Z.4 F720
;AFTER_LAYER_CHANGE
;0.2
G1 X76.485 Y95.762 F10800
G1 Z.2 F720
G1 E.8 F2100
M204 S800
;TYPE:Skirt/Brim
;WIDTH:0.5
G1 F1200
G1 X77.168 Y95.565 E.02701
G1 X114.844 Y90.434 E1.44512
G1 X130.507 Y90.429 E.59529
G1 X172.796 Y95.561 E1.61906
G1 X174.07 Y96.11 E.05274
G1 X174.844 Y97.262 E.05274
G1 X174.957 Y98 E.02836
G1 X174.957 Y112 E.53209
G1 X174.565 Y113.331 E.05274
G1 X173.515 Y114.238 E.05274
G1 X172.5 Y114.457 E.03945
G1 X77.5 Y114.457 E3.6106
G1 X76.169 Y114.065 E.05274
G1 X75.262 Y113.015 E.05274
G1 X75.043 Y112 E.03945
G1 X75.043 Y98 E.53209
G1 X75.435 Y96.669 E.05274
G1 X76.44 Y95.801 E.05046
M204 S1000
; printing object Lead Screw Holder V2.stl id:0 copy 0
;WIPE_START
G1 F8640
G1 X77.168 Y95.565 E-.1768
G1 X79.671 Y95.225 E-.5832
;WIPE_END
G1 E-.04 F2100
G1 Z.6 F720
G1 X130.211 Y97.45 F10800
G1 Z.2 F720
G1 E.8 F2100
M204 S800
;TYPE:Support material
G1 F1200
G1 X115.175 Y97.45 E.57143
G1 X115.175 Y92.868 E.17414
G1 X130.211 Y92.868 E.57143
G1 X130.211 Y97.381 E.17153
M204 S1000
G1 X129.571 Y97.244 F10800
M204 S800
M73 P0 R77
G1 F1200
G1 X129.571 Y93.28 E.15068
G1 X129.063 Y93.28 E.0193
G1 X129.063 Y97.039 E.14287
G1 X128.555 Y97.039 E.0193
G1 X128.555 Y93.28 E.14287
G1 X128.047 Y93.28 E.0193
G1 X128.047 Y97.039 E.14287
G1 X127.539 Y97.039 E.0193
G1 X127.539 Y93.28 E.14287
G1 X127.031 Y93.28 E.0193
G1 X127.031 Y97.039 E.14287
G1 X126.524 Y97.039 E.0193
G1 X126.524 Y93.28 E.14287
G1 X126.016 Y93.28 E.0193
G1 X126.016 Y97.039 E.14287
G1 X125.508 Y97.039 E.0193
G1 X125.508 Y93.28 E.14287
G1 X125 Y93.28 E.0193
M73 Q0 S78
G1 X125 Y97.039 E.14287
G1 X124.492 Y97.039 E.0193
G1 X124.492 Y93.28 E.14287
G1 X123.984 Y93.28 E.0193
G1 X123.984 Y97.039 E.14287
G1 X123.476 Y97.039 E.0193
G1 X123.476 Y93.28 E.14287
G1 X122.969 Y93.28 E.0193
G1 X122.969 Y97.039 E.14287
G1 X122.461 Y97.039 E.0193
G1 X122.461 Y93.28 E.14287
G1 X121.953 Y93.28 E.0193
G1 X121.953 Y97.039 E.14287
G1 X121.445 Y97.039 E.0193
G1 X121.445 Y93.28 E.14287
G1 X120.937 Y93.28 E.0193
G1 X120.937 Y97.039 E.14287
G1 X120.429 Y97.039 E.0193
G1 X120.429 Y93.28 E.14287
G1 X119.921 Y93.28 E.0193
G1 X119.921 Y97.039 E.14287
G1 X119.413 Y97.039 E.0193
G1 X119.413 Y93.28 E.14287
G1 X118.906 Y93.28 E.0193
G1 X118.906 Y97.039 E.14287
G1 X118.398 Y97.039 E.0193
G1 X118.398 Y93.28 E.14287
G1 X117.89 Y93.28 E.0193
G1 X117.89 Y97.039 E.14287
G1 X117.382 Y97.039 E.0193
G1 X117.382 Y93.28 E.14287
G1 X116.874 Y93.28 E.0193
G1 X116.874 Y97.039 E.14287
G1 X116.366 Y97.039 E.0193
G1 X116.366 Y93.28 E.14287
G1 X115.858 Y93.28 E.0193
G1 X115.858 Y97.244 E.15068
M204 S1000
;WIPE_START
G1 F8640
G1 X115.858 Y93.953 E-.76
;WIPE_END
G1 E-.04 F2100
G1 Z.6 F720
G1 X78.864 Y110.636 F10800
G1 Z.2 F720
G1 E.8 F2100
M204 S800
;TYPE:Perimeter
;WIDTH:0.499999
G1 F1200
G1 X78.864 Y99.364 E.42839
G1 X171.136 Y99.364 E3.5069
G1 X171.136 Y102.027 E.10121
G1 X171.136 Y110.636 E.32718
G1 X168.49 Y110.636 E.10055
G1 X168.158 Y110.653 E.01264
;WIDTH:0.465443
G1 X167.826 Y110.67 E.01168
;WIDTH:0.430887
G1 X167.502 Y110.694 E.01048
;WIDTH:0.383828
G1 X167.178 Y110.717 E.00921
;WIDTH:0.351267
G1 X166.542 Y110.71 E.01632
;WIDTH:0.400845
G1 X166.31 Y110.685 E.00693
;WIDTH:0.450422
G1 X166.078 Y110.661 E.0079
;WIDTH:0.499999
G1 X165.846 Y110.636 E.00886
G1 X84.49 Y110.636 E3.09205
G1 X84.158 Y110.653 E.01264
;WIDTH:0.465447
G1 X83.826 Y110.67 E.01168
;WIDTH:0.430895
G1 X83.502 Y110.694 E.01048
;WIDTH:0.383832
G1 X83.178 Y110.717 E.00921
;WIDTH:0.351267
G1 X82.542 Y110.71 E.01632
;WIDTH:0.400845
G1 X82.31 Y110.685 E.00693
;WIDTH:0.450422
G1 X82.078 Y110.661 E.0079
;WIDTH:0.499999
G1 X81.846 Y110.636 E.00886
G1 X78.924 Y110.636 E.11107
M204 S1000
G1 X78.407 Y111.093 F10800
M204 S800
G1 F1200
G1 X78.407 Y98.907 E.46314
G1 X171.593 Y98.907 E3.54165
G1 X171.593 Y111.093 E.46314
G1 X78.467 Y111.093 E3.53937
M204 S1000
G1 X77.95 Y111.55 F10800
M204 S800
;TYPE:External perimeter
M73 P1 R77
M73 Q1 S78
G1 F1200
G1 X77.95 Y98.45 E.49788
G1 X172.05 Y98.45 E3.57639
G1 X172.05 Y111.55 E.49788
G1 X78.01 Y111.55 E3.57411
M204 S1000
G1 X78.134 Y111.195 F10800
;WIPE_START
G1 F8640
G1 X77.995 Y108.259 E-.76
;WIPE_END
G1 E-.04 F2100
G1 Z.6 F720
G1 X168.273 Y110.216 F10800
G1 Z.2 F720
G1 E.8 F2100
M204 S800
;TYPE:Perimeter
G1 F1200
G1 X168.152 Y110.282 E.00521
G1 X167.97 Y110.315 E.00705
;WIDTH:0.455088
G1 X167.787 Y110.349 E.00636
;WIDTH:0.410177
G1 X167.605 Y110.383 E.00567
;WIDTH:0.365265
G1 X167.032 Y110.43 E.01541
;WIDTH:0.36968
G1 X166.371 Y110.38 E.018
;WIDTH:0.41312
G1 X166.22 Y110.356 E.0047
;WIDTH:0.45656
G1 X166.069 Y110.333 E.00526
;WIDTH:0.499999
G1 X165.918 Y110.309 E.00581
G1 X165.364 Y110.028 E.02361
G1 X164.88 Y109.638 E.02363
G1 X164.487 Y109.158 E.02358
G1 X164.198 Y108.602 E.0238
G1 X164.036 Y108.041 E.02218
G1 X163.991 Y107.586 E.01738
G1 X164.037 Y106.968 E.02353
G1 X164.209 Y106.371 E.02364
G1 X164.501 Y105.821 E.02366
G1 X164.901 Y105.341 E.02374
G1 X165.389 Y104.957 E.0236
G1 X165.908 Y104.692 E.02214
G1 X166.345 Y104.562 E.01734
G1 X166.903 Y104.488 E.0214
G1 X167.579 Y104.546 E.02579
G1 X168.138 Y104.711 E.02214
G1 X168.547 Y104.917 E.01743
G1 X168.865 Y105.137 E.01468
G1 X169.314 Y105.574 E.02382
G1 X169.659 Y106.089 E.02355
G1 X169.893 Y106.665 E.02363
G1 X170.002 Y107.275 E.02354
G1 X169.987 Y107.891 E.02343
G1 X169.829 Y108.531 E.02506
G1 X169.556 Y109.09 E.02363
G1 X169.173 Y109.584 E.02375
G1 X168.699 Y109.986 E.02364
G1 X168.325 Y110.188 E.01613
M204 S1000
G1 X168.065 Y109.815 F10800
M204 S800
G1 F1200
G1 X168.004 Y109.849 E.00263
G1 X167.502 Y110.005 E.01999
G1 X166.972 Y110.054 E.02022
G1 X166.472 Y110.001 E.01915
G1 X166.109 Y109.894 E.01435
G1 X165.637 Y109.661 E.02003
G1 X165.222 Y109.334 E.02006
G1 X164.884 Y108.931 E.02
G1 X164.633 Y108.462 E.02021
G1 X164.489 Y107.979 E.01918
G1 X164.447 Y107.602 E.0144
G1 X164.48 Y107.078 E.01996
G1 X164.621 Y106.569 E.02006
G1 X164.863 Y106.1 E.02007
G1 X165.198 Y105.689 E.02015
G1 X165.608 Y105.358 E.02003
G1 X166.055 Y105.125 E.01915
G1 X166.416 Y105.013 E.01435
G1 X166.938 Y104.946 E.02003
G1 X167.463 Y104.988 E.01999
G1 X167.947 Y105.126 E.01915
G1 X168.288 Y105.294 E.01442
G1 X168.606 Y105.513 E.01468
G1 X168.982 Y105.889 E.02022
G1 X169.27 Y106.328 E.01997
G1 X169.462 Y106.82 E.02006
G1 X169.549 Y107.338 E.01996
G1 X169.533 Y107.835 E.01888
G1 X169.41 Y108.347 E.02004
G1 X169.185 Y108.824 E.02004
G1 X168.864 Y109.247 E.02016
G1 X168.465 Y109.593 E.02006
G1 X168.117 Y109.786 E.01514
M204 S1000
G1 X167.678 Y109.475 F10800
M204 S800
;TYPE:External perimeter
G1 F1200
G1 X167.447 Y109.551 E.00924
G1 X167.012 Y109.599 E.01662
G1 X166.589 Y109.559 E.01616
G1 X166.301 Y109.479 E.01136
G1 X165.909 Y109.294 E.01646
G1 X165.564 Y109.031 E.01648
G1 X165.281 Y108.705 E.01642
G1 X165.069 Y108.323 E.01662
G1 X164.942 Y107.916 E.01618
G1 X164.904 Y107.618 E.01142
G1 X164.924 Y107.187 E.01639
G1 X165.033 Y106.767 E.01648
G1 X165.225 Y106.379 E.01648
G1 X165.495 Y106.036 E.01657
G1 X165.828 Y105.759 E.01645
G1 X166.202 Y105.558 E.01616
G1 X166.486 Y105.465 E.01136
G1 X166.915 Y105.403 E.01646
G1 X167.346 Y105.43 E.01642
G1 X167.756 Y105.541 E.01616
G1 X168.028 Y105.67 E.01142
G1 X168.346 Y105.889 E.01468
G1 X168.679 Y106.241 E.01841
G1 X168.901 Y106.611 E.01639
G1 X169.044 Y107.021 E.01649
G1 X169.099 Y107.44 E.0161
G1 X169.085 Y107.741 E.01142
G1 X168.992 Y108.164 E.01646
G1 X168.739 Y108.662 E.02122
G1 X168.555 Y108.91 E.01174
G1 X168.232 Y109.199 E.01648
G1 X167.857 Y109.416 E.01648
G1 X167.735 Y109.456 E.00489
M204 S1000
G1 X167.639 Y109.715 F10800
;WIPE_START
G1 F8640
G1 X167.447 Y109.551 E-.06998
G1 X167.012 Y109.599 E-.101
G1 X166.589 Y109.559 E-.09819
G1 X166.301 Y109.479 E-.06902
G1 X165.909 Y109.294 E-.09999
G1 X165.564 Y109.031 E-.10014
G1 X165.281 Y108.705 E-.09976
G1 X165.069 Y108.323 E-.10094
G1 X165.042 Y108.236 E-.02097
;WIPE_END
G1 E-.04 F2100
G1 Z.6 F720
G1 X81.487 Y110.09 F10800
G1 Z.2 F720
G1 E.8 F2100
M204 S800
;TYPE:Perimeter
G1 F1200
G1 X81.364 Y110.028 E.00521
G1 X80.88 Y109.638 E.02363
G1 X80.528 Y109.225 E.02062
G1 X80.198 Y108.602 E.02679
G1 X80.043 Y108.082 E.0206
G1 X79.991 Y107.586 E.01897
G1 X80.037 Y106.968 E.02353
G1 X80.209 Y106.371 E.02364
G1 X80.501 Y105.821 E.02366
G1 X80.901 Y105.341 E.02374
G1 X81.389 Y104.957 E.0236
G1 X81.908 Y104.692 E.02214
G1 X82.345 Y104.562 E.01734
G1 X82.903 Y104.488 E.0214
G1 X83.579 Y104.546 E.02579
G1 X84.138 Y104.711 E.02214
G1 X84.547 Y104.917 E.01743
G1 X85.046 Y105.291 E.02367
G1 X85.458 Y105.761 E.02377
G1 X85.718 Y106.196 E.01924
G1 X85.893 Y106.665 E.01904
G1 X85.949 Y106.894 E.00896
G1 X86.012 Y107.471 E.02206
G1 X85.98 Y107.928 E.01742
G1 X85.828 Y108.533 E.02368
G1 X85.553 Y109.095 E.02379
G1 X85.173 Y109.584 E.02353
G1 X84.699 Y109.986 E.02364
G1 X84.152 Y110.282 E.02362
G1 X83.97 Y110.315 E.00705
;WIDTH:0.45509
G1 X83.787 Y110.349 E.00636
;WIDTH:0.41018
G1 X83.605 Y110.383 E.00567
;WIDTH:0.36527
G1 X83.032 Y110.43 E.01541
;WIDTH:0.369684
G1 X82.371 Y110.38 E.018
;WIDTH:0.413123
G1 X82.22 Y110.356 E.0047
;WIDTH:0.456561
G1 X82.069 Y110.333 E.00526
;WIDTH:0.499999
G1 X81.918 Y110.309 E.00581
G1 X81.54 Y110.117 E.01612
M204 S1000
G1 X81.699 Y109.691 F10800
M204 S800
G1 F1200
G1 X81.637 Y109.661 E.00264
G1 X81.222 Y109.334 E.02006
G1 X80.884 Y108.931 E.01999
G1 X80.633 Y108.462 E.02021
G1 X80.489 Y107.979 E.01918
G1 X80.447 Y107.602 E.0144
G1 X80.48 Y107.078 E.01996
G1 X80.621 Y106.569 E.02006
G1 X80.863 Y106.1 E.02007
G1 X81.198 Y105.689 E.02015
G1 X81.608 Y105.358 E.02003
G1 X82.055 Y105.125 E.01915
G1 X82.416 Y105.013 E.01435
G1 X82.938 Y104.946 E.02003
G1 X83.463 Y104.988 E.01999
G1 X83.947 Y105.126 E.01915
G1 X84.288 Y105.294 E.01442
G1 X84.714 Y105.606 E.02008
G1 X85.069 Y106.001 E.02019
G1 X85.332 Y106.456 E.01996
G1 X85.496 Y106.957 E.02006
G1 X85.556 Y107.456 E.01908
G1 X85.533 Y107.835 E.01442
G1 X85.41 Y108.348 E.02007
G1 X85.182 Y108.829 E.02021
G1 X84.864 Y109.247 E.01996
G1 X84.465 Y109.593 E.02006
G1 X84.004 Y109.849 E.02005
G1 X83.502 Y110.005 E.01999
G1 X82.972 Y110.054 E.02022
G1 X82.472 Y110.001 E.01915
G1 X82.109 Y109.894 E.01435
G1 X81.753 Y109.718 E.01512
M204 S1000
G1 X81.72 Y109.15 F10800
M204 S800
;TYPE:External perimeter
G1 F1200
G1 X81.564 Y109.031 E.00746
G1 X81.281 Y108.705 E.01642
G1 X81.069 Y108.323 E.01662
G1 X80.942 Y107.916 E.01618
G1 X80.904 Y107.618 E.01142
G1 X80.924 Y107.187 E.01639
G1 X81.033 Y106.767 E.01648
G1 X81.225 Y106.379 E.01648
G1 X81.495 Y106.036 E.01657
G1 X81.828 Y105.759 E.01645
G1 X82.202 Y105.558 E.01616
G1 X82.486 Y105.465 E.01136
G1 X82.915 Y105.403 E.01646
G1 X83.346 Y105.43 E.01642
G1 X83.756 Y105.541 E.01616
G1 X84.028 Y105.67 E.01142
G1 X84.382 Y105.92 E.01648
G1 X84.679 Y106.241 E.01661
G1 X84.901 Y106.611 E.01639
G1 X85.044 Y107.02 E.01649
G1 X85.099 Y107.44 E.0161
G1 X85.085 Y107.741 E.01142
G1 X84.991 Y108.164 E.01648
G1 X84.81 Y108.562 E.01663
G1 X84.555 Y108.91 E.01639
G1 X84.232 Y109.199 E.01648
G1 X83.857 Y109.416 E.01648
G1 X83.447 Y109.551 E.01641
G1 X83.012 Y109.599 E.01663
G1 X82.589 Y109.559 E.01616
G1 X82.301 Y109.479 E.01136
G1 X81.909 Y109.294 E.01646
G1 X81.768 Y109.186 E.00675
M204 S1000
G1 X81.543 Y109.234 F10800
;WIPE_START
G1 F8640
G1 X81.564 Y109.031 E-.05916
G1 X81.281 Y108.705 E-.09973
G1 X81.069 Y108.323 E-.10098
G1 X80.942 Y107.916 E-.09828
G1 X80.904 Y107.618 E-.06939
G1 X80.924 Y107.187 E-.09956
G1 X81.033 Y106.767 E-.10014
G1 X81.225 Y106.379 E-.10015
G1 X81.313 Y106.268 E-.03262
;WIPE_END
G1 E-.04 F2100
G1 Z.6 F720
G1 X170.072 Y99.501 F10800
G1 Z.2 F720
G1 E.8 F2100
M204 S800
;TYPE:Solid infill
;WIDTH:0.501366
G1 F1200
G1 X170.793 Y100.222 E.03888
G1 X170.793 Y100.871 E.02471
G1 X169.629 Y99.707 E.06274
G1 X168.981 Y99.707 E.02471
G1 X170.793 Y101.519 E.09769
G1 X170.793 Y102.167 E.02471
G1 X168.333 Y99.707 E.13265
G1 X167.684 Y99.707 E.02471
G1 X170.793 Y102.816 E.1676
G1 X170.793 Y103.464 E.02471
G1 X167.036 Y99.707 E.20255
G1 X166.387 Y99.707 E.02471
G1 X170.793 Y104.113 E.2375
G1 X170.793 Y104.761 E.02471
G1 X165.739 Y99.707 E.27245
G1 X165.091 Y99.707 E.02471
G1 X170.793 Y105.409 E.30741
G1 X170.793 Y106.058 E.02471
G1 X164.442 Y99.707 E.34236
G1 X163.794 Y99.707 E.02471
G1 X170.999 Y106.912 E.3884
M204 S1000
;WIPE_START
G1 F8640
G1 X168.671 Y104.584 E-.76
;WIPE_END
G1 E-.04 F2100
G1 Z.6 F720
G1 X170.001 Y106.562 F10800
G1 Z.2 F720
G1 E.8 F2100
M204 S800
G1 F1200
G1 X170.793 Y107.354 E.04268
G1 X170.793 Y108.003 E.02471
G1 X170.345 Y107.554 E.02415
G1 X170.346 Y107.745 E.00728
G1 X170.285 Y108.143 E.01533
G1 X170.793 Y108.651 E.0274
G1 X170.793 Y109.299 E.02471
G1 X170.148 Y108.654 E.03478
G1 X169.944 Y109.099 E.01865
G1 X170.793 Y109.948 E.04575
G1 X170.793 Y110.293 E.01317
G1 X170.49 Y110.293 E.01155
G1 X169.69 Y109.493 E.04315
G1 X169.394 Y109.846 E.01754
G1 X169.842 Y110.293 E.02412
G1 X169.193 Y110.293 E.02471
G1 X168.903 Y110.003 E.01564
M204 S1000
;WIPE_START
G1 F8640
G1 X169.193 Y110.293 E-.09475
G1 X169.842 Y110.293 E-.1497
G1 X169.394 Y109.846 E-.14608
G1 X169.69 Y109.493 E-.10627
G1 X170.49 Y110.293 E-.26136
G1 X170.498 Y110.293 E-.00184
;WIPE_END
G1 E-.04 F2100
G1 Z.6 F720
G1 X167.937 Y104.498 F10800
G1 Z.2 F720
G1 E.8 F2100
M204 S800
G1 F1200
G1 X163.146 Y99.707 E.2583
G1 X162.497 Y99.707 E.02471
G1 X166.937 Y104.147 E.23935
G1 X166.357 Y104.215 E.02226
G1 X161.849 Y99.707 E.24304
G1 X161.201 Y99.707 E.02471
G1 X165.847 Y104.353 E.25046
G1 X165.404 Y104.558 E.01862
G1 X160.552 Y99.707 E.26152
G1 X159.904 Y99.707 E.02471
G1 X165.004 Y104.807 E.27495
G1 X164.654 Y105.106 E.01753
G1 X159.256 Y99.707 E.29104
G1 X158.607 Y99.707 E.02471
G1 X164.353 Y105.452 E.30972
G1 X164.09 Y105.838 E.01779
G1 X157.959 Y99.707 E.3305
G1 X157.311 Y99.707 E.02471
G1 X163.887 Y106.283 E.35451
G1 X163.812 Y106.452 E.00704
G1 X163.731 Y106.776 E.01273
G1 X156.662 Y99.707 E.38109
G1 X156.014 Y99.707 E.02471
G1 X163.656 Y107.349 E.41198
G1 X163.648 Y107.581 E.00887
G1 X163.691 Y108.033 E.01728
G1 X155.366 Y99.707 E.44883
G1 X154.717 Y99.707 E.02471
G1 X163.992 Y108.982 E.50001
G1 X164.192 Y109.333 E.01539
G1 X164.364 Y109.573 E.01126
G1 X164.628 Y109.87 E.01513
G1 X164.845 Y110.069 E.01124
G1 X165.105 Y110.262 E.01234
G1 X165.094 Y110.293 E.00126
G1 X164.655 Y110.293 E.01674
G1 X154.069 Y99.707 E.57069
G1 X153.421 Y99.707 E.02471
G1 X164.007 Y110.293 E.57069
G1 X163.358 Y110.293 E.02471
M73 P1 R76
G1 X152.772 Y99.707 E.57069
G1 X152.124 Y99.707 E.02471
G1 X162.71 Y110.293 E.57069
G1 X162.062 Y110.293 E.02471
M73 Q1 S77
G1 X151.476 Y99.707 E.57069
G1 X150.827 Y99.707 E.02471
