; generated by PrusaSlicer 2.5.0+win64 on 2023-01-20 at 09:16:24 UTC


;
;
; 

; external perimeters extrusion width = 0.45mm
; perimeters extrusion width = 0.45mm
; infill extrusion width = 0.45mm
; solid infill extrusion width = 0.45mm
; top infill extrusion width = 0.40mm
; first layer extrusion width = 0.42mm

; external perimeters extrusion width = 0.45mm
; perimeters extrusion width = 0.45mm
; infill extrusion width = 0.45mm
; solid infill extrusion width = 0.45mm
; top infill extrusion width = 0.40mm
; first layer extrusion width = 0.42mm

; external perimeters extrusion width = 0.45mm
; perimeters extrusion width = 0.45mm
; infill extrusion width = 0.45mm
; solid infill extrusion width = 0.45mm
; top infill extrusion width = 0.40mm
; first layer extrusion width = 0.42mm

; external perimeters extrusion width = 0.45mm
; perimeters extrusion width = 0.45mm
; infill extrusion width = 0.45mm
; solid infill extrusion width = 0.45mm
; top infill extrusion width = 0.40mm
; first layer extrusion width = 0.42mm

; external perimeters extrusion width = 0.45mm
; perimeters extrusion width = 0.45mm
; infill extrusion width = 0.45mm
; solid infill extrusion width = 0.45mm
; top infill extrusion width = 0.40mm
; first layer extrusion width = 0.42mm

; external perimeters extrusion width = 0.45mm
; perimeters extrusion width = 0.45mm
; infill extrusion width = 0.45mm
; solid infill extrusion width = 0.45mm
; top infill extrusion width = 0.40mm
; first layer extrusion width = 0.42mm

; external perimeters extrusion width = 0.45mm
; perimeters extrusion width = 0.45mm
; infill extrusion width = 0.45mm
; solid infill extrusion width = 0.45mm
; top infill extrusion width = 0.40mm
; first layer extrusion width = 0.42mm

; external perimeters extrusion width = 0.45mm
; perimeters extrusion width = 0.45mm
; infill extrusion width = 0.45mm
; solid infill extrusion width = 0.45mm
; top infill extrusion width = 0.40mm
; first layer extrusion width = 0.42mm

; external perimeters extrusion width = 0.45mm
; perimeters extrusion width = 0.45mm
; infill extrusion width = 0.45mm
; solid infill extrusion width = 0.45mm
; top infill extrusion width = 0.40mm
; first layer extrusion width = 0.42mm

; external perimeters extrusion width = 0.45mm
; perimeters extrusion width = 0.45mm
; infill extrusion width = 0.45mm
; solid infill extrusion width = 0.45mm
; top infill extrusion width = 0.40mm
; first layer extrusion width = 0.42mm

; external perimeters extrusion width = 0.45mm
; perimeters extrusion width = 0.45mm
; infill extrusion width = 0.45mm
; solid infill extrusion width = 0.45mm
; top infill extrusion width = 0.40mm
; first layer extrusion width = 0.42mm

; external perimeters extrusion width = 0.45mm
; perimeters extrusion width = 0.45mm
; infill extrusion width = 0.45mm
; solid infill extrusion width = 0.45mm
; top infill extrusion width = 0.40mm
; first layer extrusion width = 0.42mm

; external perimeters extrusion width = 0.45mm
; perimeters extrusion width = 0.45mm
; infill extrusion width = 0.45mm
; solid infill extrusion width = 0.45mm
; top infill extrusion width = 0.40mm
; first layer extrusion width = 0.42mm

; external perimeters extrusion width = 0.45mm
; perimeters extrusion width = 0.45mm
; infill extrusion width = 0.45mm
; solid infill extrusion width = 0.45mm
; top infill extrusion width = 0.40mm
; first layer extrusion width = 0.42mm

M73 P0 R17
M73 Q0 S17
M201 X1000 Y1000 Z200 E5000 ; sets maximum accelerations, mm/sec^2
M203 X200 Y200 Z12 E120 ; sets maximum feedrates, mm / sec
M204 P1250 R1250 T1250 ; sets acceleration (P, T) and retract acceleration (R), mm/sec^2
M205 X8.00 Y8.00 Z0.40 E4.50 ; sets the jerk limits, mm/sec
M205 S0 T0 ; sets the minimum extruding and travel feed rate, mm/sec
M107
;TYPE:Custom
M862.3 P "MK3S" ; printer model check
M862.1 P0.4 ; nozzle diameter check
M115 U3.11.0 ; tell printer latest fw version
G90 ; use absolute coordinates
M83 ; extruder relative mode
M104 S215 ; set extruder temp
M140 S60 ; set bed temp
M190 S60 ; wait for bed temp
M109 S215 ; wait for extruder temp
G28 W ; home all without mesh bed level
G80 ; mesh bed leveling

G1 Z0.2 F720
G1 Y-3 F1000 ; go outside print area
G92 E0
G1 X60 E9 F1000 ; intro line
G1 X100 E12.5 F1000 ; intro line

G92 E0
M221 S95

; Don't change E values below. Excessive value can damage the printer.
M907 E430 ; set extruder motor current
G21 ; set units to millimeters
G90 ; use absolute coordinates
M83 ; use relative distances for extrusion
M900 K0.05 ; Filament gcode LA 1.5
M900 K30 ; Filament gcode LA 1.0
M107
;LAYER_CHANGE
;Z:0.2
;HEIGHT:0.2
;BEFORE_LAYER_CHANGE
G92 E0.0
;0.2


G1 E-.8 F2100
G1 Z.4 F720
;AFTER_LAYER_CHANGE
;0.2
G1 X57.457 Y60.046 F10800
G1 Z.2 F720
G1 E.8 F2100
M204 S800
;TYPE:Skirt/Brim
;WIDTH:0.42
G1 F1200
G1 X58.387 Y59.276 E.03788
G1 X59.472 Y58.587 E.0403
G1 X60.638 Y58.045 E.0403
G1 X61.864 Y57.659 E.0403
G1 X62.887 Y57.465 E.03266
G1 X63.848 Y57.383 E.03023
G1 X83.196 Y57.047 E.60675
G1 X84.867 Y57.211 E.05264
G1 X86.466 Y57.649 E.05197
G1 X168.577 Y88.136 E2.74627
G1 X169.775 Y88.668 E.0411
M73 P1 R17
M73 Q1 S17
G1 X170.872 Y89.339 E.0403
G1 X171.632 Y89.932 E.03023
G1 X172.496 Y90.776 E.03788
G1 X173.154 Y91.584 E.03266
G1 X173.806 Y92.601 E.03788
G1 X174.264 Y93.536 E.03266
G1 X174.669 Y94.674 E.03788
G1 X174.904 Y95.689 E.03266
G1 X175.042 Y96.889 E.03788
G1 X174.596 Y116.797 E.62437
G1 X174.403 Y118.068 E.0403
G1 X173.962 Y119.532 E.04793
G1 X173.419 Y120.697 E.0403
G1 X172.73 Y121.782 E.0403
G1 X171.906 Y122.768 E.0403
G1 X171.149 Y123.483 E.03266
G1 X170.182 Y124.208 E.03788
G1 X169.283 Y124.733 E.03266
G1 X168.178 Y125.221 E.03788
G1 X167.183 Y125.529 E.03266
G1 X165.996 Y125.754 E.03788
G1 X164.957 Y125.83 E.03266
G1 X83.365 Y125.24 E2.55834
G1 X66.953 Y125.034 E.51463
G1 X65.598 Y124.89 E.04272
G1 X64.118 Y124.509 E.04794
G1 X62.862 Y123.98 E.04272
G1 X61.555 Y123.187 E.04793
G1 X60.8 Y122.587 E.03023
G1 X60.055 Y121.859 E.03266
G1 X59.364 Y121.021 E.03405
G1 X58.768 Y120.113 E.03406
G1 X58.327 Y119.256 E.03023
G1 X57.946 Y118.286 E.03266
G1 X57.65 Y117.191 E.03558
G1 X57.49 Y116.166 E.03253
G1 X54.353 Y67.857 E1.51788
G1 X54.423 Y65.932 E.06039
M73 P2 R17
M73 Q2 S17
G1 X54.841 Y64.131 E.05798
G1 X55.325 Y62.94 E.0403
G1 X55.947 Y61.844 E.03953
G1 X56.578 Y60.984 E.03342
G1 X57.416 Y60.09 E.03842
M204 S1000
; printing object M8 Washer 8 x 13 x1.stl id:11 copy 0
;WIPE_START
G1 F8640
G1 X58.387 Y59.276 E-.29269
G1 X59.472 Y58.587 E-.29678
G1 X60.142 Y58.276 E-.17053
;WIPE_END
G1 E-.04 F2100
G1 Z.6 F720
G1 X82.404 Y60.246 F10800
G1 Z.2 F720
G1 E.8 F2100
M204 S800
;TYPE:Perimeter
;WIDTH:0.419999
G1 F1200
G1 X83.424 Y60.228 E.03199
G1 X83.929 Y60.268 E.01588
G1 X84.656 Y60.406 E.02318
G1 X85.203 Y60.561 E.01784
G1 X85.813 Y60.8 E.02053
G1 X86.397 Y61.097 E.02056
G1 X87.027 Y61.509 E.0236
G1 X87.464 Y61.854 E.01747
G1 X87.943 Y62.313 E.02081
G1 X88.365 Y62.804 E.02027
G1 X88.796 Y63.435 E.02397
G1 X89.063 Y63.91 E.01709
G1 X89.335 Y64.529 E.02119
G1 X89.534 Y65.132 E.0199
G1 X89.694 Y65.891 E.02434
G1 X89.759 Y66.421 E.01672
G1 X89.774 Y67.108 E.02156
G1 X89.729 Y67.729 E.01953
G1 X89.584 Y68.504 E.02471
G1 X89.446 Y69.006 E.01635
G1 X89.192 Y69.658 E.02193
G1 X88.92 Y70.205 E.01915
G1 X88.484 Y70.876 E.02508
G1 X88.172 Y71.278 E.01598
G1 X87.68 Y71.793 E.0223
G1 X87.229 Y72.186 E.01878
G1 X86.696 Y72.567 E.02054
G1 X86.128 Y72.894 E.02053
G1 X85.467 Y73.186 E.02267
G1 X84.911 Y73.375 E.01841
G1 X84.273 Y73.524 E.02054
G1 X83.624 Y73.61 E.02054
G1 X82.889 Y73.628 E.02304
G1 X82.315 Y73.591 E.01804
G1 X81.668 Y73.485 E.02054
G1 X81.035 Y73.318 E.02053
G1 X80.339 Y73.049 E.02341
G1 X79.833 Y72.802 E.01767
G1 X79.275 Y72.458 E.02054
G1 X78.753 Y72.062 E.02053
G1 X78.203 Y71.54 E.02377
G1 X77.838 Y71.127 E.0173
G1 X77.374 Y70.466 E.02531
G1 X77.121 Y70.032 E.01576
G1 X76.818 Y69.358 E.02315
G1 X76.63 Y68.819 E.01791
G1 X76.476 Y68.182 E.02054
G1 X76.385 Y67.534 E.02053
G1 X76.363 Y66.752 E.02452
G1 X76.393 Y66.225 E.01655
G1 X76.493 Y65.577 E.02054
G1 X76.656 Y64.943 E.02053
G1 X76.939 Y64.201 E.0249
G1 X77.162 Y63.736 E.01618
G1 X77.501 Y63.175 E.02055
G1 X77.893 Y62.651 E.02053
G1 X78.445 Y62.064 E.02527
G1 X78.82 Y61.727 E.0158
G1 X79.349 Y61.337 E.0206
G1 X79.909 Y61.002 E.02048
G1 X80.502 Y60.722 E.02054
G1 X81.218 Y60.476 E.02374
G1 X81.754 Y60.342 E.01733
G1 X82.345 Y60.255 E.01874
M204 S1000
G1 X82.389 Y59.87 F10800
M204 S800
;TYPE:External perimeter
G1 F1200
G1 X83.451 Y59.851 E.03332
G1 X83.993 Y59.896 E.01705
G1 X84.756 Y60.043 E.02434
G1 X85.338 Y60.209 E.01899
G1 X86.128 Y60.536 E.02681
G1 X86.598 Y60.778 E.01657
G1 X87.258 Y61.211 E.02475
G1 X87.723 Y61.58 E.01862
G1 X88.335 Y62.189 E.02709
G1 X88.672 Y62.585 E.01629
G1 X89.123 Y63.248 E.02512
G1 X89.407 Y63.755 E.01825
G1 X89.744 Y64.561 E.02736
G1 X89.901 Y65.046 E.01601
G1 X90.067 Y65.842 E.02549
G1 X90.135 Y66.408 E.01787
G1 X90.14 Y67.29 E.02764
G1 X90.101 Y67.79 E.01574
G1 X89.948 Y68.601 E.02586
G1 X89.799 Y69.139 E.0175
G1 X89.531 Y69.824 E.02308
G1 X89.241 Y70.403 E.02031
G1 X88.784 Y71.104 E.02623
G1 X88.448 Y71.535 E.01713
G1 X87.93 Y72.075 E.02345
G1 X87.45 Y72.492 E.01994
G1 X86.75 Y72.972 E.0266
G1 X86.286 Y73.236 E.01676
G1 X85.59 Y73.543 E.02382
G1 X84.999 Y73.741 E.01956
G1 X84.157 Y73.92 E.02698
G1 X83.639 Y73.986 E.01639
G1 X82.868 Y74.004 E.02419
G1 X82.257 Y73.963 E.01919
G1 X81.399 Y73.805 E.02735
G1 X80.906 Y73.672 E.01602
G1 X80.175 Y73.389 E.02456
G1 X79.637 Y73.124 E.01882
G1 X79.049 Y72.76 E.02169
G1 X78.499 Y72.341 E.02169
G1 X77.923 Y71.792 E.02493
G1 X77.534 Y71.351 E.01845
G1 X77.05 Y70.659 E.02647
G1 X76.78 Y70.192 E.01691
G1 X76.463 Y69.485 E.02431
G1 X76.265 Y68.91 E.01907
G1 X76.103 Y68.237 E.0217
G1 X76.008 Y67.552 E.02168
G1 X75.987 Y66.733 E.02568
G1 X76.02 Y66.17 E.0177
G1 X76.127 Y65.486 E.0217
G1 X76.3 Y64.817 E.02168
G1 X76.597 Y64.041 E.02605
G1 X76.838 Y63.543 E.01733
G1 X77.197 Y62.952 E.0217
G1 X77.612 Y62.398 E.02168
G1 X78.191 Y61.786 E.02642
G1 X78.594 Y61.426 E.01695
G1 X79.153 Y61.015 E.02176
G1 X79.746 Y60.662 E.02163
G1 X80.372 Y60.368 E.02169
G1 X81.124 Y60.111 E.02489
G1 X81.696 Y59.97 E.01848
G1 X82.329 Y59.878 E.02007
M204 S1000
G1 X82.614 Y60.2 F10800
;WIPE_START
G1 F8640
G1 X83.451 Y59.851 E-.25916
G1 X83.993 Y59.896 E-.12558
G1 X84.756 Y60.043 E-.17922
G1 X85.338 Y60.209 E-.13985
G1 X85.563 Y60.302 E-.05619
;WIPE_END
G1 E-.04 F2100
G1 Z.6 F720
G1 X87.574 Y68.926 F10800
G1 Z.2 F720
G1 E.8 F2100
M204 S800
;TYPE:Perimeter
G1 F1200
G1 X87.094 Y69.753 E.02998
G1 X86.859 Y70.067 E.01231
G1 X86.395 Y70.569 E.02143
G1 X85.714 Y71.072 E.02653
G1 X85.378 Y71.274 E.01231
G1 X84.801 Y71.543 E.01995
G1 X83.937 Y71.766 E.02799
G1 X83.549 Y71.827 E.01231
G1 X82.901 Y71.855 E.02032
G1 X82.029 Y71.732 E.02763
G1 X81.646 Y71.642 E.01231
G1 X81.026 Y71.416 E.02069
G1 X80.277 Y70.974 E.02726
G1 X79.957 Y70.747 E.01232
G1 X79.462 Y70.293 E.02106
G1 X78.931 Y69.616 E.02698
G1 X78.489 Y68.743 E.03068
G1 X78.37 Y68.389 E.0117
G1 X78.184 Y67.628 E.02458
G1 X78.14 Y66.884 E.02337
G1 X78.164 Y66.492 E.01231
G1 X78.286 Y65.705 E.02495
G1 X78.526 Y65.012 E.023
G1 X78.696 Y64.659 E.01231
G1 X79.115 Y63.968 E.02533
G1 X79.595 Y63.429 E.02262
G1 X80.187 Y62.915 E.02458
G1 X80.746 Y62.582 E.02042
G1 X81.112 Y62.398 E.01284
G1 X81.742 Y62.168 E.02102
G1 X82.363 Y62.037 E.01988
G1 X83.232 Y61.99 E.02728
G1 X84.199 Y62.128 E.03065
G1 X85.108 Y62.429 E.03002
G1 X85.938 Y62.92 E.03022
G1 X86.666 Y63.546 E.03011
G1 X87.244 Y64.314 E.03013
G1 X87.439 Y64.655 E.01231
G1 X87.688 Y65.189 E.01847
G1 X87.922 Y66.099 E.02948
G1 X87.973 Y66.489 E.01231
G1 X88 Y67.089 E.01884
G1 X87.869 Y68.008 E.02911
G1 X87.77 Y68.388 E.01231
G1 X87.595 Y68.87 E.01607
M204 S1000
G1 X87.221 Y68.793 F10800
M204 S800
;TYPE:External perimeter
G1 F1200
G1 X86.772 Y69.557 E.0278
G1 X86.581 Y69.813 E.00999
G1 X86.145 Y70.287 E.0202
G1 X85.491 Y70.768 E.02545
G1 X85.219 Y70.933 E.00999
G1 X84.642 Y71.201 E.01995
G1 X83.847 Y71.4 E.02569
G1 X83.532 Y71.45 E.01
G1 X82.885 Y71.478 E.02032
G1 X82.086 Y71.359 E.02532
G1 X81.775 Y71.287 E.01
G1 X81.155 Y71.062 E.02069
G1 X80.473 Y70.652 E.02495
G1 X80.212 Y70.469 E.01
G1 X79.717 Y70.015 E.02106
G1 X79.231 Y69.386 E.02493
G1 X78.827 Y68.576 E.02837
G1 X78.601 Y67.748 E.02691
G1 X78.542 Y67.435 E.01
G1 X78.511 Y66.74 E.02181
G1 X78.686 Y65.675 E.03383
G1 X78.928 Y65.01 E.02218
G1 X79.489 Y64.102 E.03347
G1 X79.975 Y63.572 E.02255
G1 X80.423 Y63.208 E.0181
G1 X80.936 Y62.908 E.01864
G1 X81.241 Y62.752 E.01075
G1 X81.871 Y62.523 E.02102
G1 X82.437 Y62.407 E.0181
G1 X83.249 Y62.367 E.0255
G1 X84.142 Y62.501 E.0283
G1 X84.979 Y62.784 E.02771
M73 P3 R17
M73 Q3 S17
G1 X85.742 Y63.242 E.02791
G1 X86.411 Y63.824 E.0278
G1 X86.94 Y64.537 E.02782
G1 X87.337 Y65.329 E.02779
G1 X87.556 Y66.189 E.02781
G1 X87.621 Y67.072 E.02776
G1 X87.496 Y67.951 E.02783
G1 X87.24 Y68.736 E.0259
M204 S1000
G1 X87.453 Y69.119 F10800
;WIPE_START
G1 F8640
G1 X86.772 Y69.557 E-.2183
G1 X86.581 Y69.813 E-.07359
G1 X86.145 Y70.287 E-.14875
G1 X85.491 Y70.768 E-.1874
G1 X85.219 Y70.933 E-.07359
G1 X84.99 Y71.039 E-.05835
;WIPE_END
G1 E-.04 F2100
G1 Z.6 F720
G1 X88.659 Y63.425 F10800
G1 Z.2 F720
G1 E.8 F2100
M204 S800
;TYPE:Solid infill
;WIDTH:0.42104
G1 F1200
G1 X87.248 Y62.039 E.06219
G1 X86.752 Y61.655 E.01974
G1 X86.221 Y61.32 E.01973
G1 X85.818 Y61.119 E.01416
G1 X88.871 Y64.171 E.13572
G1 X89.051 Y64.571 E.01381
G1 X89.211 Y65.047 E.01576
G1 X84.944 Y60.779 E.18976
G1 X84.469 Y60.648 E.01549
G1 X84.238 Y60.608 E.00734
G1 X89.389 Y65.759 E.22902
G1 X89.472 Y66.377 E.01959
G1 X87.744 Y64.649 E.07681
G1 X87.589 Y64.313 E.01164
G1 X86.93 Y63.411 E.03513
G1 X86.247 Y62.783 E.02917
G1 X85.301 Y62.205 E.03487
G1 X83.62 Y60.525 E.07471
G1 X83.25 Y60.499 E.01166
G1 X83.066 Y60.505 E.0058
G1 X84.453 Y61.892 E.06167
G1 X83.81 Y61.784 E.02051
G1 X82.55 Y60.524 E.056
G1 X82.382 Y60.53 E.00529
G1 X82.07 Y60.579 E.00992
G1 X83.2 Y61.709 E.05023
G1 X82.694 Y61.737 E.01594
G1 X81.62 Y60.664 E.04772
G1 X81.195 Y60.774 E.0138
G1 X82.203 Y61.781 E.04479
G1 X81.758 Y61.871 E.01426
G1 X80.801 Y60.914 E.04257
G1 X80.422 Y61.07 E.01289
G1 X81.361 Y62.009 E.04175
G1 X80.967 Y62.15 E.01314
G1 X80.06 Y61.243 E.04032
G1 X80.005 Y61.27 E.00194
G1 X79.723 Y61.441 E.01036
G1 X80.619 Y62.337 E.03985
G1 X80.278 Y62.53 E.01234
G1 X79.397 Y61.649 E.03917
G1 X79.091 Y61.878 E.01201
G1 X79.958 Y62.744 E.03853
G1 X79.659 Y62.98 E.01197
G1 X78.801 Y62.123 E.03814
G1 X78.522 Y62.378 E.0119
G1 X79.386 Y63.243 E.03845
G1 X79.131 Y63.522 E.0119
G1 X78.267 Y62.658 E.03843
G1 X78.021 Y62.946 E.01193
G1 X78.884 Y63.81 E.0384
G1 X78.682 Y64.143 E.01224
G1 X77.794 Y63.254 E.03951
G1 X77.584 Y63.58 E.01216
G1 X78.481 Y64.476 E.03987
G1 X78.337 Y64.713 E.00871
G1 X78.296 Y64.826 E.00379
G1 X77.385 Y63.915 E.04051
G1 X77.214 Y64.279 E.01264
G1 X78.154 Y65.219 E.04178
G1 X78.016 Y65.616 E.01321
G1 X77.058 Y64.657 E.04263
G1 X76.917 Y65.052 E.01316
G1 X77.945 Y66.08 E.04572
G1 X77.874 Y66.543 E.01475
G1 X76.809 Y65.478 E.04736
G1 X76.76 Y65.675 E.00636
G1 X76.723 Y65.927 E.00802
G1 X77.869 Y67.073 E.05095
G1 X77.898 Y67.637 E.01775
G1 X76.664 Y66.402 E.05489
G1 X76.639 Y66.912 E.01605
G1 X78.303 Y68.577 E.07402
M204 S1000
;WIPE_START
G1 F8640
G1 X76.639 Y66.912 E-.54361
G1 X76.664 Y66.402 E-.11786
M73 P3 R16
G1 X76.965 Y66.704 E-.09853
;WIPE_END
G1 E-.04 F2100
G1 Z.6 F720
G1 X87.833 Y65.272 F10800
G1 Z.2 F720
G1 E.8 F2100
M204 S800
G1 F1200
G1 X89.492 Y66.932 E.07378
G1 X89.468 Y67.443 E.01608
G1 X88.235 Y66.209 E.05483
G1 X88.265 Y66.774 E.01778
G1 X89.411 Y67.92 E.05094
G1 X89.353 Y68.273 E.01125
G1 X89.327 Y68.371 E.00318
G1 X88.26 Y67.304 E.04741
G1 X88.189 Y67.767 E.01473
G1 X89.214 Y68.793 E.04561
G1 X89.075 Y69.189 E.01319
G1 X88.117 Y68.23 E.04263
G1 X87.98 Y68.628 E.01323
G1 X88.921 Y69.569 E.04185
G1 X88.745 Y69.928 E.01256
G1 X87.837 Y69.02 E.0404
G1 X87.792 Y69.143 E.00414
G1 X87.653 Y69.371 E.00837
G1 X88.549 Y70.267 E.03984
G1 X88.342 Y70.595 E.01219
G1 X87.451 Y69.703 E.03963
G1 X87.249 Y70.036 E.01224
G1 X88.111 Y70.898 E.03834
G1 X87.868 Y71.19 E.01194
