; generated by PrusaSlicer 2.5.0+win64 on 2023-01-23 at 08:23:47 UTC


;
;
; 

; external perimeters extrusion width = 0.45mm
; perimeters extrusion width = 0.45mm
; infill extrusion width = 0.45mm
; solid infill extrusion width = 0.45mm
; top infill extrusion width = 0.40mm
; first layer extrusion width = 0.42mm

; external perimeters extrusion width = 0.45mm
; perimeters extrusion width = 0.45mm
; infill extrusion width = 0.45mm
; solid infill extrusion width = 0.45mm
; top infill extrusion width = 0.40mm
; first layer extrusion width = 0.42mm

; external perimeters extrusion width = 0.45mm
; perimeters extrusion width = 0.45mm
; infill extrusion width = 0.45mm
; solid infill extrusion width = 0.45mm
; top infill extrusion width = 0.40mm
; first layer extrusion width = 0.42mm

; external perimeters extrusion width = 0.45mm
; perimeters extrusion width = 0.45mm
; infill extrusion width = 0.45mm
; solid infill extrusion width = 0.45mm
; top infill extrusion width = 0.40mm
; first layer extrusion width = 0.42mm

; external perimeters extrusion width = 0.45mm
; perimeters extrusion width = 0.45mm
; infill extrusion width = 0.45mm
; solid infill extrusion width = 0.45mm
; top infill extrusion width = 0.40mm
; first layer extrusion width = 0.42mm

; external perimeters extrusion width = 0.45mm
; perimeters extrusion width = 0.45mm
; infill extrusion width = 0.45mm
; solid infill extrusion width = 0.45mm
; top infill extrusion width = 0.40mm
; first layer extrusion width = 0.42mm

; external perimeters extrusion width = 0.45mm
; perimeters extrusion width = 0.45mm
; infill extrusion width = 0.45mm
; solid infill extrusion width = 0.45mm
; top infill extrusion width = 0.40mm
; first layer extrusion width = 0.42mm

; external perimeters extrusion width = 0.45mm
; perimeters extrusion width = 0.45mm
; infill extrusion width = 0.45mm
; solid infill extrusion width = 0.45mm
; top infill extrusion width = 0.40mm
; first layer extrusion width = 0.42mm

; external perimeters extrusion width = 0.45mm
; perimeters extrusion width = 0.45mm
; infill extrusion width = 0.45mm
; solid infill extrusion width = 0.45mm
; top infill extrusion width = 0.40mm
; first layer extrusion width = 0.42mm

; external perimeters extrusion width = 0.45mm
; perimeters extrusion width = 0.45mm
; infill extrusion width = 0.45mm
; solid infill extrusion width = 0.45mm
; top infill extrusion width = 0.40mm
; first layer extrusion width = 0.42mm

; external perimeters extrusion width = 0.45mm
; perimeters extrusion width = 0.45mm
; infill extrusion width = 0.45mm
; solid infill extrusion width = 0.45mm
; top infill extrusion width = 0.40mm
; first layer extrusion width = 0.42mm

; external perimeters extrusion width = 0.45mm
; perimeters extrusion width = 0.45mm
; infill extrusion width = 0.45mm
; solid infill extrusion width = 0.45mm
; top infill extrusion width = 0.40mm
; first layer extrusion width = 0.42mm

; external perimeters extrusion width = 0.45mm
; perimeters extrusion width = 0.45mm
; infill extrusion width = 0.45mm
; solid infill extrusion width = 0.45mm
; top infill extrusion width = 0.40mm
; first layer extrusion width = 0.42mm

; external perimeters extrusion width = 0.45mm
; perimeters extrusion width = 0.45mm
; infill extrusion width = 0.45mm
; solid infill extrusion width = 0.45mm
; top infill extrusion width = 0.40mm
; first layer extrusion width = 0.42mm

; external perimeters extrusion width = 0.45mm
; perimeters extrusion width = 0.45mm
; infill extrusion width = 0.45mm
; solid infill extrusion width = 0.45mm
; top infill extrusion width = 0.40mm
; first layer extrusion width = 0.42mm

; external perimeters extrusion width = 0.45mm
; perimeters extrusion width = 0.45mm
; infill extrusion width = 0.45mm
; solid infill extrusion width = 0.45mm
; top infill extrusion width = 0.40mm
; first layer extrusion width = 0.42mm

; external perimeters extrusion width = 0.45mm
; perimeters extrusion width = 0.45mm
; infill extrusion width = 0.45mm
; solid infill extrusion width = 0.45mm
; top infill extrusion width = 0.40mm
; first layer extrusion width = 0.42mm

; external perimeters extrusion width = 0.45mm
; perimeters extrusion width = 0.45mm
; infill extrusion width = 0.45mm
; solid infill extrusion width = 0.45mm
; top infill extrusion width = 0.40mm
; first layer extrusion width = 0.42mm

; external perimeters extrusion width = 0.45mm
; perimeters extrusion width = 0.45mm
; infill extrusion width = 0.45mm
; solid infill extrusion width = 0.45mm
; top infill extrusion width = 0.40mm
; first layer extrusion width = 0.42mm

; external perimeters extrusion width = 0.45mm
; perimeters extrusion width = 0.45mm
; infill extrusion width = 0.45mm
; solid infill extrusion width = 0.45mm
; top infill extrusion width = 0.40mm
; first layer extrusion width = 0.42mm

; external perimeters extrusion width = 0.45mm
; perimeters extrusion width = 0.45mm
; infill extrusion width = 0.45mm
; solid infill extrusion width = 0.45mm
; top infill extrusion width = 0.40mm
; first layer extrusion width = 0.42mm

; external perimeters extrusion width = 0.45mm
; perimeters extrusion width = 0.45mm
; infill extrusion width = 0.45mm
; solid infill extrusion width = 0.45mm
; top infill extrusion width = 0.40mm
; first layer extrusion width = 0.42mm

; external perimeters extrusion width = 0.45mm
; perimeters extrusion width = 0.45mm
; infill extrusion width = 0.45mm
; solid infill extrusion width = 0.45mm
; top infill extrusion width = 0.40mm
; first layer extrusion width = 0.42mm

; external perimeters extrusion width = 0.45mm
; perimeters extrusion width = 0.45mm
; infill extrusion width = 0.45mm
; solid infill extrusion width = 0.45mm
; top infill extrusion width = 0.40mm
; first layer extrusion width = 0.42mm

; external perimeters extrusion width = 0.45mm
; perimeters extrusion width = 0.45mm
; infill extrusion width = 0.45mm
; solid infill extrusion width = 0.45mm
; top infill extrusion width = 0.40mm
; first layer extrusion width = 0.42mm

; external perimeters extrusion width = 0.45mm
; perimeters extrusion width = 0.45mm
; infill extrusion width = 0.45mm
; solid infill extrusion width = 0.45mm
; top infill extrusion width = 0.40mm
; first layer extrusion width = 0.42mm

; external perimeters extrusion width = 0.45mm
; perimeters extrusion width = 0.45mm
; infill extrusion width = 0.45mm
; solid infill extrusion width = 0.45mm
; top infill extrusion width = 0.40mm
; first layer extrusion width = 0.42mm

; external perimeters extrusion width = 0.45mm
; perimeters extrusion width = 0.45mm
; infill extrusion width = 0.45mm
; solid infill extrusion width = 0.45mm
; top infill extrusion width = 0.40mm
; first layer extrusion width = 0.42mm

; external perimeters extrusion width = 0.45mm
; perimeters extrusion width = 0.45mm
; infill extrusion width = 0.45mm
; solid infill extrusion width = 0.45mm
; top infill extrusion width = 0.40mm
; first layer extrusion width = 0.42mm

; external perimeters extrusion width = 0.45mm
; perimeters extrusion width = 0.45mm
; infill extrusion width = 0.45mm
; solid infill extrusion width = 0.45mm
; top infill extrusion width = 0.40mm
; first layer extrusion width = 0.42mm

; external perimeters extrusion width = 0.45mm
; perimeters extrusion width = 0.45mm
; infill extrusion width = 0.45mm
; solid infill extrusion width = 0.45mm
; top infill extrusion width = 0.40mm
; first layer extrusion width = 0.42mm

; external perimeters extrusion width = 0.45mm
; perimeters extrusion width = 0.45mm
; infill extrusion width = 0.45mm
; solid infill extrusion width = 0.45mm
; top infill extrusion width = 0.40mm
; first layer extrusion width = 0.42mm

; external perimeters extrusion width = 0.45mm
; perimeters extrusion width = 0.45mm
; infill extrusion width = 0.45mm
; solid infill extrusion width = 0.45mm
; top infill extrusion width = 0.40mm
; first layer extrusion width = 0.42mm

; external perimeters extrusion width = 0.45mm
; perimeters extrusion width = 0.45mm
; infill extrusion width = 0.45mm
; solid infill extrusion width = 0.45mm
; top infill extrusion width = 0.40mm
; first layer extrusion width = 0.42mm

; external perimeters extrusion width = 0.45mm
; perimeters extrusion width = 0.45mm
; infill extrusion width = 0.45mm
; solid infill extrusion width = 0.45mm
; top infill extrusion width = 0.40mm
; first layer extrusion width = 0.42mm

; external perimeters extrusion width = 0.45mm
; perimeters extrusion width = 0.45mm
; infill extrusion width = 0.45mm
; solid infill extrusion width = 0.45mm
; top infill extrusion width = 0.40mm
; first layer extrusion width = 0.42mm

; external perimeters extrusion width = 0.45mm
; perimeters extrusion width = 0.45mm
; infill extrusion width = 0.45mm
; solid infill extrusion width = 0.45mm
; top infill extrusion width = 0.40mm
; first layer extrusion width = 0.42mm

; external perimeters extrusion width = 0.45mm
; perimeters extrusion width = 0.45mm
; infill extrusion width = 0.45mm
; solid infill extrusion width = 0.45mm
; top infill extrusion width = 0.40mm
; first layer extrusion width = 0.42mm

; external perimeters extrusion width = 0.45mm
; perimeters extrusion width = 0.45mm
; infill extrusion width = 0.45mm
; solid infill extrusion width = 0.45mm
; top infill extrusion width = 0.40mm
; first layer extrusion width = 0.42mm

; external perimeters extrusion width = 0.45mm
; perimeters extrusion width = 0.45mm
; infill extrusion width = 0.45mm
; solid infill extrusion width = 0.45mm
; top infill extrusion width = 0.40mm
; first layer extrusion width = 0.42mm

M73 P0 R48
M73 Q0 S49
M201 X1000 Y1000 Z200 E5000 ; sets maximum accelerations, mm/sec^2
M203 X200 Y200 Z12 E120 ; sets maximum feedrates, mm / sec
M204 P1250 R1250 T1250 ; sets acceleration (P, T) and retract acceleration (R), mm/sec^2
M205 X8.00 Y8.00 Z0.40 E4.50 ; sets the jerk limits, mm/sec
M205 S0 T0 ; sets the minimum extruding and travel feed rate, mm/sec
M107
;TYPE:Custom
M862.3 P "MK3S" ; printer model check
M862.1 P0.4 ; nozzle diameter check
M115 U3.11.0 ; tell printer latest fw version
G90 ; use absolute coordinates
M83 ; extruder relative mode
M104 S215 ; set extruder temp
M140 S60 ; set bed temp
M190 S60 ; wait for bed temp
M109 S215 ; wait for extruder temp
G28 W ; home all without mesh bed level
G80 ; mesh bed leveling

G1 Z0.2 F720
G1 Y-3 F1000 ; go outside print area
G92 E0
G1 X60 E9 F1000 ; intro line
G1 X100 E12.5 F1000 ; intro line

G92 E0
M221 S95

; Don't change E values below. Excessive value can damage the printer.
M907 E430 ; set extruder motor current
G21 ; set units to millimeters
G90 ; use absolute coordinates
M83 ; use relative distances for extrusion
M900 K0.05 ; Filament gcode LA 1.5
M900 K30 ; Filament gcode LA 1.0
M107
;LAYER_CHANGE
;Z:0.2
;HEIGHT:0.2
;BEFORE_LAYER_CHANGE
G92 E0.0
;0.2


G1 E-.8 F2100
G1 Z.4 F720
;AFTER_LAYER_CHANGE
;0.2
G1 X34.472 Y62.114 F10800
G1 Z.2 F720
G1 E.8 F2100
M204 S800
;TYPE:Skirt/Brim
;WIDTH:0.42
G1 F1200
G1 X35.599 Y61.497 E.0403
G1 X36.872 Y61.009 E.04272
G1 X38.364 Y60.676 E.04793
G1 X39.645 Y60.577 E.0403
G1 X175.041 Y58.704 E4.24564
G1 X176.787 Y58.882 E.05506
M73 Q0 S48
G1 X178.634 Y59.431 E.06039
G1 X180.339 Y60.327 E.06039
G1 X181.837 Y61.537 E.06039
G1 X183.028 Y62.952 E.05798
G1 X183.966 Y64.634 E.0604
G1 X184.56 Y66.467 E.06039
G1 X184.786 Y68.38 E.0604
G1 X181.55 Y146.939 E2.46526
G1 X181.374 Y148.134 E.03788
G1 X181.106 Y149.14 E.03266
G1 X180.664 Y150.265 E.03788
G1 X180.175 Y151.185 E.03266
G1 X179.491 Y152.18 E.03788
G1 X178.807 Y152.966 E.03266
G1 X177.916 Y153.781 E.03788
G1 X177.072 Y154.392 E.03266
G1 X175.728 Y155.12 E.04793
G1 X174.522 Y155.565 E.0403
G1 X173.193 Y155.862 E.04272
G1 X171.912 Y155.972 E.0403
G1 X57.664 Y156.042 E3.58216
G1 X39.853 Y154.605 E.56027
G1 X38.343 Y154.37 E.04793
G1 X36.52 Y153.746 E.0604
G1 X34.853 Y152.781 E.06039
G1 X33.406 Y151.51 E.0604
G1 X32.232 Y149.982 E.06039
G1 X31.625 Y148.85 E.0403
G1 X31.17 Y147.648 E.0403
G1 X30.875 Y146.397 E.0403
G1 X30.742 Y145.048 E.0425
G1 X29.673 Y89.459 E1.74326
G1 X29.891 Y70.17 E.60484
M73 P1 R48
M73 Q1 S48
G1 X30.012 Y68.891 E.0403
G1 X30.23 Y67.872 E.03266
G1 X30.646 Y66.656 E.0403
G1 X31.178 Y65.571 E.03788
G1 X31.841 Y64.557 E.038
G1 X32.556 Y63.701 E.03495
G1 X33.434 Y62.872 E.03788
G1 X34.423 Y62.149 E.03842
M204 S1000
; printing object M8 Washer 8 x 13 x1.stl id:39 copy 0
;WIPE_START
G1 F8640
G1 X35.599 Y61.497 E-.31051
G1 X36.872 Y61.009 E-.3146
G1 X37.442 Y60.882 E-.13489
;WIPE_END
G1 E-.04 F2100
G1 Z.6 F720
G1 X174.249 Y61.903 F10800
G1 Z.2 F720
G1 E.8 F2100
M204 S800
;TYPE:Perimeter
;WIDTH:0.419999
G1 F1200
G1 X175.269 Y61.884 E.03199
G1 X175.773 Y61.925 E.01588
G1 X176.5 Y62.063 E.02318
G1 X177.047 Y62.218 E.01784
G1 X177.657 Y62.456 E.02053
G1 X178.241 Y62.753 E.02056
G1 X178.871 Y63.166 E.0236
G1 X179.309 Y63.51 E.01747
G1 X179.788 Y63.97 E.02081
G1 X180.209 Y64.46 E.02027
G1 X180.64 Y65.092 E.02397
G1 X180.907 Y65.567 E.01709
G1 X181.179 Y66.185 E.02119
G1 X181.378 Y66.788 E.0199
G1 X181.538 Y67.548 E.02434
G1 X181.603 Y68.077 E.01672
G1 X181.618 Y68.764 E.02156
G1 X181.573 Y69.386 E.01953
G1 X181.428 Y70.16 E.02471
G1 X181.29 Y70.663 E.01635
G1 X181.037 Y71.315 E.02193
G1 X180.764 Y71.862 E.01915
G1 X180.328 Y72.532 E.02508
G1 X180.016 Y72.935 E.01598
G1 X179.524 Y73.449 E.0223
G1 X179.073 Y73.843 E.01878
G1 X178.54 Y74.224 E.02054
G1 X177.972 Y74.55 E.02053
G1 X177.311 Y74.843 E.02267
G1 X176.755 Y75.031 E.01841
G1 X176.117 Y75.18 E.02054
G1 X175.468 Y75.266 E.02054
G1 X174.733 Y75.284 E.02304
G1 X174.159 Y75.247 E.01804
G1 X173.513 Y75.142 E.02054
G1 X172.879 Y74.974 E.02053
G1 X172.183 Y74.706 E.02341
G1 X171.677 Y74.458 E.01767
G1 X171.119 Y74.115 E.02054
G1 X170.597 Y73.719 E.02053
G1 X170.047 Y73.197 E.02377
G1 X169.682 Y72.784 E.0173
G1 X169.218 Y72.122 E.02531
G1 X168.965 Y71.688 E.01576
G1 X168.662 Y71.015 E.02315
G1 X168.475 Y70.475 E.01791
G1 X168.32 Y69.839 E.02054
G1 X168.229 Y69.19 E.02053
G1 X168.207 Y68.408 E.02452
G1 X168.238 Y67.881 E.01655
G1 X168.337 Y67.234 E.02054
G1 X168.5 Y66.599 E.02053
G1 X168.783 Y65.858 E.0249
G1 X169.006 Y65.392 E.01618
G1 X169.345 Y64.832 E.02055
G1 X169.737 Y64.307 E.02053
G1 X170.29 Y63.721 E.02527
G1 X170.664 Y63.384 E.0158
G1 X171.193 Y62.994 E.0206
G1 X171.754 Y62.658 E.02048
G1 X172.346 Y62.379 E.02054
G1 X173.062 Y62.132 E.02374
G1 X173.598 Y61.999 E.01733
G1 X174.189 Y61.912 E.01874
M204 S1000
G1 X174.233 Y61.526 F10800
M204 S800
;TYPE:External perimeter
G1 F1200
G1 X175.296 Y61.508 E.03332
G1 X175.838 Y61.553 E.01705
G1 X176.6 Y61.699 E.02434
G1 X177.182 Y61.866 E.01899
G1 X177.972 Y62.192 E.02681
G1 X178.442 Y62.434 E.01657
G1 X179.102 Y62.868 E.02475
G1 X179.567 Y63.236 E.01862
G1 X180.18 Y63.846 E.02709
G1 X180.516 Y64.242 E.01629
G1 X180.967 Y64.904 E.02512
G1 X181.251 Y65.412 E.01825
G1 X181.588 Y66.217 E.02736
G1 X181.745 Y66.703 E.01601
G1 X181.912 Y67.499 E.02549
G1 X181.98 Y68.065 E.01787
G1 X181.984 Y68.946 E.02764
G1 X181.945 Y69.447 E.01574
G1 X181.793 Y70.257 E.02586
G1 X181.643 Y70.795 E.0175
G1 X181.375 Y71.481 E.02308
G1 X181.085 Y72.06 E.02031
G1 X180.628 Y72.761 E.02623
G1 X180.292 Y73.192 E.01713
G1 X179.774 Y73.732 E.02345
G1 X179.294 Y74.148 E.01994
G1 X178.595 Y74.628 E.0266
G1 X178.13 Y74.893 E.01676
G1 X177.435 Y75.199 E.02382
G1 X176.843 Y75.398 E.01956
G1 X176.002 Y75.577 E.02698
G1 X175.483 Y75.643 E.01639
G1 X174.712 Y75.66 E.02419
G1 X174.101 Y75.62 E.01919
G1 X173.243 Y75.462 E.02735
G1 X172.75 Y75.329 E.01602
G1 X172.02 Y75.046 E.02456
G1 X171.481 Y74.781 E.01882
G1 X170.893 Y74.417 E.02169
G1 X170.343 Y73.997 E.02169
G1 X169.767 Y73.449 E.02493
G1 X169.378 Y73.007 E.01845
G1 X168.894 Y72.315 E.02647
G1 X168.624 Y71.849 E.01691
G1 X168.307 Y71.141 E.02431
G1 X168.109 Y70.566 E.01907
G1 X167.947 Y69.894 E.0217
G1 X167.852 Y69.209 E.02168
G1 X167.831 Y68.39 E.02568
G1 X167.864 Y67.826 E.0177
G1 X167.971 Y67.143 E.0217
G1 X168.145 Y66.473 E.02168
G1 X168.441 Y65.697 E.02605
G1 X168.682 Y65.2 E.01733
G1 X169.041 Y64.608 E.0217
G1 X169.456 Y64.055 E.02168
