; generated by PrusaSlicer 2.5.0+win64 on 2023-01-19 at 10:58:52 UTC


;
;
; 

; external perimeters extrusion width = 0.45mm
; perimeters extrusion width = 0.45mm
; infill extrusion width = 0.45mm
; solid infill extrusion width = 0.45mm
; top infill extrusion width = 0.40mm
; first layer extrusion width = 0.42mm

; external perimeters extrusion width = 0.45mm
; perimeters extrusion width = 0.45mm
; infill extrusion width = 0.45mm
; solid infill extrusion width = 0.45mm
; top infill extrusion width = 0.40mm
; first layer extrusion width = 0.42mm

; external perimeters extrusion width = 0.45mm
; perimeters extrusion width = 0.45mm
; infill extrusion width = 0.45mm
; solid infill extrusion width = 0.45mm
; top infill extrusion width = 0.40mm
; first layer extrusion width = 0.42mm

; external perimeters extrusion width = 0.45mm
; perimeters extrusion width = 0.45mm
; infill extrusion width = 0.45mm
; solid infill extrusion width = 0.45mm
; top infill extrusion width = 0.40mm
; first layer extrusion width = 0.42mm

; external perimeters extrusion width = 0.45mm
; perimeters extrusion width = 0.45mm
; infill extrusion width = 0.45mm
; solid infill extrusion width = 0.45mm
; top infill extrusion width = 0.40mm
; first layer extrusion width = 0.42mm

; external perimeters extrusion width = 0.45mm
; perimeters extrusion width = 0.45mm
; infill extrusion width = 0.45mm
; solid infill extrusion width = 0.45mm
; top infill extrusion width = 0.40mm
; first layer extrusion width = 0.42mm

; external perimeters extrusion width = 0.45mm
; perimeters extrusion width = 0.45mm
; infill extrusion width = 0.45mm
; solid infill extrusion width = 0.45mm
; top infill extrusion width = 0.40mm
; first layer extrusion width = 0.42mm

; external perimeters extrusion width = 0.45mm
; perimeters extrusion width = 0.45mm
; infill extrusion width = 0.45mm
; solid infill extrusion width = 0.45mm
; top infill extrusion width = 0.40mm
; first layer extrusion width = 0.42mm

; external perimeters extrusion width = 0.45mm
; perimeters extrusion width = 0.45mm
; infill extrusion width = 0.45mm
; solid infill extrusion width = 0.45mm
; top infill extrusion width = 0.40mm
; first layer extrusion width = 0.42mm

; external perimeters extrusion width = 0.45mm
; perimeters extrusion width = 0.45mm
; infill extrusion width = 0.45mm
; solid infill extrusion width = 0.45mm
; top infill extrusion width = 0.40mm
; first layer extrusion width = 0.42mm

M73 P0 R19
M73 Q0 S19
M201 X1000 Y1000 Z200 E5000 ; sets maximum accelerations, mm/sec^2
M203 X200 Y200 Z12 E120 ; sets maximum feedrates, mm / sec
M204 P1250 R1250 T1250 ; sets acceleration (P, T) and retract acceleration (R), mm/sec^2
M205 X8.00 Y8.00 Z0.40 E4.50 ; sets the jerk limits, mm/sec
M205 S0 T0 ; sets the minimum extruding and travel feed rate, mm/sec
M107
;TYPE:Custom
M862.3 P "MK3S" ; printer model check
M862.1 P0.4 ; nozzle diameter check
M115 U3.11.0 ; tell printer latest fw version
G90 ; use absolute coordinates
M83 ; extruder relative mode
M104 S215 ; set extruder temp
M140 S60 ; set bed temp
M190 S60 ; wait for bed temp
M109 S215 ; wait for extruder temp
G28 W ; home all without mesh bed level
G80 ; mesh bed leveling

G1 Z0.2 F720
G1 Y-3 F1000 ; go outside print area
G92 E0
G1 X60 E9 F1000 ; intro line
G1 X100 E12.5 F1000 ; intro line

G92 E0
M221 S95

; Don't change E values below. Excessive value can damage the printer.
M907 E430 ; set extruder motor current
G21 ; set units to millimeters
G90 ; use absolute coordinates
M83 ; use relative distances for extrusion
M900 K0.05 ; Filament gcode LA 1.5
M900 K30 ; Filament gcode LA 1.0
M107
;LAYER_CHANGE
;Z:0.2
;HEIGHT:0.2
;BEFORE_LAYER_CHANGE
G92 E0.0
;0.2


G1 E-.8 F2100
G1 Z.4 F720
;AFTER_LAYER_CHANGE
;0.2
G1 X81.311 Y74.33 F10800
G1 Z.2 F720
G1 E.8 F2100
M204 S800
;TYPE:Skirt/Brim
;WIDTH:0.42
G1 F1200
G1 X82.086 Y73.587 E.03367
G1 X83.824 Y72.309 E.06762
G1 X84.917 Y71.718 E.03897
G1 X85.957 Y71.277 E.03544
G1 X88.037 Y70.706 E.06762
G1 X89.354 Y70.538 E.04162
G1 X90.411 Y70.506 E.03315
G1 X136.536 Y70.747 E1.44626
G1 X182.574 Y71.119 E1.44354
G1 X184.701 Y71.331 E.06702
M73 P1 R19
M73 Q1 S19
G1 X186.715 Y71.889 E.06553
G1 X188.302 Y72.608 E.05463
G1 X189.719 Y73.503 E.05253
G1 X190.845 Y74.433 E.04581
G1 X191.992 Y75.655 E.05253
G1 X192.849 Y76.838 E.04581
G1 X193.652 Y78.309 E.05253
G1 X194.185 Y79.669 E.04581
G1 X194.594 Y81.294 E.05253
G1 X194.791 Y83.487 E.06903
G1 X194.659 Y105.3 E.68397
G1 X194.433 Y107.378 E.06553
G1 X193.884 Y109.325 E.06343
G1 X193.131 Y110.97 E.05672
G1 X192.186 Y112.434 E.05462
G1 X191.045 Y113.75 E.05463
G1 X189.73 Y114.893 E.05463
G1 X188.268 Y115.841 E.05463
G1 X186.687 Y116.573 E.05463
G1 X184.882 Y117.106 E.05903
G1 X183.016 Y117.361 E.05903
G1 X160.399 Y117.678 E.70922
G1 X90.296 Y117.696 E2.19802
G1 X88.18 Y117.514 E.06659
G1 X87.158 Y117.291 E.03279
G1 X85.894 Y116.887 E.04162
G1 X84.562 Y116.287 E.04581
G1 X83.133 Y115.413 E.05253
G1 X82.043 Y114.543 E.04371
G1 X81.014 Y113.506 E.04581
G1 X79.993 Y112.178 E.05253
G1 X79.256 Y110.916 E.04581
G1 X78.602 Y109.374 E.05253
G1 X78.22 Y108.033 E.04371
G1 X77.991 Y106.657 E.04371
G1 X77.921 Y105.547 E.03489
G1 X77.881 Y82.816 E.71272
G1 X77.936 Y81.717 E.03449
G1 X78.132 Y80.404 E.04162
G1 X78.384 Y79.389 E.03279
G1 X78.746 Y78.337 E.03489
G1 X79.299 Y77.13 E.04162
G1 X80.464 Y75.315 E.06762
G1 X81.272 Y74.376 E.03885
M204 S1000
; printing object M10 washer.stl id:3 copy 0
;WIPE_START
G1 F8640
G1 X82.086 Y73.587 E-.26178
G1 X83.824 Y72.309 E-.49796
G1 X83.825 Y72.309 E-.00026
;WIPE_END
G1 E-.04 F2100
G1 Z.6 F720
G1 X97.595 Y77.314 F10800
G1 Z.2 F720
G1 E.8 F2100
M204 S800
;TYPE:Perimeter
;WIDTH:0.419999
G1 F1200
G1 X98.167 Y78.173 E.03236
G1 X98.431 Y78.634 E.01668
G1 X98.652 Y79.087 E.01579
G1 X98.852 Y79.566 E.01627
G1 X99.025 Y80.054 E.01625
G1 X99.164 Y80.536 E.01572
G1 X99.367 Y81.56 E.03274
G1 X99.436 Y82.102 E.0171
G1 X99.465 Y82.604 E.01578
G1 X99.461 Y83.202 E.01876
G1 X99.411 Y83.915 E.02242
G1 X99.341 Y84.414 E.01577
G1 X99.241 Y84.923 E.01627
G1 X99.112 Y85.426 E.01628
G1 X98.854 Y86.175 E.02484
G1 X98.66 Y86.658 E.01631
G1 X98.442 Y87.111 E.01579
G1 X98.045 Y87.79 E.02463
G1 X97.73 Y88.265 E.01789
G1 X97.279 Y88.845 E.02304
G1 X96.943 Y89.22 E.01577
M73 Q2 S19
G1 X96.576 Y89.586 E.01627
G1 X96.188 Y89.931 E.01628
G1 X95.572 Y90.398 E.02421
G1 X95.126 Y90.702 E.01694
G1 X94.692 Y90.956 E.01578
G1 X94.192 Y91.209 E.01756
M73 P2 R19
G1 X93.499 Y91.504 E.02361
G1 X93.024 Y91.669 E.01577
G1 X92.517 Y91.811 E.01651
G1 X91.747 Y91.972 E.02466
G1 X91.248 Y92.04 E.01579
G1 X90.497 Y92.084 E.02358
G1 X89.937 Y92.088 E.01757
G1 X89.435 Y92.057 E.01578
G1 X88.699 Y91.953 E.0233
G1 X88.131 Y91.843 E.01815
G1 X87.39 Y91.635 E.02412
G1 X86.916 Y91.466 E.01577
G1 X86.438 Y91.264 E.01627
G1 X85.972 Y91.036 E.01627
G1 X85.513 Y90.776 E.01652
G1 X84.703 Y90.222 E.03078
G1 X84.246 Y89.861 E.01826
G1 X83.874 Y89.522 E.01578
G1 X83.506 Y89.146 E.0165
G1 X82.995 Y88.547 E.02467
G1 X82.696 Y88.143 E.01577
G1 X82.409 Y87.701 E.0165
G1 X82.026 Y87.014 E.02466
G1 X81.812 Y86.559 E.01579
G1 X81.619 Y86.077 E.01627
G1 X81.44 Y85.543 E.01767
G1 X81.26 Y84.817 E.02344
G1 X81.158 Y84.307 E.01633
G1 X81.093 Y83.808 E.01578
G1 X81.056 Y83.112 E.02184
G1 X81.055 Y82.494 E.01938
G1 X81.09 Y81.994 E.01573
G1 X81.188 Y81.308 E.02171
G1 X81.312 Y80.693 E.01968
G1 X81.526 Y79.952 E.02418
G1 X81.698 Y79.48 E.01577
G1 X81.908 Y78.997 E.01651
G1 X82.269 Y78.298 E.02467
G1 X82.531 Y77.868 E.01577
G1 X82.826 Y77.441 E.01627
G1 X83.144 Y77.031 E.01626
G1 X83.474 Y76.654 E.01572
G1 X84.152 Y75.992 E.02971
G1 X84.644 Y75.58 E.02014
G1 X85.051 Y75.284 E.01578
G1 X85.488 Y75.002 E.01628
G1 X85.939 Y74.746 E.01627
G1 X86.532 Y74.465 E.02059
G1 X87.148 Y74.214 E.02086
G1 X87.882 Y73.983 E.02411
G1 X88.371 Y73.866 E.01579
G1 X89.007 Y73.761 E.0202
G1 X89.672 Y73.69 E.02096
G1 X90.175 Y73.671 E.01577
G1 X90.772 Y73.69 E.01875
G1 X91.493 Y73.756 E.0227
G1 X92.357 Y73.918 E.02756
G1 X93.003 Y74.09 E.02096
G1 X93.479 Y74.252 E.01577
G1 X93.96 Y74.447 E.01627
G1 X94.429 Y74.669 E.01627
G1 X94.869 Y74.91 E.01572
G1 X95.562 Y75.353 E.02578
G1 X96.171 Y75.819 E.02407
G1 X96.548 Y76.153 E.01579
G1 X96.917 Y76.518 E.01628
G1 X97.265 Y76.903 E.01627
G1 X97.557 Y77.267 E.01463
M204 S1000
G1 X97.903 Y77.097 F10800
M204 S800
;TYPE:External perimeter
G1 F1200
G1 X98.492 Y77.983 E.03336
G1 X98.777 Y78.482 E.01801
G1 X98.999 Y78.94 E.01597
G1 X99.207 Y79.438 E.01694
G1 X99.386 Y79.947 E.01691
G1 X99.532 Y80.454 E.01655
G1 X99.741 Y81.51 E.03376
G1 X99.813 Y82.078 E.01793
G1 X99.843 Y82.601 E.01645
G1 X99.846 Y83.083 E.0151
G1 X99.794 Y83.895 E.02551
G1 X99.723 Y84.429 E.0169
G1 X99.62 Y84.96 E.01694
G1 X99.489 Y85.484 E.01694
G1 X99.328 Y85.998 E.0169
G1 X99.031 Y86.755 E.0255
G1 X98.8 Y87.242 E.01689
G1 X98.541 Y87.715 E.0169
G1 X98.103 Y88.398 E.02545
G1 X97.608 Y89.042 E.02546
G1 X97.251 Y89.445 E.01689
G1 X96.87 Y89.828 E.01694
G1 X96.468 Y90.19 E.01694
G1 X96.048 Y90.527 E.0169
G1 X95.379 Y90.99 E.0255
G1 X94.916 Y91.265 E.01689
G1 X94.438 Y91.513 E.0169
G1 X93.691 Y91.836 E.0255
G1 X93.183 Y92.015 E.01689
G1 X92.665 Y92.165 E.01689
G1 X91.87 Y92.336 E.0255
G1 X91.337 Y92.411 E.0169
G1 X90.8 Y92.457 E.01689
G1 X89.987 Y92.468 E.0255
G1 X89.448 Y92.438 E.0169
G1 X88.938 Y92.38 E.0161
G1 X88.115 Y92.229 E.02625
G1 X87.332 Y92.015 E.02545
G1 X86.824 Y91.836 E.01689
G1 X86.325 Y91.628 E.01694
G1 X85.838 Y91.393 E.01694
G1 X85.367 Y91.131 E.0169
G1 X84.687 Y90.688 E.02545
G1 X84.047 Y90.189 E.02545
G1 X83.646 Y89.828 E.0169
G1 X83.267 Y89.446 E.01689
G1 X82.736 Y88.83 E.0255
G1 X82.413 Y88.398 E.0169
G1 X82.116 Y87.949 E.01689
G1 X81.716 Y87.24 E.0255
G1 X81.485 Y86.754 E.01689
G1 X81.28 Y86.254 E.01694
G1 X81.105 Y85.743 E.01694
G1 X80.959 Y85.224 E.01689
G1 X80.794 Y84.428 E.0255
G1 X80.722 Y83.893 E.0169
G1 X80.682 Y83.381 E.01611
G1 X80.674 Y82.543 E.02629
G1 X80.708 Y82.005 E.01689
G1 X80.773 Y81.47 E.01689
G1 X80.926 Y80.673 E.02546
G1 X81.147 Y79.892 E.02545
G1 X81.329 Y79.385 E.0169
G1 X81.539 Y78.889 E.01689
G1 X81.909 Y78.164 E.0255
G1 X82.187 Y77.703 E.01689
G1 X82.492 Y77.256 E.01694
G1 X82.821 Y76.828 E.01695
G1 X83.156 Y76.438 E.01611
G1 X83.745 Y75.843 E.02624
G1 X84.364 Y75.318 E.02545
G1 X84.798 Y74.999 E.0169
G1 X85.25 Y74.704 E.01694
G1 X85.719 Y74.435 E.01694
G1 X86.178 Y74.204 E.01611
G1 X86.95 Y73.881 E.02625
G1 X87.723 Y73.633 E.02545
G1 X88.247 Y73.506 E.0169
G1 X88.777 Y73.407 E.01689
G1 X89.585 Y73.316 E.0255
G1 X90.123 Y73.293 E.0169
G1 X90.637 Y73.3 E.0161
G1 X91.384 Y73.362 E.02352
G1 X92.452 Y73.553 E.034
G1 X93.123 Y73.732 E.02179
G1 X93.619 Y73.902 E.01644
G1 X94.12 Y74.106 E.01693
G1 X94.607 Y74.337 E.01693
G1 X95.354 Y74.769 E.02705
G1 X95.789 Y75.052 E.01628
G1 X96.419 Y75.536 E.0249
G1 X96.812 Y75.883 E.01645
G1 X97.196 Y76.264 E.01694
G1 X97.558 Y76.665 E.01693
G1 X97.866 Y77.05 E.01546
M204 S1000
G1 X97.739 Y77.462 F10800
;WIPE_START
G1 F8640
G1 X98.492 Y77.983 E-.25946
G1 X98.777 Y78.482 E-.1326
G1 X98.999 Y78.94 E-.11757
G1 X99.207 Y79.438 E-.12473
G1 X99.386 Y79.947 E-.12454
G1 X99.388 Y79.951 E-.0011
;WIPE_END
G1 E-.04 F2100
G1 Z.6 F720
G1 X94.481 Y87.042 F10800
G1 Z.2 F720
G1 E.8 F2100
M204 S800
;TYPE:Perimeter
G1 F1200
G1 X94.421 Y87.113 E.0029
G1 X93.791 Y87.63 E.02554
G1 X93.46 Y87.876 E.01296
G1 X92.983 Y88.156 E.01734
G1 X92.325 Y88.435 E.02241
G1 X91.758 Y88.617 E.01867
G1 X91.356 Y88.714 E.01297
G1 X90.313 Y88.817 E.03283
G1 X89.155 Y88.713 E.03648
G1 X88.416 Y88.5 E.02411
G1 X87.869 Y88.311 E.01815
G1 X87.387 Y88.078 E.01678
G1 X86.775 Y87.675 E.02296
G1 X86.127 Y87.141 E.02634
G1 X85.592 Y86.515 E.02582
G1 X85.251 Y86.063 E.01774
G1 X84.996 Y85.629 E.01578
G1 X84.69 Y84.91 E.02451
G1 X84.51 Y84.33 E.01903
G1 X84.421 Y83.926 E.01296
G1 X84.324 Y82.937 E.03116
G1 X84.427 Y81.779 E.03648
G1 X84.655 Y80.989 E.02578
G1 X84.819 Y80.518 E.01564
G1 X85.293 Y79.631 E.03152
G1 X85.694 Y79.091 E.02109
G1 X86.28 Y78.487 E.02639
G1 X86.933 Y77.965 E.0262
G1 X87.936 Y77.421 E.0358
G1 X88.591 Y77.185 E.02181
G1 X89.399 Y77.017 E.0259
G1 X90.185 Y76.971 E.02467
G1 X90.727 Y76.964 E.01699
G1 X91.384 Y77.054 E.02079
G1 X92.478 Y77.378 E.0358
G1 X93.584 Y77.965 E.03925
G1 X94.092 Y78.35 E.01998
G1 X94.539 Y78.79 E.01967
G1 X94.898 Y79.201 E.01712
G1 X95.409 Y79.934 E.02802
G1 X95.885 Y80.996 E.03648
G1 X96.097 Y81.912 E.02948
G1 X96.162 Y82.302 E.0124
G1 X96.194 Y82.849 E.01718
G1 X96.082 Y84.037 E.03743
G1 X95.72 Y85.205 E.03832
G1 X95.223 Y86.133 E.03302
G1 X94.52 Y86.997 E.03492
M204 S1000
G1 X94.202 Y86.8 F10800
M204 S800
;TYPE:External perimeter
G1 F1200
G1 X93.269 Y87.551 E.03755
G1 X92.792 Y87.831 E.01734
G1 X92.18 Y88.086 E.02079
G1 X91.663 Y88.252 E.01705
G1 X91.319 Y88.339 E.01112
G1 X90.277 Y88.441 E.03283
G1 X89.15 Y88.329 E.03549
G1 X88.146 Y88.025 E.03289
G1 X87.649 Y87.786 E.01729
G1 X86.985 Y87.362 E.02472
G1 X86.377 Y86.859 E.02472
G1 X85.884 Y86.275 E.02397
G1 X85.576 Y85.872 E.0159
G1 X85.319 Y85.435 E.01589
G1 X85.038 Y84.764 E.0228
G1 X84.875 Y84.235 E.01737
G1 X84.796 Y83.89 E.01111
G1 X84.699 Y82.9 E.03116
G1 X84.802 Y81.816 E.03417
G1 X85.152 Y80.695 E.03679
G1 X85.626 Y79.809 E.03152
G1 X85.994 Y79.318 E.01924
G1 X86.547 Y78.754 E.02477
G1 X87.16 Y78.266 E.02457
G1 X88.114 Y77.753 E.03395
G1 X88.715 Y77.541 E.01997
G1 X89.474 Y77.386 E.02429
G1 X90.695 Y77.339 E.03833
G1 X91.332 Y77.427 E.02015
G1 X92.369 Y77.739 E.03395
G1 X93.356 Y78.266 E.03509
G1 X93.862 Y78.648 E.01987
G1 X94.272 Y79.057 E.01815
G1 X94.589 Y79.417 E.01504
G1 X95.1 Y80.15 E.02802
G1 X95.447 Y80.934 E.0269
G1 X95.583 Y81.329 E.01308
G1 X95.777 Y82.211 E.02831
G1 X95.81 Y82.734 E.01646
G1 X95.707 Y83.985 E.03935
G1 X95.401 Y84.993 E.03302
G1 X94.87 Y85.986 E.03532
G1 X94.24 Y86.754 E.03113
M204 S1000
G1 X94.304 Y87.187 F10800
;WIPE_START
G1 F8640
G1 X93.269 Y87.551 E-.29007
G1 X92.792 Y87.831 E-.12767
G1 X92.18 Y88.086 E-.15311
G1 X91.663 Y88.252 E-.12555
G1 X91.396 Y88.319 E-.0636
;WIPE_END
G1 E-.04 F2100
G1 Z.6 F720
G1 X95.341 Y75.34 F10800
G1 Z.2 F720
G1 E.8 F2100
M204 S800
;TYPE:Solid infill
;WIDTH:0.422764
G1 F1200
G1 X96.703 Y76.702 E.06084
G1 X97.022 Y77.052 E.01493
G1 X97.336 Y77.437 E.0157
G1 X97.773 Y78.059 E.02403
G1 X98.124 Y78.66 E.02197
G1 X94.482 Y75.018 E.16268
G1 X93.806 Y74.687 E.02377
G1 X93.486 Y74.559 E.01089
G1 X98.585 Y79.658 E.22776
G1 X98.851 Y80.462 E.02675
G1 X92.684 Y74.295 E.27548
G1 X91.977 Y74.125 E.02295
G1 X99.015 Y81.163 E.31434
G1 X99.114 Y81.799 E.02036
M73 Q3 S19
G1 X91.335 Y74.02 E.34747
M73 P3 R19
G1 X90.749 Y73.972 E.01857
G1 X99.171 Y82.394 E.37619
G1 X99.185 Y82.945 E.0174
G1 X90.195 Y73.954 E.40158
G1 X89.676 Y73.973 E.01639
G1 X93.068 Y77.365 E.15153
G1 X93.749 Y77.735 E.02446
G1 X94.305 Y78.159 E.02208
G1 X94.972 Y78.825 E.02978
G1 X95.679 Y79.831 E.03884
G1 X95.793 Y80.089 E.00892
G1 X99.161 Y83.458 E.15045
G1 X99.121 Y83.954 E.01574
G1 X96.185 Y81.018 E.13114
G1 X96.338 Y81.709 E.02236
G1 X99.052 Y84.423 E.1212
G1 X98.976 Y84.817 E.01267
G1 X98.962 Y84.871 E.00176
G1 X96.447 Y82.355 E.11236
G1 X96.474 Y82.92 E.01786
G1 X98.853 Y85.305 E.10638
G1 X98.727 Y85.709 E.01339
G1 X96.427 Y83.409 E.10274
G1 X96.379 Y83.899 E.01553
G1 X98.579 Y86.099 E.0983
G1 X98.428 Y86.485 E.01309
G1 X96.284 Y84.341 E.09576
G1 X96.16 Y84.754 E.01361
G1 X98.256 Y86.85 E.09361
G1 X98.07 Y87.201 E.01256
G1 X96.035 Y85.167 E.09088
G1 X96.011 Y85.249 E.00272
G1 X95.861 Y85.53 E.01004
G1 X97.87 Y87.539 E.08973
G1 X97.66 Y87.866 E.01228
G1 X95.675 Y85.881 E.08868
G1 X95.488 Y86.231 E.01255
G1 X97.438 Y88.181 E.08707
G1 X97.204 Y88.484 E.0121
G1 X95.262 Y86.542 E.08677
G1 X95.02 Y86.837 E.01206
G1 X96.96 Y88.778 E.08668
G1 X96.704 Y89.059 E.01201
G1 X94.778 Y87.133 E.08603
G1 X94.659 Y87.279 E.00597
G1 X94.51 Y87.401 E.00609
G1 X96.437 Y89.328 E.08607
G1 X96.155 Y89.584 E.01201
G1 X94.215 Y87.644 E.08666
G1 X93.92 Y87.886 E.01205
G1 X95.863 Y89.829 E.08679
G1 X95.559 Y90.063 E.0121
G1 X93.61 Y88.113 E.08708
G1 X93.269 Y88.31 E.01242
G1 X95.242 Y90.282 E.08811
G1 X94.919 Y90.496 E.01225
G1 X92.917 Y88.495 E.08939
G1 X92.537 Y88.652 E.01299
M73 P3 R18
