; generated by PrusaSlicer 2.5.0+win64 on 2023-01-19 at 09:44:28 UTC


;
;
; 

; external perimeters extrusion width = 0.45mm
; perimeters extrusion width = 0.45mm
; infill extrusion width = 0.45mm
; solid infill extrusion width = 0.45mm
; top infill extrusion width = 0.40mm
; first layer extrusion width = 0.42mm

; external perimeters extrusion width = 0.45mm
; perimeters extrusion width = 0.45mm
; infill extrusion width = 0.45mm
; solid infill extrusion width = 0.45mm
; top infill extrusion width = 0.40mm
; first layer extrusion width = 0.42mm

; external perimeters extrusion width = 0.45mm
; perimeters extrusion width = 0.45mm
; infill extrusion width = 0.45mm
; solid infill extrusion width = 0.45mm
; top infill extrusion width = 0.40mm
; first layer extrusion width = 0.42mm

; external perimeters extrusion width = 0.45mm
; perimeters extrusion width = 0.45mm
; infill extrusion width = 0.45mm
; solid infill extrusion width = 0.45mm
; top infill extrusion width = 0.40mm
; first layer extrusion width = 0.42mm

; external perimeters extrusion width = 0.45mm
; perimeters extrusion width = 0.45mm
; infill extrusion width = 0.45mm
; solid infill extrusion width = 0.45mm
; top infill extrusion width = 0.40mm
; first layer extrusion width = 0.42mm

; external perimeters extrusion width = 0.45mm
; perimeters extrusion width = 0.45mm
; infill extrusion width = 0.45mm
; solid infill extrusion width = 0.45mm
; top infill extrusion width = 0.40mm
; first layer extrusion width = 0.42mm

; external perimeters extrusion width = 0.45mm
; perimeters extrusion width = 0.45mm
; infill extrusion width = 0.45mm
; solid infill extrusion width = 0.45mm
; top infill extrusion width = 0.40mm
; first layer extrusion width = 0.42mm

; external perimeters extrusion width = 0.45mm
; perimeters extrusion width = 0.45mm
; infill extrusion width = 0.45mm
; solid infill extrusion width = 0.45mm
; top infill extrusion width = 0.40mm
; first layer extrusion width = 0.42mm

; external perimeters extrusion width = 0.45mm
; perimeters extrusion width = 0.45mm
; infill extrusion width = 0.45mm
; solid infill extrusion width = 0.45mm
; top infill extrusion width = 0.40mm
; first layer extrusion width = 0.42mm

; external perimeters extrusion width = 0.45mm
; perimeters extrusion width = 0.45mm
; infill extrusion width = 0.45mm
; solid infill extrusion width = 0.45mm
; top infill extrusion width = 0.40mm
; first layer extrusion width = 0.42mm

; external perimeters extrusion width = 0.45mm
; perimeters extrusion width = 0.45mm
; infill extrusion width = 0.45mm
; solid infill extrusion width = 0.45mm
; top infill extrusion width = 0.40mm
; first layer extrusion width = 0.42mm

; external perimeters extrusion width = 0.45mm
; perimeters extrusion width = 0.45mm
; infill extrusion width = 0.45mm
; solid infill extrusion width = 0.45mm
; top infill extrusion width = 0.40mm
; first layer extrusion width = 0.42mm

; external perimeters extrusion width = 0.45mm
; perimeters extrusion width = 0.45mm
; infill extrusion width = 0.45mm
; solid infill extrusion width = 0.45mm
; top infill extrusion width = 0.40mm
; first layer extrusion width = 0.42mm

; external perimeters extrusion width = 0.45mm
; perimeters extrusion width = 0.45mm
; infill extrusion width = 0.45mm
; solid infill extrusion width = 0.45mm
; top infill extrusion width = 0.40mm
; first layer extrusion width = 0.42mm

M73 P0 R26
M73 Q0 S26
M201 X1000 Y1000 Z200 E5000 ; sets maximum accelerations, mm/sec^2
M203 X200 Y200 Z12 E120 ; sets maximum feedrates, mm / sec
M204 P1250 R1250 T1250 ; sets acceleration (P, T) and retract acceleration (R), mm/sec^2
M205 X8.00 Y8.00 Z0.40 E4.50 ; sets the jerk limits, mm/sec
M205 S0 T0 ; sets the minimum extruding and travel feed rate, mm/sec
M107
;TYPE:Custom
M862.3 P "MK3S" ; printer model check
M862.1 P0.4 ; nozzle diameter check
M115 U3.11.0 ; tell printer latest fw version
G90 ; use absolute coordinates
M83 ; extruder relative mode
M104 S215 ; set extruder temp
M140 S60 ; set bed temp
M190 S60 ; wait for bed temp
M109 S215 ; wait for extruder temp
G28 W ; home all without mesh bed level
G80 ; mesh bed leveling

G1 Z0.2 F720
G1 Y-3 F1000 ; go outside print area
G92 E0
G1 X60 E9 F1000 ; intro line
G1 X100 E12.5 F1000 ; intro line

G92 E0
M221 S95

; Don't change E values below. Excessive value can damage the printer.
M907 E430 ; set extruder motor current
G21 ; set units to millimeters
G90 ; use absolute coordinates
M83 ; use relative distances for extrusion
M900 K0.05 ; Filament gcode LA 1.5
M900 K30 ; Filament gcode LA 1.0
M107
;LAYER_CHANGE
;Z:0.2
;HEIGHT:0.2
;BEFORE_LAYER_CHANGE
G92 E0.0
;0.2


G1 E-.8 F2100
G1 Z.4 F720
;AFTER_LAYER_CHANGE
;0.2
G1 X78.186 Y50.389 F10800
G1 Z.2 F720
G1 E.8 F2100
M204 S800
;TYPE:Skirt/Brim
;WIDTH:0.42
G1 F1200
G1 X79.107 Y49.24 E.04618
G1 X80.188 Y48.24 E.04617
G1 X81.476 Y47.373 E.04869
G1 X82.813 Y46.745 E.04632
G1 X84.326 Y46.302 E.04944
G1 X85.835 Y46.109 E.04769
G1 X103.932 Y45.639 E.5676
G1 X174.144 Y46.203 E2.20152
G1 X175.924 Y46.397 E.05615
G1 X177.63 Y46.906 E.0558
G1 X178.718 Y47.42 E.03774
G1 X179.691 Y48.031 E.03602
G1 X180.641 Y48.799 E.03831
G1 X181.508 Y49.702 E.03926
G1 X182.271 Y50.733 E.04021
G1 X182.852 Y51.768 E.0372
G1 X183.294 Y52.834 E.03618
G1 X183.609 Y53.944 E.03618
G1 X183.811 Y55.292 E.04274
G1 X185.142 Y73.27 E.56524
G1 X185.131 Y74.224 E.02989
G1 X185.001 Y75.332 E.035
G1 X184.777 Y76.313 E.03154
G1 X184.462 Y77.246 E.03088
G1 X183.769 Y78.663 E.04944
G1 X182.943 Y79.85 E.04537
G1 X181.873 Y80.976 E.04869
G1 X180.607 Y81.94 E.0499
G1 X132.145 Y111.198 E1.77493
G1 X130.925 Y111.826 E.04302
M73 P1 R26
M73 Q1 S26
G1 X129.909 Y112.197 E.0339
G1 X128.985 Y112.431 E.02989
G1 X127.933 Y112.586 E.03336
G1 X126.921 Y112.627 E.03174
G1 X107.084 Y112.111 E.6222
G1 X105.506 Y111.903 E.0499
G1 X103.982 Y111.444 E.0499
G1 X102.759 Y110.865 E.04244
G1 X101.595 Y110.102 E.04365
G1 X100.56 Y109.192 E.04321
G1 X99.691 Y108.186 E.04167
G1 X79.052 Y78.607 E1.13089
G1 X78.348 Y77.406 E.04365
G1 X77.692 Y75.698 E.05736
G1 X77.365 Y73.938 E.05615
G1 X76.456 Y56 E.56313
G1 X76.554 Y54.586 E.04444
G1 X76.893 Y53.069 E.04875
G1 X77.455 Y51.645 E.04798
G1 X78.156 Y50.441 E.04369
M204 S1000
; printing object M8 Washer 8 x 13 x1.7.stl id:7 copy 0
;WIPE_START
G1 F8640
G1 X79.107 Y49.24 E-.35376
G1 X80.188 Y48.24 E-.33998
G1 X80.426 Y48.08 E-.06626
;WIPE_END
G1 E-.04 F2100
G1 Z.6 F720
G1 X85.14 Y49.573 F10800
G1 Z.2 F720
G1 E.8 F2100
M204 S800
;TYPE:Perimeter
;WIDTH:0.419999
G1 F1200
G1 X85.734 Y49.491 E.0188
G1 X86.434 Y49.465 E.02194
G1 X87.083 Y49.506 E.02039
G1 X87.671 Y49.602 E.01869
G1 X88.252 Y49.753 E.01882
G1 X88.96 Y50.017 E.0237
G1 X89.515 Y50.295 E.01946
G1 X90 Y50.595 E.01789
G1 X90.634 Y51.093 E.02528
G1 X91.03 Y51.465 E.01704
G1 X91.43 Y51.925 E.01913
G1 X91.828 Y52.484 E.0215
G1 X92.15 Y53.05 E.0204
G1 X92.407 Y53.635 E.02004
G1 X92.586 Y54.161 E.01742
G1 X92.729 Y54.771 E.01965
G1 X92.825 Y55.494 E.02286
G1 X92.835 Y56.175 E.02136
G1 X92.785 Y56.839 E.02089
G1 X92.664 Y57.478 E.0204
G1 X92.52 Y57.998 E.01691
G1 X92.282 Y58.612 E.02066
G1 X92.044 Y59.097 E.01693
G1 X91.676 Y59.691 E.02192
G1 X91.215 Y60.274 E.02329
G1 X90.87 Y60.641 E.01579
G1 X90.405 Y61.05 E.01943
G1 X89.751 Y61.511 E.02508
G1 X89.293 Y61.771 E.01653
G1 X88.718 Y62.029 E.01974
G1 X88.181 Y62.215 E.01783
G1 X87.398 Y62.387 E.02514
G1 X86.85 Y62.462 E.01734
G1 X86.205 Y62.48 E.02022
G1 X85.448 Y62.414 E.02383
G1 X84.914 Y62.326 E.01696
G1 X84.284 Y62.15 E.02053
G1 X83.782 Y61.961 E.01681
G1 X83.105 Y61.626 E.02368
G1 X82.605 Y61.31 E.01855
G1 X82.078 Y60.897 E.02097
G1 X81.691 Y60.537 E.01658
G1 X81.226 Y60.002 E.02221
G1 X80.879 Y59.525 E.01852
G1 X80.52 Y58.897 E.02268
G1 X80.301 Y58.422 E.01639
G1 X80.089 Y57.806 E.02043
G1 X79.922 Y57.05 E.02427
G1 X79.847 Y56.527 E.01656
G1 X79.827 Y55.85 E.02125
G1 X79.891 Y55.1 E.02359
G1 X79.972 Y54.591 E.01617
G1 X80.153 Y53.935 E.02132
G1 X80.329 Y53.457 E.01599
G1 X80.625 Y52.851 E.02114
G1 X80.965 Y52.294 E.02044
G1 X81.34 Y51.796 E.01956
G1 X81.797 Y51.307 E.02101
G1 X82.186 Y50.955 E.01645
G1 X82.715 Y50.566 E.02057
G1 X83.385 Y50.172 E.02437
G1 X83.851 Y49.956 E.01611
G1 X84.565 Y49.708 E.02368
G1 X85.082 Y49.587 E.01666
M204 S1000
G1 X85.086 Y49.2 F10800
M204 S800
;TYPE:External perimeter
G1 F1200
G1 X85.718 Y49.114 E.01998
G1 X86.456 Y49.088 E.02315
G1 X87.141 Y49.134 E.02153
G1 X87.763 Y49.236 E.01978
G1 X88.381 Y49.399 E.02004
G1 X89.126 Y49.678 E.02492
G1 X89.711 Y49.973 E.02054
G1 X90.227 Y50.294 E.01907
G1 X90.891 Y50.816 E.02649
G1 X91.312 Y51.215 E.01818
G1 X91.736 Y51.705 E.02031
G1 X92.233 Y52.432 E.02763
G1 X92.493 Y52.894 E.01661
G1 X92.763 Y53.511 E.02113
G1 X92.952 Y54.071 E.01851
G1 X93.103 Y54.719 E.02087
G1 X93.202 Y55.481 E.02408
G1 X93.211 Y56.201 E.02258
G1 X93.156 Y56.904 E.02211
G1 X93.014 Y57.63 E.02321
G1 X92.873 Y58.13 E.01627
G1 X92.621 Y58.776 E.02175
G1 X92.366 Y59.294 E.01811
G1 X91.976 Y59.92 E.02313
G1 X91.492 Y60.531 E.02444
G1 X91.122 Y60.922 E.01688
G1 X90.626 Y61.356 E.02065
G1 X89.888 Y61.867 E.02814
G1 X89.45 Y62.114 E.01576
G1 X88.772 Y62.41 E.02319
G1 X88.273 Y62.581 E.01655
G1 X87.376 Y62.771 E.02875
G1 X86.865 Y62.839 E.01617
G1 X86.186 Y62.856 E.0213
G1 X85.39 Y62.787 E.02506
G1 X84.818 Y62.691 E.01819
G1 X84.101 Y62.484 E.02338
G1 X83.616 Y62.3 E.01627
G1 X82.905 Y61.946 E.02491
G1 X82.377 Y61.61 E.01963
G1 X81.781 Y61.135 E.02388
G1 X81.412 Y60.79 E.01584
G1 X80.923 Y60.226 E.02339
G1 X80.554 Y59.717 E.01973
G1 X80.178 Y59.056 E.02383
G1 X79.946 Y58.549 E.01747
G1 X79.723 Y57.9 E.02152
G1 X79.549 Y57.106 E.0255
G1 X79.47 Y56.544 E.01778
G1 X79.451 Y55.832 E.02233
G1 X79.518 Y55.044 E.02481
G1 X79.607 Y54.496 E.0174
G1 X79.799 Y53.808 E.02241
G1 X79.988 Y53.297 E.01708
G1 X80.301 Y52.658 E.02232
G1 X80.738 Y51.967 E.02563
G1 X81.061 Y51.543 E.01671
G1 X81.543 Y51.029 E.02209
G1 X81.958 Y50.655 E.01754
G1 X82.519 Y50.243 E.0218
G1 X83.223 Y49.831 E.0256
G1 X83.726 Y49.6 E.01734
G1 X84.476 Y49.342 E.0249
G1 X85.028 Y49.214 E.01775
M204 S1000
G1 X85.347 Y49.504 F10800
;WIPE_START
G1 F8640
G1 X85.718 Y49.114 E-.16097
G1 X86.456 Y49.088 E-.17047
G1 X87.141 Y49.134 E-.15859
G1 X87.763 Y49.236 E-.14564
G1 X88.284 Y49.373 E-.12432
;WIPE_END
G1 E-.04 F2100
G1 Z.6 F720
G1 X91.059 Y54.6 F10800
G1 Z.2 F720
G1 E.8 F2100
M204 S800
;TYPE:Perimeter
G1 F1200
G1 X91.163 Y54.965 E.01191
G1 X91.267 Y55.912 E.02984
G1 X91.203 Y56.615 E.02214
G1 X91.141 Y57.089 E.015
G1 X90.911 Y57.816 E.02389
G1 X90.661 Y58.316 E.01752
G1 X90.411 Y58.746 E.0156
G1 X90.108 Y59.154 E.01594
G1 X89.543 Y59.722 E.02512
G1 X89.017 Y60.116 E.02061
G1 X88.267 Y60.514 E.02661
G1 X87.761 Y60.672 E.01662
G1 X87.251 Y60.821 E.01668
G1 X86.749 Y60.876 E.01583
G1 X86.297 Y60.909 E.01421
G1 X85.741 Y60.873 E.01744
G1 X84.897 Y60.695 E.02705
G1 X84.098 Y60.373 E.02702
G1 X83.123 Y59.722 E.03676
G1 X82.584 Y59.183 E.0239
G1 X81.943 Y58.231 E.03598
G1 X81.641 Y57.504 E.02469
G1 X81.504 Y56.969 E.0173
G1 X81.433 Y56.421 E.01733
G1 X81.397 Y55.936 E.01524
G1 X81.433 Y55.381 E.01744
G1 X81.611 Y54.537 E.02705
G1 X81.933 Y53.738 E.02702
G1 X82.254 Y53.196 E.01975
G1 X82.809 Y52.518 E.02745
G1 X83.462 Y51.959 E.02698
G1 X84.007 Y51.62 E.02012
G1 X84.801 Y51.282 E.02705
G1 X85.426 Y51.134 E.02013
G1 X85.786 Y51.073 E.01146
G1 X86.702 Y51.053 E.02871
G1 X87.339 Y51.154 E.02022
G1 X87.693 Y51.232 E.01139
G1 X88.557 Y51.568 E.02905
G1 X89.51 Y52.194 E.03574
G1 X90.145 Y52.839 E.02839
G1 X90.582 Y53.463 E.0239
G1 X90.879 Y54.05 E.02061
G1 X91.041 Y54.543 E.01627
M204 S1000
G1 X90.663 Y54.597 F10800
M204 S800
;TYPE:External perimeter
G1 F1200
G1 X90.789 Y55.007 E.01342
G1 X90.892 Y55.953 E.02984
G1 X90.781 Y56.976 E.03227
G1 X90.552 Y57.703 E.02389
G1 X90.187 Y58.409 E.02493
G1 X89.834 Y58.894 E.01881
G1 X89.276 Y59.455 E.02481
G1 X88.794 Y59.812 E.01881
G1 X88.093 Y60.179 E.02481
G1 X87.158 Y60.455 E.03055
G1 X86.349 Y60.532 E.02548
G1 X85.766 Y60.497 E.01834
G1 X84.978 Y60.326 E.02526
G1 X84.242 Y60.025 E.02494
G1 X83.39 Y59.455 E.03214
G1 X82.851 Y58.916 E.0239
G1 X82.281 Y58.064 E.03214
G1 X81.99 Y57.359 E.0239
G1 X81.845 Y56.777 E.01881
G1 X81.774 Y55.989 E.02481
G1 X81.809 Y55.405 E.01834
G1 X81.98 Y54.618 E.02526
G1 X82.281 Y53.882 E.02494
G1 X82.577 Y53.391 E.01795
G1 X83.098 Y52.761 E.02565
G1 X83.705 Y52.247 E.02493
G1 X84.203 Y51.942 E.01834
G1 X84.946 Y51.63 E.02526
G1 X85.795 Y51.45 E.0272
G1 X86.71 Y51.43 E.02871
G1 X87.557 Y51.584 E.02698
G1 X88.42 Y51.92 E.02905
G1 X89.276 Y52.491 E.03227
G1 X89.815 Y53.03 E.02389
G1 X90.183 Y53.55 E.01999
G1 X90.541 Y54.216 E.02371
G1 X90.645 Y54.54 E.01066
M204 S1000
G1 X91.056 Y54.67 F10800
;WIPE_START
G1 F8640
G1 X90.789 Y55.007 E-.11268
G1 X90.892 Y55.953 E-.21978
G1 X90.781 Y56.976 E-.23764
G1 X90.552 Y57.703 E-.17595
G1 X90.524 Y57.756 E-.01395
;WIPE_END
G1 E-.04 F2100
G1 Z.6 F720
G1 X91.76 Y52.593 F10800
G1 Z.2 F720
G1 E.8 F2100
M204 S800
;TYPE:Solid infill
;WIDTH:0.420378
G1 F1200
G1 X90.801 Y51.634 E.04259
G1 X90.344 Y51.209 E.01959
G1 X89.809 Y50.805 E.02103
G1 X89.322 Y50.509 E.01788
G1 X88.97 Y50.337 E.0123
G1 X91.969 Y53.335 E.13309
G1 X92.118 Y53.664 E.01134
G1 X92.306 Y54.206 E.01799
G1 X88.102 Y50.003 E.18657
G1 X87.41 Y49.844 E.0223
G1 X92.66 Y55.094 E.23302
M204 S1000
;WIPE_START
G1 F8640
G1 X90.332 Y52.766 E-.76
;WIPE_END
G1 E-.04 F2100
G1 Z.6 F720
G1 X90.921 Y53.889 F10800
G1 Z.2 F720
G1 E.8 F2100
M204 S800
G1 F1200
G1 X92.543 Y55.511 E.07197
G1 X92.561 Y56.04 E.01662
M73 P2 R26
M73 Q2 S26
G1 X92.56 Y56.061 E.00068
G1 X91.438 Y54.94 E.04977
G1 X91.503 Y55.538 E.01888
G1 X92.525 Y56.56 E.04538
G1 X92.511 Y56.764 E.00641
G1 X92.464 Y57.033 E.00857
G1 X91.541 Y56.11 E.04096
G1 X91.487 Y56.59 E.01516
G1 X92.372 Y57.475 E.03928
G1 X92.257 Y57.894 E.01363
G1 X91.433 Y57.07 E.03656
G1 X91.309 Y57.48 E.01344
G1 X92.112 Y58.283 E.03564
G1 X91.948 Y58.653 E.0127
G1 X91.18 Y57.885 E.0341
G1 X91.143 Y58.001 E.00383
G1 X91.011 Y58.249 E.00883
G1 X91.768 Y59.006 E.03361
G1 X91.565 Y59.337 E.01219
G1 X90.826 Y58.598 E.03284
G1 X90.708 Y58.818 E.00785
G1 X90.625 Y58.931 E.00439
G1 X91.348 Y59.654 E.03211
G1 X91.117 Y59.957 E.01195
G1 X90.398 Y59.238 E.03194
G1 X90.145 Y59.518 E.01186
G1 X90.864 Y60.237 E.03192
G1 X90.699 Y60.415 E.0076
G1 X90.598 Y60.506 E.00426
G1 X89.878 Y59.786 E.03195
G1 X89.738 Y59.927 E.00624
G1 X89.594 Y60.035 E.00567
G1 X90.317 Y60.758 E.03209
G1 X90.276 Y60.794 E.00171
G1 X90.011 Y60.986 E.01026
G1 X89.288 Y60.263 E.03208
G1 X89.14 Y60.374 E.00581
G1 X88.959 Y60.468 E.0064
G1 X89.702 Y61.21 E.03296
G1 X89.365 Y61.407 E.01225
G1 X88.608 Y60.65 E.0336
G1 X88.246 Y60.823 E.01256
G1 X89.013 Y61.589 E.03401
G1 X88.645 Y61.755 E.01266
G1 X87.832 Y60.942 E.0361
G1 X87.417 Y61.061 E.01355
G1 X88.25 Y61.894 E.03701
G1 X87.834 Y62.011 E.01359
G1 X86.961 Y61.139 E.03872
G1 X86.469 Y61.18 E.01552
G1 X87.391 Y62.102 E.04093
G1 X86.924 Y62.17 E.01479
G1 X85.921 Y61.166 E.04455
G1 X85.648 Y61.147 E.00859
G1 X85.29 Y61.069 E.01149
G1 X86.417 Y62.196 E.05003
G1 X86.297 Y62.201 E.00377
G1 X85.866 Y62.179 E.01355
G1 X84.237 Y60.55 E.0723
M204 S1000
;WIPE_START
G1 F8640
G1 X85.866 Y62.179 E-.53194
G1 X86.297 Y62.201 E-.09972
G1 X86.417 Y62.196 E-.02774
G1 X86.109 Y61.888 E-.1006
;WIPE_END
G1 E-.04 F2100
G1 Z.6 F720
G1 X88.435 Y51.403 F10800
G1 Z.2 F720
G1 E.8 F2100
M204 S800
G1 F1200
G1 X86.802 Y49.77 E.07251
G1 X86.422 Y49.747 E.01195
G1 X86.252 Y49.754 E.00532
G1 X87.372 Y50.874 E.04971
G1 X86.854 Y50.781 E.01653
G1 X86.745 Y50.78 E.00343
G1 X85.739 Y49.774 E.04465
G1 X85.721 Y49.775 E.00055
G1 X85.271 Y49.84 E.01428
G1 X86.213 Y50.782 E.0418
G1 X85.694 Y50.797 E.01628
G1 X84.832 Y49.935 E.03827
G1 X84.418 Y50.055 E.01351
G1 X85.252 Y50.889 E.03702
G1 X84.819 Y50.99 E.01396
G1 X84.024 Y50.195 E.0353
G1 X83.653 Y50.358 E.01271
G1 X84.427 Y51.131 E.03434
G1 X84.051 Y51.289 E.01281
G1 X83.301 Y50.54 E.03326
G1 X82.969 Y50.742 E.01219
G1 X83.704 Y51.476 E.03259
G1 X83.371 Y51.677 E.0122
G1 X82.651 Y50.957 E.03198
G1 X82.348 Y51.187 E.01196
G1 X83.08 Y51.919 E.03249
G1 X82.788 Y52.161 E.0119
G1 X82.068 Y51.442 E.03194
