; generated by PrusaSlicer 2.5.0+win64 on 2023-01-20 at 13:59:18 UTC


;
;
; 

; external perimeters extrusion width = 0.45mm
; perimeters extrusion width = 0.45mm
; infill extrusion width = 0.45mm
; solid infill extrusion width = 0.45mm
; top infill extrusion width = 0.40mm
; first layer extrusion width = 0.42mm

; external perimeters extrusion width = 0.45mm
; perimeters extrusion width = 0.45mm
; infill extrusion width = 0.45mm
; solid infill extrusion width = 0.45mm
; top infill extrusion width = 0.40mm
; first layer extrusion width = 0.42mm

; external perimeters extrusion width = 0.45mm
; perimeters extrusion width = 0.45mm
; infill extrusion width = 0.45mm
; solid infill extrusion width = 0.45mm
; top infill extrusion width = 0.40mm
; first layer extrusion width = 0.42mm

; external perimeters extrusion width = 0.45mm
; perimeters extrusion width = 0.45mm
; infill extrusion width = 0.45mm
; solid infill extrusion width = 0.45mm
; top infill extrusion width = 0.40mm
; first layer extrusion width = 0.42mm

M73 P0 R5
M73 Q0 S5
M201 X1000 Y1000 Z200 E5000 ; sets maximum accelerations, mm/sec^2
M203 X200 Y200 Z12 E120 ; sets maximum feedrates, mm / sec
M204 P1250 R1250 T1250 ; sets acceleration (P, T) and retract acceleration (R), mm/sec^2
M205 X8.00 Y8.00 Z0.40 E4.50 ; sets the jerk limits, mm/sec
M205 S0 T0 ; sets the minimum extruding and travel feed rate, mm/sec
M107
;TYPE:Custom
M862.3 P "MK3S" ; printer model check
M862.1 P0.4 ; nozzle diameter check
M115 U3.11.0 ; tell printer latest fw version
G90 ; use absolute coordinates
M83 ; extruder relative mode
M104 S215 ; set extruder temp
M140 S60 ; set bed temp
M190 S60 ; wait for bed temp
M109 S215 ; wait for extruder temp
G28 W ; home all without mesh bed level
G80 ; mesh bed leveling

G1 Z0.2 F720
G1 Y-3 F1000 ; go outside print area
G92 E0
G1 X60 E9 F1000 ; intro line
G1 X100 E12.5 F1000 ; intro line

G92 E0
M221 S95

; Don't change E values below. Excessive value can damage the printer.
M907 E430 ; set extruder motor current
G21 ; set units to millimeters
G90 ; use absolute coordinates
M83 ; use relative distances for extrusion
M900 K0.05 ; Filament gcode LA 1.5
M900 K30 ; Filament gcode LA 1.0
M107
;LAYER_CHANGE
;Z:0.2
;HEIGHT:0.2
;BEFORE_LAYER_CHANGE
G92 E0.0
;0.2


M73 P1 R5
M73 Q1 S5
G1 E-.8 F2100
G1 Z.4 F720
;AFTER_LAYER_CHANGE
;0.2
G1 X102.264 Y80.814 F10800
G1 Z.2 F720
M73 P2 R5
M73 Q2 S5
G1 E.8 F2100
M204 S800
;TYPE:Skirt/Brim
;WIDTH:0.42
G1 F1200
G1 X102.975 Y79.914 E.03598
G1 X104.16 Y78.833 E.05029
G1 X105.505 Y77.958 E.05029
G1 X107.014 Y77.298 E.05163
G1 X108.556 Y76.908 E.0499
G1 X110.189 Y76.77 E.05138
G1 X129.629 Y78.344 E.61152
G1 X130.998 Y78.561 E.04347
G1 X132.037 Y78.862 E.03391
G1 X132.922 Y79.22 E.02995
G1 X133.875 Y79.726 E.03381
G1 X134.64 Y80.238 E.02886
G1 X136.105 Y81.565 E.062
G1 X137.244 Y83.102 E.05997
G1 X137.859 Y84.308 E.04244
G1 X138.303 Y85.586 E.04244
G1 X138.574 Y86.952 E.04365
G1 X138.65 Y88.303 E.04244
G1 X136.945 Y106.683 E.57876
G1 X136.722 Y107.744 E.034
M73 P3 R5
M73 Q3 S5
G1 X136.383 Y108.777 E.03406
G1 X135.968 Y109.698 E.03168
G1 X135.397 Y110.669 E.03533
G1 X134.726 Y111.56 E.03497
G1 X133.959 Y112.37 E.03497
G1 X133.122 Y113.075 E.03432
G1 X132.293 Y113.636 E.03138
G1 X131.296 Y114.164 E.03537
G1 X130.245 Y114.574 E.03538
G1 X129.179 Y114.857 E.03456
G1 X128.089 Y115.019 E.03457
G1 X109.77 Y115.947 E.57513
G1 X108.6 Y115.927 E.03667
G1 X107.372 Y115.755 E.03888
G1 X106.196 Y115.438 E.03818
G1 X105.13 Y115.008 E.03604
G1 X104.118 Y114.455 E.03618
G1 X103.177 Y113.787 E.03618
G1 X102.329 Y113.024 E.03574
G1 X101.507 Y112.08 E.03924
G1 X100.841 Y111.091 E.03739
G1 X100.232 Y109.871 E.04277
G1 X99.813 Y108.64 E.04075
G1 X99.56 Y107.37 E.04059
G1 X99.475 Y106.106 E.03973
G1 X100.336 Y86.17 E.62567
G1 X100.448 Y85.089 E.03405
M73 P4 R5
M73 Q4 S5
G1 X100.663 Y84.085 E.03219
G1 X101.203 Y82.575 E.05029
G1 X101.981 Y81.172 E.05029
G1 X102.226 Y80.861 E.01243
M204 S1000
; printing object M6 washer  6x15 x 1.stl id:2 copy 0
;WIPE_START
G1 F8640
G1 X102.975 Y79.914 E-.27879
G1 X104.16 Y78.833 E-.37039
G1 X104.563 Y78.571 E-.11083
;WIPE_END
G1 E-.04 F2100
G1 Z.6 F720
G1 X104.022 Y89.128 F10800
G1 Z.2 F720
G1 E.8 F2100
M204 S800
;TYPE:Perimeter
;WIDTH:0.419999
G1 F1200
G1 X103.803 Y88.476 E.02157
G1 X103.642 Y87.793 E.022
G1 X103.564 Y87.169 E.01972
G1 X103.543 Y86.584 E.01835
G1 X103.598 Y85.841 E.02337
G1 X103.701 Y85.205 E.02019
G1 X103.886 Y84.544 E.02152
G1 X104.07 Y84.049 E.01654
G1 X104.427 Y83.341 E.02487
G1 X104.704 Y82.894 E.01651
G1 X105.204 Y82.252 E.0255
G1 X105.555 Y81.879 E.01607
G1 X106.164 Y81.357 E.02515
G1 X106.588 Y81.059 E.01625
G1 X107.301 Y80.661 E.02559
G1 X107.779 Y80.447 E.01641
G1 X108.559 Y80.203 E.02564
G1 X109.069 Y80.087 E.01641
G1 X109.616 Y80.014 E.01729
G1 X110.327 Y79.992 E.02231
G1 X110.998 Y80.036 E.0211
G1 X111.597 Y80.136 E.01902
G1 X112.253 Y80.314 E.02132
G1 X112.915 Y80.568 E.02224
G1 X113.595 Y80.917 E.02396
G1 X114.099 Y81.247 E.01887
G1 X114.578 Y81.628 E.01921
G1 X115.021 Y82.052 E.01922
G1 X115.467 Y82.574 E.02154
G1 X115.782 Y83.013 E.01693
G1 X116.17 Y83.707 E.02492
G1 X116.412 Y84.245 E.01849
G1 X116.637 Y84.952 E.02327
G1 X116.755 Y85.47 E.01666
G1 X116.844 Y86.182 E.0225
G1 X116.859 Y86.786 E.01896
G1 X116.785 Y87.595 E.02548
G1 X116.685 Y88.164 E.01809
G1 X116.523 Y88.742 E.01885
G1 X116.3 Y89.318 E.01937
G1 X115.95 Y90.007 E.02421
G1 X115.624 Y90.513 E.01888
G1 X115.246 Y90.994 E.0192
G1 X114.82 Y91.442 E.01936
G1 X114.235 Y91.945 E.02421
G1 X113.74 Y92.288 E.01887
G1 X113.201 Y92.592 E.0194
G1 X112.647 Y92.841 E.01903
G1 X111.975 Y93.063 E.02221
G1 X111.46 Y93.184 E.01657
G1 X110.649 Y93.289 E.02564
G1 X110.096 Y93.304 E.01736
G1 X109.326 Y93.248 E.02422
G1 X108.733 Y93.142 E.01887
G1 X108.143 Y92.98 E.01921
G1 X107.569 Y92.763 E.01923
G1 X107.018 Y92.496 E.01921
G1 X106.493 Y92.178 E.01922
G1 X105.799 Y91.632 E.02769
G1 X105.428 Y91.289 E.01586
G1 X105.027 Y90.838 E.01893
G1 X104.663 Y90.342 E.01929
G1 X104.272 Y89.676 E.02422
G1 X104.047 Y89.183 E.01699
M204 S1000
G1 X103.667 Y89.256 F10800
M204 S800
;TYPE:External perimeter
G1 F1200
M73 Q5 S5
G1 X103.386 Y88.36 E.02942
G1 X103.269 Y87.845 E.01657
G1 X103.187 Y87.186 E.02081
G1 X103.166 Y86.567 E.01944
G1 X103.225 Y85.784 E.02459
G1 X103.336 Y85.11 E.02142
G1 X103.531 Y84.416 E.02261
G1 X103.728 Y83.89 E.01763
M73 P5 R5
G1 X104.102 Y83.149 E.02601
G1 X104.401 Y82.67 E.01772
G1 X104.924 Y81.998 E.02669
G1 X105.3 Y81.601 E.01716
G1 X105.936 Y81.057 E.02624
G1 X106.39 Y80.738 E.01739
G1 X107.136 Y80.322 E.0268
G1 X107.649 Y80.093 E.0176
G1 X108.467 Y79.837 E.02686
G1 X109.015 Y79.714 E.01763
G1 X109.834 Y79.626 E.02583
G1 X110.348 Y79.615 E.0161
G1 X111.057 Y79.663 E.02228
G1 X111.691 Y79.771 E.02016
G1 X112.593 Y80.037 E.02948
G1 X113.085 Y80.231 E.01659
G1 X113.911 Y80.672 E.02937
G1 X114.33 Y80.949 E.01576
G1 X114.836 Y81.353 E.0203
G1 X115.304 Y81.802 E.02031
G1 X115.771 Y82.351 E.02263
G1 X116.106 Y82.821 E.01807
G1 X116.512 Y83.548 E.02613
G1 X116.768 Y84.121 E.01967
G1 X117.003 Y84.863 E.02441
G1 X117.128 Y85.419 E.01787
G1 X117.221 Y86.169 E.02368
G1 X117.236 Y86.808 E.02005
G1 X117.157 Y87.656 E.0267
G1 X117.049 Y88.262 E.01931
G1 X116.826 Y89.008 E.0244
G1 X116.638 Y89.486 E.01612
G1 X116.21 Y90.302 E.0289
G1 X115.923 Y90.743 E.01648
G1 X115.522 Y91.251 E.02029
G1 X115.069 Y91.726 E.02059
G1 X114.452 Y92.253 E.02544
G1 X113.928 Y92.615 E.01996
G1 X113.359 Y92.935 E.02049
G1 X112.773 Y93.196 E.02011
G1 X112.067 Y93.428 E.0233
G1 X111.515 Y93.557 E.01779
G1 X110.665 Y93.666 E.02686
G1 X110.072 Y93.68 E.01858
G1 X109.263 Y93.62 E.02544
G1 X108.637 Y93.507 E.01995
G1 X107.901 Y93.293 E.02403
G1 X107.407 Y93.104 E.01657
G1 X106.826 Y92.82 E.02029
G1 X106.272 Y92.483 E.02031
G1 X105.548 Y91.913 E.02892
G1 X105.148 Y91.542 E.01708
G1 X104.725 Y91.064 E.02001
G1 X104.34 Y90.536 E.02051
G1 X103.93 Y89.835 E.02544
G1 X103.692 Y89.31 E.01807
M204 S1000
G1 X103.92 Y88.945 F10800
;WIPE_START
G1 F8640
G1 X103.386 Y88.36 E-.23045
G1 X103.269 Y87.845 E-.12206
G1 X103.187 Y87.186 E-.15323
G1 X103.166 Y86.567 E-.14316
G1 X103.202 Y86.087 E-.1111
;WIPE_END
G1 E-.04 F2100
G1 Z.6 F720
G1 X106.856 Y84.583 F10800
G1 Z.2 F720
G1 E.8 F2100
M204 S800
;TYPE:Perimeter
G1 F1200
G1 X107.295 Y83.995 E.023
G1 X107.976 Y83.402 E.0283
G1 X108.565 Y83.069 E.02122
G1 X109.312 Y82.814 E.02476
G1 X110.172 Y82.712 E.02715
G1 X110.702 Y82.743 E.01664
G1 X111.445 Y82.915 E.02394
G1 X112.177 Y83.244 E.02515
G1 X112.817 Y83.707 E.02476
G1 X113.302 Y84.233 E.02243
G1 X113.694 Y84.855 E.02306
G1 X113.827 Y85.131 E.0096
G1 X114.023 Y85.709 E.01915
G1 X114.122 Y86.4 E.0219
G1 X114.112 Y87.097 E.02185
G1 X113.946 Y87.856 E.02434
G1 X113.629 Y88.579 E.02476
G1 X113.174 Y89.225 E.02476
G1 X112.599 Y89.767 E.02476
G1 X111.933 Y90.179 E.02457
M73 Q6 S5
G1 X111.278 Y90.424 E.02195
G1 X110.459 Y90.569 E.02608
G1 X109.64 Y90.541 E.02569
G1 X109.028 Y90.404 E.01964
G1 X108.313 Y90.098 E.0244
G1 X107.699 Y89.678 E.02333
M73 P6 R5
G1 X107.114 Y89.085 E.0261
G1 X106.688 Y88.418 E.02483
G1 X106.429 Y87.747 E.02254
G1 X106.279 Y86.928 E.02609
G1 X106.297 Y86.24 E.02159
G1 X106.349 Y85.888 E.01118
G1 X106.489 Y85.344 E.01759
G1 X106.828 Y84.636 E.02462
M204 S1000
G1 X107.183 Y84.762 F10800
M204 S800
;TYPE:External perimeter
G1 F1200
G1 X107.594 Y84.224 E.02122
G1 X108.131 Y83.752 E.0224
G1 X108.75 Y83.397 E.0224
G1 X109.429 Y83.173 E.0224
G1 X110.117 Y83.089 E.02174
G1 X110.677 Y83.119 E.01759
G1 X111.356 Y83.281 E.02189
G1 X112.016 Y83.585 E.02279
G1 X112.591 Y84.009 E.0224
G1 X113.02 Y84.484 E.02007
G1 X113.369 Y85.045 E.02069
G1 X113.622 Y85.701 E.02207
G1 X113.748 Y86.448 E.02374
G1 X113.735 Y87.079 E.01978
G1 X113.579 Y87.771 E.02226
G1 X113.286 Y88.423 E.0224
G1 X112.869 Y89.003 E.0224
G1 X112.345 Y89.488 E.0224
G1 X111.739 Y89.856 E.02221
G1 X111.152 Y90.069 E.01958
G1 X110.407 Y90.196 E.02371
G1 X109.642 Y90.162 E.02398
G1 X109.116 Y90.037 E.01696
G1 X108.464 Y89.753 E.02229
G1 X107.916 Y89.37 E.02097
G1 X107.389 Y88.827 E.02374
G1 X107.009 Y88.22 E.02247
G1 X106.783 Y87.617 E.02018
G1 X106.652 Y86.872 E.02372
G1 X106.674 Y86.259 E.01922
G1 X106.833 Y85.52 E.0237
G1 X107.156 Y84.815 E.02432
M204 S1000
G1 X106.99 Y84.411 F10800
;WIPE_START
G1 F8640
G1 X107.594 Y84.224 E-.1699
G1 X108.131 Y83.752 E-.16496
G1 X108.75 Y83.397 E-.16496
G1 X109.429 Y83.173 E-.16496
G1 X109.838 Y83.123 E-.09522
;WIPE_END
G1 E-.04 F2100
G1 Z.6 F720
G1 X113.665 Y81.097 F10800
G1 Z.2 F720
G1 E.8 F2100
M204 S800
;TYPE:Solid infill
;WIDTH:0.429212
G1 F1200
G1 X114.826 Y82.257 E.05271
G1 X115.166 Y82.641 E.01647
G1 X115.512 Y83.113 E.01879
G1 X115.837 Y83.659 E.02042
G1 X115.971 Y83.949 E.01025
G1 X112.897 Y80.875 E.13964
G1 X112.734 Y80.793 E.00585
G1 X112.01 Y80.534 E.0247
G1 X116.32 Y84.844 E.19577
G1 X116.48 Y85.551 E.02328
G1 X111.298 Y80.369 E.23538
G1 X110.901 Y80.307 E.01292
M73 Q7 S5
G1 X110.678 Y80.294 E.00719
G1 X116.561 Y86.178 E.26726
G1 X116.579 Y86.742 E.01812
M73 P7 R5
G1 X110.115 Y80.278 E.29361
G1 X109.589 Y80.299 E.01691
G1 X116.549 Y87.258 E.31615
G1 X116.476 Y87.732 E.0154
G1 X114.249 Y85.504 E.10119
G1 X114.313 Y85.692 E.00636
G1 X114.375 Y86.177 E.0157
G1 X116.386 Y88.188 E.09135
G1 X116.268 Y88.616 E.01427
G1 X114.408 Y86.757 E.08446
G1 X114.37 Y87.265 E.01637
G1 X116.119 Y89.014 E.07946
G1 X115.949 Y89.39 E.01325
G1 X114.266 Y87.707 E.07645
G1 X114.191 Y88.023 E.01044
G1 X114.142 Y88.13 E.00377
G1 X115.768 Y89.755 E.07383
G1 X115.561 Y90.094 E.01276
G1 X113.971 Y88.505 E.0722
G1 X113.856 Y88.758 E.00894
G1 X113.781 Y88.861 E.00408
G1 X115.339 Y90.419 E.07077
G1 X115.101 Y90.728 E.01251
G1 X113.551 Y89.178 E.07042
G1 X113.317 Y89.489 E.01253
G1 X114.842 Y91.014 E.06926
G1 X114.568 Y91.287 E.01241
G1 X113.031 Y89.749 E.06984
G1 X112.744 Y90.009 E.01242
G1 X114.277 Y91.542 E.06962
G1 X113.973 Y91.784 E.01249
M73 Q8 S5
G1 X112.409 Y90.22 E.07104
G1 X112.067 Y90.424 E.0128
G1 X113.653 Y92.011 E.07205
G1 X113.307 Y92.211 E.01283
M73 P8 R5
G1 X111.676 Y90.58 E.0741
G1 X111.272 Y90.723 E.01375
G1 X112.947 Y92.398 E.07608
G1 X112.6 Y92.557 E.01227
G1 X112.571 Y92.568 E.00099
G1 X110.806 Y90.802 E.0802
G1 X110.319 Y90.862 E.01576
G1 X112.167 Y92.71 E.08398
G1 X111.741 Y92.83 E.01423
G1 X109.737 Y90.826 E.09104
G1 X109.534 Y90.814 E.00652
G1 X109.063 Y90.698 E.01559
G1 X111.438 Y93.073 E.10788
M204 S1000
;WIPE_START
G1 F8640
G1 X109.11 Y90.746 E-.76
;WIPE_END
G1 E-.04 F2100
G1 Z.6 F720
G1 X111.59 Y82.846 F10800
G1 Z.2 F720
G1 E.8 F2100
M204 S800
G1 F1200
G1 X109.111 Y80.366 E.11264
G1 X108.665 Y80.467 E.01467
G1 X110.659 Y82.461 E.09055
G1 X110.082 Y82.431 E.01854
G1 X108.233 Y80.582 E.08398
G1 X107.834 Y80.728 E.01368
G1 X109.595 Y82.49 E.08003
G1 X109.281 Y82.528 E.01016
G1 X109.136 Y82.577 E.00493
G1 X107.458 Y80.899 E.07621
G1 X107.092 Y81.08 E.0131
G1 X108.726 Y82.713 E.07419
G1 X108.476 Y82.796 E.00846
G1 X108.34 Y82.874 E.00501
G1 X106.755 Y81.288 E.07202
G1 X106.577 Y81.398 E.00673
G1 X106.43 Y81.51 E.00592
G1 X107.993 Y83.073 E.07101
G1 X107.743 Y83.217 E.00928
G1 X107.662 Y83.288 E.00345
G1 X106.111 Y81.753 E.0701
G1 X105.834 Y82.007 E.01206
G1 X107.371 Y83.544 E.06982
G1 X107.087 Y83.806 E.01242
M73 Q9 S5
G1 X105.561 Y82.279 E.06934
G1 X105.301 Y82.566 E.01242
G1 X106.851 Y84.116 E.07042
G1 X106.615 Y84.426 E.01252
M73 P9 R5
G1 X105.067 Y82.878 E.07031
G1 X104.84 Y83.198 E.01258
G1 X106.434 Y84.792 E.0724
G1 X106.256 Y85.16 E.01314
G1 X104.637 Y83.541 E.07353
G1 X104.451 Y83.901 E.01302
G1 X106.138 Y85.588 E.07662
G1 X106.028 Y86.025 E.01446
G1 X104.282 Y84.278 E.07933
G1 X104.137 Y84.68 E.01372
G1 X106.002 Y86.545 E.0847
G1 X105.986 Y86.856 E.00999
G1 X106.025 Y87.115 E.00841
G1 X104.018 Y85.107 E.09118
G1 X103.926 Y85.561 E.01488
G1 X106.43 Y88.065 E.11374
M204 S1000
;WIPE_START
G1 F8640
G1 X104.102 Y85.738 E-.76
;WIPE_END
G1 E-.04 F2100
G1 Z.6 F720
G1 X103.705 Y85.887 F10800
G1 Z.2 F720
G1 E.8 F2100
M204 S800
G1 F1200
G1 X110.811 Y92.993 E.32278
G1 X110.292 Y93.02 E.01668
G1 X103.827 Y86.555 E.29368
G1 X103.845 Y87.119 E.01812
G1 X109.723 Y92.997 E.267
G1 X109.428 Y92.978 E.00948
M73 Q10 S5
G1 X109.103 Y92.923 E.01059
G1 X103.921 Y87.741 E.2354
G1 X104.089 Y88.456 E.0236
M73 P10 R5
G1 X108.392 Y92.759 E.19546
G1 X107.735 Y92.529 E.02236
M73 P10 R4
G1 X107.509 Y92.422 E.00806
G1 X104.427 Y89.34 E.13999
G1 X104.551 Y89.607 E.00945
G1 X104.934 Y90.244 E.02389
G1 X105.284 Y90.709 E.01869
G1 X105.616 Y91.075 E.01586
G1 X106.74 Y92.199 E.05106
M204 S1000
; stop printing object M6 washer  6x15 x 1.stl id:2 copy 0
; printing object M6 washer  6x15 x 1.stl id:3 copy 0
;WIPE_START
G1 F8640
G1 X105.616 Y91.075 E-.36704
G1 X105.284 Y90.709 E-.11404
G1 X104.934 Y90.244 E-.13438
G1 X104.612 Y89.707 E-.14454
;WIPE_END
G1 E-.04 F2100
G1 Z.6 F720
G1 X122.594 Y90.665 F10800
M73 Q10 S4
G1 Z.2 F720
G1 E.8 F2100
M204 S800
;TYPE:Perimeter
;WIDTH:0.419999
G1 F1200
G1 X122.375 Y90.013 E.02157
G1 X122.215 Y89.33 E.022
G1 X122.136 Y88.706 E.01972
G1 X122.115 Y88.121 E.01835
G1 X122.17 Y87.378 E.02337
G1 X122.273 Y86.742 E.02019
G1 X122.458 Y86.081 E.02152
G1 X122.642 Y85.587 E.01654
G1 X122.999 Y84.878 E.02487
G1 X123.277 Y84.431 E.01651
G1 X123.776 Y83.789 E.0255
G1 X124.128 Y83.416 E.01607
G1 X124.737 Y82.894 E.02515
G1 X125.161 Y82.596 E.01625
G1 X125.873 Y82.198 E.02559
G1 X126.351 Y81.984 E.01641
G1 X127.131 Y81.74 E.02564
G1 X127.642 Y81.624 E.01641
G1 X128.188 Y81.551 E.01729
G1 X128.899 Y81.529 E.02231
G1 X129.571 Y81.573 E.0211
G1 X130.169 Y81.673 E.01902
G1 X130.826 Y81.851 E.02132
G1 X131.488 Y82.105 E.02224
G1 X132.167 Y82.455 E.02396
G1 X132.671 Y82.784 E.01887
G1 X133.151 Y83.165 E.01921
G1 X133.594 Y83.589 E.01922
G1 X134.04 Y84.111 E.02154
G1 X134.354 Y84.55 E.01693
G1 X134.743 Y85.244 E.02492
G1 X134.984 Y85.782 E.01849
G1 X135.209 Y86.489 E.02327
G1 X135.327 Y87.007 E.01666
G1 X135.417 Y87.719 E.0225
G1 X135.432 Y88.323 E.01896
G1 X135.357 Y89.133 E.02548
G1 X135.258 Y89.701 E.01809
G1 X135.095 Y90.279 E.01885
G1 X134.872 Y90.856 E.01937
G1 X134.523 Y91.544 E.02421
G1 X134.196 Y92.05 E.01888
G1 X133.818 Y92.532 E.0192
G1 X133.393 Y92.979 E.01936
