; generated by PrusaSlicer 2.5.0+win64 on 2023-01-20 at 10:27:07 UTC


;
;
; 

; external perimeters extrusion width = 0.45mm
; perimeters extrusion width = 0.45mm
; infill extrusion width = 0.45mm
; solid infill extrusion width = 0.45mm
; top infill extrusion width = 0.40mm
; first layer extrusion width = 0.42mm

; external perimeters extrusion width = 0.45mm
; perimeters extrusion width = 0.45mm
; infill extrusion width = 0.45mm
; solid infill extrusion width = 0.45mm
; top infill extrusion width = 0.40mm
; first layer extrusion width = 0.42mm

; external perimeters extrusion width = 0.45mm
; perimeters extrusion width = 0.45mm
; infill extrusion width = 0.45mm
; solid infill extrusion width = 0.45mm
; top infill extrusion width = 0.40mm
; first layer extrusion width = 0.42mm

; external perimeters extrusion width = 0.45mm
; perimeters extrusion width = 0.45mm
; infill extrusion width = 0.45mm
; solid infill extrusion width = 0.45mm
; top infill extrusion width = 0.40mm
; first layer extrusion width = 0.42mm

; external perimeters extrusion width = 0.45mm
; perimeters extrusion width = 0.45mm
; infill extrusion width = 0.45mm
; solid infill extrusion width = 0.45mm
; top infill extrusion width = 0.40mm
; first layer extrusion width = 0.42mm

; external perimeters extrusion width = 0.45mm
; perimeters extrusion width = 0.45mm
; infill extrusion width = 0.45mm
; solid infill extrusion width = 0.45mm
; top infill extrusion width = 0.40mm
; first layer extrusion width = 0.42mm

; external perimeters extrusion width = 0.45mm
; perimeters extrusion width = 0.45mm
; infill extrusion width = 0.45mm
; solid infill extrusion width = 0.45mm
; top infill extrusion width = 0.40mm
; first layer extrusion width = 0.42mm

; external perimeters extrusion width = 0.45mm
; perimeters extrusion width = 0.45mm
; infill extrusion width = 0.45mm
; solid infill extrusion width = 0.45mm
; top infill extrusion width = 0.40mm
; first layer extrusion width = 0.42mm

; external perimeters extrusion width = 0.45mm
; perimeters extrusion width = 0.45mm
; infill extrusion width = 0.45mm
; solid infill extrusion width = 0.45mm
; top infill extrusion width = 0.40mm
; first layer extrusion width = 0.42mm

; external perimeters extrusion width = 0.45mm
; perimeters extrusion width = 0.45mm
; infill extrusion width = 0.45mm
; solid infill extrusion width = 0.45mm
; top infill extrusion width = 0.40mm
; first layer extrusion width = 0.42mm

; external perimeters extrusion width = 0.45mm
; perimeters extrusion width = 0.45mm
; infill extrusion width = 0.45mm
; solid infill extrusion width = 0.45mm
; top infill extrusion width = 0.40mm
; first layer extrusion width = 0.42mm

; external perimeters extrusion width = 0.45mm
; perimeters extrusion width = 0.45mm
; infill extrusion width = 0.45mm
; solid infill extrusion width = 0.45mm
; top infill extrusion width = 0.40mm
; first layer extrusion width = 0.42mm

M73 P0 R20
M73 Q0 S21
M201 X1000 Y1000 Z200 E5000 ; sets maximum accelerations, mm/sec^2
M203 X200 Y200 Z12 E120 ; sets maximum feedrates, mm / sec
M204 P1250 R1250 T1250 ; sets acceleration (P, T) and retract acceleration (R), mm/sec^2
M205 X8.00 Y8.00 Z0.40 E4.50 ; sets the jerk limits, mm/sec
M205 S0 T0 ; sets the minimum extruding and travel feed rate, mm/sec
M107
;TYPE:Custom
M862.3 P "MK3S" ; printer model check
M862.1 P0.4 ; nozzle diameter check
M115 U3.11.0 ; tell printer latest fw version
G90 ; use absolute coordinates
M83 ; extruder relative mode
M104 S215 ; set extruder temp
M140 S60 ; set bed temp
M190 S60 ; wait for bed temp
M109 S215 ; wait for extruder temp
G28 W ; home all without mesh bed level
G80 ; mesh bed leveling

G1 Z0.2 F720
G1 Y-3 F1000 ; go outside print area
G92 E0
G1 X60 E9 F1000 ; intro line
G1 X100 E12.5 F1000 ; intro line

G92 E0
M221 S95

; Don't change E values below. Excessive value can damage the printer.
M907 E430 ; set extruder motor current
G21 ; set units to millimeters
G90 ; use absolute coordinates
M83 ; use relative distances for extrusion
M900 K0.05 ; Filament gcode LA 1.5
M900 K30 ; Filament gcode LA 1.0
M107
;LAYER_CHANGE
;Z:0.2
;HEIGHT:0.2
;BEFORE_LAYER_CHANGE
G92 E0.0
;0.2


M73 Q0 S20
G1 E-.8 F2100
G1 Z.4 F720
;AFTER_LAYER_CHANGE
;0.2
G1 X72.758 Y86.273 F10800
G1 Z.2 F720
G1 E.8 F2100
M204 S800
;TYPE:Skirt/Brim
;WIDTH:0.42
G1 F1200
G1 X73.737 Y85.553 E.03812
G1 X74.641 Y85.05 E.03244
G1 X75.713 Y84.617 E.03624
G1 X76.913 Y84.312 E.03883
G1 X78.175 Y84.176 E.03978
G1 X166.708 Y80.69 E2.77805
G1 X168.455 Y80.868 E.05506
G1 X170.301 Y81.417 E.06039
G1 X172.006 Y82.313 E.06039
G1 X173.449 Y83.47 E.05798
G1 X174.696 Y84.938 E.0604
G1 X175.623 Y86.598 E.05963
M73 Q1 S20
G1 X176.172 Y88.215 E.05353
G1 X176.446 Y90.122 E.06039
G1 X176.425 Y91.346 E.03838
M73 P1 R20
G1 X174.925 Y112.187 E.65517
G1 X174.59 Y114.068 E.0599
G1 X174.164 Y115.281 E.0403
G1 X173.706 Y116.216 E.03266
G1 X173.054 Y117.233 E.03788
G1 X172.23 Y118.219 E.0403
G1 X171.285 Y119.09 E.0403
G1 X170.441 Y119.701 E.03266
G1 X169.319 Y120.327 E.0403
G1 X168.198 Y120.778 E.03788
G1 X166.879 Y121.118 E.04272
G1 X165.307 Y121.281 E.04955
G1 X114.558 Y122.241 E1.59149
G1 X95.044 Y121.539 E.61223
G1 X76.295 Y118.986 E.59329
G1 X74.74 Y118.624 E.05006
G1 X73.674 Y118.193 E.03604
G1 X72.789 Y117.703 E.03173
G1 X71.859 Y117.029 E.036
G1 X71.167 Y116.391 E.02951
G1 X70.553 Y115.692 E.02918
G1 X69.973 Y114.863 E.03173
G1 X69.431 Y113.844 E.03618
G1 X69.094 Y112.981 E.02904
G1 X68.738 Y111.471 E.04866
G1 X68.652 Y109.849 E.05091
G1 X69.638 Y92.459 E.54613
G1 X69.871 Y90.946 E.048
G1 X70.168 Y89.972 E.03192
G1 X70.636 Y88.92 E.03609
G1 X71.16 Y88.049 E.03187
G1 X71.927 Y87.076 E.03883
G1 X72.715 Y86.315 E.03435
M204 S1000
; printing object 5mm thick washer.stl id:11 copy 0
;WIPE_START
G1 F8640
G1 X73.737 Y85.553 E-.29445
G1 X74.641 Y85.05 E-.23889
G1 X75.552 Y84.683 E-.22665
;WIPE_END
G1 E-.04 F2100
G1 Z.6 F720
G1 X80.446 Y98.415 F10800
G1 Z.2 F720
G1 E.8 F2100
M204 S800
;TYPE:Perimeter
;WIDTH:0.419999
G1 F1200
G1 X79.877 Y98.589 E.01866
G1 X79.29 Y98.703 E.01875
G1 X78.705 Y98.755 E.01844
G1 X77.691 Y98.701 E.03183
G1 X77.114 Y98.589 E.01844
G1 X76.551 Y98.417 E.01844
G1 X75.631 Y97.988 E.03183
G1 X75.138 Y97.668 E.01843
G1 X74.673 Y97.292 E.01875
G1 X74.258 Y96.877 E.01841
G1 X73.647 Y96.065 E.03186
G1 X73.361 Y95.551 E.01844
G1 X73.128 Y95 E.01875
G1 X72.953 Y94.429 E.01875
G1 X72.841 Y93.852 E.01841
G1 X72.788 Y92.838 E.03186
G1 X72.839 Y92.252 E.01843
G1 X72.951 Y91.676 E.01841
G1 X73.282 Y90.715 E.03186
G1 X73.544 Y90.199 E.01813
G1 X74.126 Y89.368 E.03183
G1 X74.521 Y88.945 E.01813
G1 X75.31 Y88.306 E.03183
G1 X75.814 Y88.003 E.01844
G1 X76.356 Y87.751 E.01875
G1 X76.921 Y87.556 E.01875
G1 X77.504 Y87.422 E.01875
G1 X78.097 Y87.349 E.01875
G1 X78.684 Y87.338 E.01841
G1 X79.693 Y87.462 E.03186
G1 X80.261 Y87.614 E.01843
G1 X80.819 Y87.829 E.01875
G1 X81.352 Y88.1 E.01875
G1 X81.844 Y88.42 E.01841
G1 X82.611 Y89.086 E.03186
G1 X82.997 Y89.53 E.01843
G1 X83.34 Y90.02 E.01875
G1 X83.629 Y90.543 E.01875
G1 X83.859 Y91.083 E.01841
G1 X84.122 Y92.065 E.03186
G1 X84.194 Y92.648 E.01844
G1 X84.204 Y93.246 E.01875
G1 X84.152 Y93.842 E.01874
G1 X84.04 Y94.419 E.01844
G1 X83.709 Y95.379 E.03183
G1 X83.442 Y95.903 E.01844
G1 X83.117 Y96.404 E.01875
G1 X82.74 Y96.869 E.01875
G1 X82.324 Y97.285 E.01844
G1 X81.514 Y97.896 E.03183
G1 X80.999 Y98.181 E.01844
G1 X80.502 Y98.392 E.01696
M204 S1000
G1 X80.557 Y98.776 F10800
M204 S800
;TYPE:External perimeter
G1 F1200
G1 X79.969 Y98.956 E.01927
G1 X79.343 Y99.077 E.01999
G1 X78.711 Y99.133 E.01989
G1 X77.645 Y99.077 E.03348
G1 X77.022 Y98.956 E.01988
G1 X76.416 Y98.77 E.01989
G1 X75.448 Y98.319 E.03348
G1 X74.916 Y97.973 E.01988
G1 X74.421 Y97.572 E.01999
G1 X73.973 Y97.125 E.01986
G1 X73.33 Y96.271 E.03351
G1 X73.022 Y95.716 E.01988
G1 X72.773 Y95.13 E.01999
G1 X72.587 Y94.52 E.01999
G1 X72.466 Y93.898 E.01986
G1 X72.41 Y92.831 E.03351
G1 X72.465 Y92.199 E.01988
G1 X72.586 Y91.578 E.01986
G1 X72.934 Y90.567 E.03352
G1 X73.22 Y90.005 E.01978
G1 X73.833 Y89.13 E.03348
G1 X74.263 Y88.669 E.01978
G1 X75.093 Y87.997 E.03348
G1 X75.637 Y87.67 E.01988
G1 X76.214 Y87.401 E.01999
G1 X76.817 Y87.193 E.01999
G1 X77.438 Y87.05 E.01999
G1 X78.071 Y86.972 E.01999
G1 X78.704 Y86.961 E.01986
G1 X79.765 Y87.091 E.03351
G1 X80.377 Y87.255 E.01988
G1 X80.972 Y87.484 E.01999
G1 X81.54 Y87.773 E.01999
G1 X82.071 Y88.118 E.01985
G1 X82.878 Y88.819 E.03351
G1 X83.294 Y89.298 E.01988
G1 X83.66 Y89.82 E.01999
G1 X83.969 Y90.377 E.01999
G1 X84.216 Y90.96 E.01985
G1 X84.493 Y91.993 E.03352
G1 X84.57 Y92.622 E.01988
G1 X84.581 Y93.259 E.01999
G1 X84.526 Y93.894 E.01998
G1 X84.405 Y94.517 E.01989
G1 X84.057 Y95.527 E.03348
G1 X83.769 Y96.092 E.01988
G1 X83.422 Y96.626 E.01998
G1 X83.021 Y97.122 E.01999
G1 X82.572 Y97.57 E.01989
G1 X81.72 Y98.213 E.03348
M73 Q2 S20
G1 X81.165 Y98.52 E.01988
G1 X80.613 Y98.755 E.01881
M204 S1000
G1 X80.25 Y98.518 F10800
;WIPE_START
G1 F8640
G1 X79.969 Y98.956 E-.15576
G1 X79.343 Y99.077 E-.14718
G1 X78.711 Y99.133 E-.14646
M73 P2 R20
G1 X77.645 Y99.077 E-.24657
G1 X77.372 Y99.024 E-.06404
;WIPE_END
G1 E-.04 F2100
G1 Z.6 F720
G1 X83.05 Y91.162 F10800
G1 Z.2 F720
G1 E.8 F2100
M204 S800
;TYPE:Perimeter
G1 F1200
G1 X83.303 Y91.931 E.02537
G1 X83.408 Y92.571 E.02035
G1 X83.416 Y93.233 E.02075
G1 X83.371 Y93.709 E.015
G1 X83.219 Y94.472 E.02437
G1 X82.982 Y95.074 E.0203
G1 X82.769 Y95.504 E.01505
G1 X82.503 Y95.925 E.0156
G1 X82.02 Y96.502 E.02359
G1 X81.366 Y97.061 E.02698
G1 X80.634 Y97.475 E.02637
G1 X80.196 Y97.67 E.01502
G1 X79.611 Y97.854 E.01923
G1 X78.963 Y97.961 E.02061
G1 X78.114 Y97.967 E.02661
G1 X77.287 Y97.814 E.02637
G1 X76.842 Y97.688 E.01451
G1 X76.26 Y97.447 E.01975
G1 X75.695 Y97.111 E.02061
G1 X75.19 Y96.697 E.02047
G1 X74.857 Y96.365 E.01475
G1 X74.481 Y95.918 E.01832
G1 X74.134 Y95.359 E.02061
G1 X73.861 Y94.715 E.02193
G1 X73.643 Y93.949 E.02499
G1 X73.561 Y93.097 E.02684
G1 X73.618 Y92.341 E.02378
G1 X73.777 Y91.598 E.02381
G1 X74.114 Y90.771 E.028
G1 X74.431 Y90.246 E.01923
G1 X74.971 Y89.592 E.0266
G1 X75.625 Y89.032 E.02698
G1 X76.183 Y88.686 E.02061
G1 X76.655 Y88.483 E.01611
G1 X77.113 Y88.313 E.01532
G1 X77.803 Y88.16 E.02214
G1 X78.45 Y88.111 E.02035
G1 X79.303 Y88.178 E.02685
G1 X79.936 Y88.326 E.02037
G1 X80.507 Y88.555 E.01929
G1 X80.953 Y88.774 E.01556
G1 X81.366 Y89.032 E.01529
G1 X81.95 Y89.522 E.0239
G1 X82.384 Y90.026 E.02085
G1 X82.656 Y90.42 E.01502
G1 X83.031 Y91.105 E.02448
M204 S1000
G1 X82.773 Y91.512 F10800
M204 S800
;TYPE:External perimeter
G1 F1200
G1 X82.943 Y92.044 E.01753
G1 X83.036 Y92.629 E.01856
G1 X83.039 Y93.233 E.01895
G1 X83.001 Y93.636 E.01267
G1 X82.85 Y94.398 E.02437
G1 X82.633 Y94.93 E.01799
G1 X82.446 Y95.308 E.01325
G1 X82.215 Y95.683 E.0138
G1 X81.731 Y96.259 E.02359
G1 X81.124 Y96.772 E.02493
G1 X80.453 Y97.145 E.02406
G1 X80.083 Y97.31 E.0127
G1 X79.498 Y97.495 E.01923
G1 X78.905 Y97.588 E.01881
G1 X78.114 Y97.59 E.02481
G1 X77.361 Y97.444 E.02406
G1 X76.986 Y97.34 E.01219
G1 X76.405 Y97.099 E.01975
G1 X75.89 Y96.789 E.01881
G1 X75.433 Y96.408 E.01867
G1 X75.146 Y96.123 E.01269
G1 X74.77 Y95.675 E.01832
G1 X74.457 Y95.163 E.01881
G1 X74.209 Y94.571 E.02013
G1 X74.009 Y93.859 E.0232
G1 X73.936 Y93.063 E.02504
G1 X73.994 Y92.374 E.02171
G1 X74.143 Y91.688 E.02201
G1 X74.45 Y90.942 E.02527
G1 X74.753 Y90.442 E.01835
G1 X75.26 Y89.834 E.0248
G1 X75.867 Y89.321 E.02493
G1 X76.379 Y89.008 E.01881
G1 X77.109 Y88.703 E.0248
G1 X77.739 Y88.561 E.02025
G1 X78.475 Y88.487 E.0232
G1 X79.271 Y88.554 E.02505
G1 X79.847 Y88.692 E.01857
G1 X80.363 Y88.903 E.0175
G1 X80.757 Y89.096 E.01375
G1 X81.124 Y89.321 E.01349
G1 X81.71 Y89.813 E.024
G1 X82.095 Y90.269 E.01869
G1 X82.326 Y90.602 E.0127
G1 X82.7 Y91.283 E.02437
G1 X82.754 Y91.455 E.00564
M204 S1000
G1 X83.167 Y91.577 F10800
;WIPE_START
G1 F8640
G1 X82.943 Y92.044 E-.14295
G1 X83.036 Y92.629 E-.13668
G1 X83.039 Y93.233 E-.13958
G1 X83.001 Y93.636 E-.09333
G1 X82.85 Y94.398 E-.17949
G1 X82.739 Y94.671 E-.06798
;WIPE_END
G1 E-.04 F2100
G1 Z.6 F720
G1 X81.353 Y88.236 F10800
G1 Z.2 F720
G1 E.8 F2100
M204 S800
;TYPE:Solid infill
;WIDTH:0.430025
G1 F1200
G1 X82.454 Y89.337 E.05011
G1 X82.773 Y89.704 E.01569
G1 X83.099 Y90.17 E.01829
G1 X83.375 Y90.667 E.01829
G1 X83.477 Y90.907 E.0084
G1 X82.954 Y90.385 E.02378
G1 X82.772 Y90.053 E.01218
G1 X82.148 Y89.319 E.03102
G1 X81.468 Y88.756 E.0284
G1 X81.106 Y88.536 E.01366
G1 X80.333 Y87.763 E.03517
M204 S1000
G1 X80.424 Y88.402 F10800
M204 S800
G1 F1200
G1 X79.808 Y87.786 E.02806
G1 X79.639 Y87.74 E.00565
G1 X79.156 Y87.681 E.01565
G1 X79.379 Y87.904 E.01015
G1 X78.782 Y87.855 E.01926
G1 X78.552 Y87.625 E.01047
G1 X78.117 Y87.631 E.01403
G1 X78.023 Y87.643 E.00305
G1 X78.223 Y87.843 E.00912
G1 X77.724 Y87.891 E.01614
G1 X77.537 Y87.704 E.00853
G1 X77.092 Y87.807 E.01469
G1 X77.274 Y87.989 E.0083
G1 X76.99 Y88.051 E.00936
G1 X76.846 Y88.108 E.00499
G1 X76.677 Y87.939 E.0077
G1 X76.462 Y88.013 E.00732
G1 X76.285 Y88.095 E.00626
G1 X76.455 Y88.265 E.0077
G1 X76.074 Y88.431 E.01338
G1 X75.915 Y88.272 E.00723
G1 X75.573 Y88.478 E.01284
G1 X75.733 Y88.637 E.00726
G1 X75.4 Y88.852 E.01274
G1 X75.259 Y88.711 E.00643
G1 X74.956 Y88.956 E.01253
G1 X75.104 Y89.104 E.00673
G1 X74.808 Y89.355 E.0125
G1 X74.662 Y89.209 E.00668
G1 X74.397 Y89.492 E.01247
G1 X74.557 Y89.652 E.00727
G1 X74.31 Y89.952 E.01252
G1 X74.165 Y89.807 E.0066
G1 X73.939 Y90.129 E.01265
G1 X74.084 Y90.274 E.0066
G1 X73.878 Y90.615 E.01284
G1 X73.728 Y90.465 E.00685
G1 X73.543 Y90.826 E.01305
G1 X73.713 Y90.998 E.00781
G1 X73.552 Y91.384 E.01347
G1 X73.402 Y91.234 E.00684
G1 X73.262 Y91.641 E.01386
G1 X73.437 Y91.816 E.00796
G1 X73.357 Y92.128 E.01036
G1 X73.345 Y92.271 E.00464
G1 X73.159 Y92.086 E.00844
G1 X73.119 Y92.291 E.00673
G1 X73.095 Y92.569 E.00898
G1 X73.302 Y92.776 E.00943
G1 X73.276 Y93.087 E.01003
G1 X73.299 Y93.321 E.00756
G1 X73.085 Y93.107 E.00974
G1 X73.115 Y93.684 E.01862
G1 X73.358 Y93.927 E.01106
G1 X73.529 Y94.646 E.02378
G1 X73.009 Y94.126 E.02367
M204 S1000
;WIPE_START
G1 F8640
G1 X73.529 Y94.646 E-.16983
G1 X73.358 Y93.927 E-.17058
G1 X73.115 Y93.684 E-.07934
G1 X73.085 Y93.107 E-.13359
G1 X73.299 Y93.321 E-.06987
G1 X73.276 Y93.087 E-.05422
G1 X73.302 Y92.776 E-.07195
G1 X73.27 Y92.744 E-.01063
;WIPE_END
G1 E-.04 F2100
G1 Z.6 F720
G1 X83.172 Y91.149 F10800
G1 Z.2 F720
G1 E.8 F2100
M204 S800
G1 F1200
G1 X83.735 Y91.713 E.02563
G1 X83.844 Y92.119 E.01354
G1 X83.879 Y92.404 E.00924
G1 X83.623 Y92.149 E.01163
G1 X83.698 Y92.65 E.01632
G1 X83.698 Y92.77 E.00388
G1 X83.917 Y92.989 E.00997
G1 X83.921 Y93.236 E.00795
G1 X83.897 Y93.517 E.00906
G1 X83.696 Y93.316 E.00911
G1 X83.696 Y93.503 E.00601
G1 X83.636 Y93.803 E.00984
G1 X83.833 Y94.001 E.00899
G1 X83.731 Y94.446 E.01472
G1 X83.544 Y94.259 E.00853
G1 X83.44 Y94.702 E.01466
G1 X83.591 Y94.854 E.00689
G1 X83.451 Y95.261 E.01386
G1 X83.277 Y95.087 E.00792
G1 X83.114 Y95.471 E.01344
G1 X83.267 Y95.624 E.00696
G1 X83.197 Y95.761 E.00495
G1 X83.063 Y95.968 E.00792
G1 X82.91 Y95.815 E.00695
G1 X82.786 Y96.02 E.0077
G1 X82.687 Y96.139 E.005
G1 X82.842 Y96.294 E.00705
G1 X82.597 Y96.597 E.01253
G1 X82.439 Y96.439 E.00719
G1 X82.183 Y96.731 E.01249
G1 X82.331 Y96.878 E.00672
G1 X82.139 Y97.071 E.00877
G1 X82.046 Y97.141 E.00373
G1 X81.889 Y96.983 E.00715
G1 X81.594 Y97.236 E.0125
G1 X81.734 Y97.376 E.00635
G1 X81.422 Y97.611 E.01258
G1 X81.258 Y97.448 E.00744
G1 X80.906 Y97.643 E.01297
G1 X81.077 Y97.814 E.00781
G1 X80.711 Y97.996 E.01315
G1 X80.553 Y97.838 E.0072
G1 X80.146 Y97.978 E.01386
G1 X80.325 Y98.157 E.00814
G1 X79.906 Y98.285 E.01411
G1 X79.729 Y98.109 E.00802
G1 X79.607 Y98.147 E.00414
G1 X79.271 Y98.198 E.01091
G1 X79.456 Y98.383 E.00841
G1 X79.251 Y98.423 E.00673
G1 X78.973 Y98.447 E.00898
G1 X78.773 Y98.248 E.00909
G1 X78.227 Y98.249 E.01758
G1 X78.436 Y98.457 E.00949
G1 X77.858 Y98.427 E.01862
G1 X77.586 Y98.156 E.01236
G1 X76.896 Y98.012 E.02271
G1 X77.202 Y98.318 E.01393
G1 X77.182 Y98.314 E.00064
G1 X76.653 Y98.153 E.01782
G1 X76.345 Y98.009 E.01092
G1 X75.907 Y97.571 E.01996
G1 X75.523 Y97.337 E.01446
