; generated by PrusaSlicer 2.5.0+win64 on 2023-01-18 at 14:54:16 UTC


;
;
; 

; external perimeters extrusion width = 0.45mm
; perimeters extrusion width = 0.45mm
; infill extrusion width = 0.45mm
; solid infill extrusion width = 0.45mm
; top infill extrusion width = 0.40mm
; first layer extrusion width = 0.42mm

M73 P0 R2
M73 Q0 S2
M201 X1000 Y1000 Z200 E5000 ; sets maximum accelerations, mm/sec^2
M203 X200 Y200 Z12 E120 ; sets maximum feedrates, mm / sec
M204 P1250 R1250 T1250 ; sets acceleration (P, T) and retract acceleration (R), mm/sec^2
M205 X8.00 Y8.00 Z0.40 E4.50 ; sets the jerk limits, mm/sec
M205 S0 T0 ; sets the minimum extruding and travel feed rate, mm/sec
M107
;TYPE:Custom
M862.3 P "MK3S" ; printer model check
M862.1 P0.4 ; nozzle diameter check
M115 U3.11.0 ; tell printer latest fw version
G90 ; use absolute coordinates
M83 ; extruder relative mode
M104 S215 ; set extruder temp
M140 S60 ; set bed temp
M190 S60 ; wait for bed temp
M109 S215 ; wait for extruder temp
G28 W ; home all without mesh bed level
G80 ; mesh bed leveling

G1 Z0.2 F720
G1 Y-3 F1000 ; go outside print area
G92 E0
G1 X60 E9 F1000 ; intro line
G1 X100 E12.5 F1000 ; intro line

G92 E0
M221 S95

; Don't change E values below. Excessive value can damage the printer.
M907 E430 ; set extruder motor current
G21 ; set units to millimeters
G90 ; use absolute coordinates
M83 ; use relative distances for extrusion
M900 K0.05 ; Filament gcode LA 1.5
M900 K30 ; Filament gcode LA 1.0
M107
;LAYER_CHANGE
;Z:0.2
;HEIGHT:0.2
;BEFORE_LAYER_CHANGE
G92 E0.0
;0.2


M73 P2 R2
M73 Q2 S2
G1 E-.8 F2100
M73 P3 R2
M73 Q3 S2
G1 Z.4 F720
;AFTER_LAYER_CHANGE
;0.2
G1 X116.827 Y98.201 F10800
G1 Z.2 F720
M73 Q4 S2
G1 E.8 F2100
M204 S800
;TYPE:Skirt/Brim
;WIDTH:0.42
G1 F1200
M73 P4 R2
G1 X117.609 Y97.359 E.03602
G1 X118.389 Y96.675 E.03255
G1 X119.313 Y96.018 E.03555
G1 X121.128 Y95.099 E.06377
G1 X122.159 Y94.756 E.03409
G1 X123.163 Y94.529 E.03227
G1 X125.148 Y94.37 E.06244
G1 X126.18 Y94.434 E.03243
G1 X127.29 Y94.618 E.03526
G1 X129.233 Y95.248 E.06405
G1 X130.199 Y95.727 E.03381
G1 X131.071 Y96.273 E.03227
G1 X132.632 Y97.598 E.06419
G1 X133.339 Y98.406 E.03367
G1 X133.938 Y99.243 E.03227
G1 X134.877 Y101.067 E.06433
G1 X135.222 Y102.079 E.03353
G1 X135.457 Y103.081 E.03227
G1 X135.631 Y105.13 E.06447
G1 X135.564 Y106.193 E.03338
G1 X135.4 Y107.208 E.03227
G1 X134.778 Y109.173 E.06461
G1 X134.314 Y110.126 E.03325
M73 Q5 S2
G1 X133.774 Y111.003 E.03227
G1 X133.153 Y111.823 E.03227
G1 X132.449 Y112.586 E.03255
G1 X131.659 Y113.287 E.03311
G1 X130.827 Y113.892 E.03227
G1 X129.908 Y114.431 E.03339
M73 P5 R2
G1 X128.994 Y114.853 E.03157
G1 X128.001 Y115.199 E.03297
G1 X127.001 Y115.441 E.03226
G1 X125.946 Y115.589 E.0334
G1 X124.917 Y115.631 E.03227
G1 X123.89 Y115.573 E.03226
G1 X122.838 Y115.409 E.0334
G1 X121.841 Y115.151 E.03227
G1 X120.856 Y114.79 E.03289
G1 X119.947 Y114.353 E.03164
G1 X119.036 Y113.801 E.0334
G1 X118.213 Y113.183 E.03227
G1 X117.436 Y112.47 E.03306
G1 X116.765 Y111.723 E.03148
G1 X116.134 Y110.866 E.03339
G1 X115.608 Y109.981 E.03227
G1 X115.159 Y109.021 E.03322
G1 X114.825 Y108.08 E.03131
G1 X114.568 Y107.046 E.03339
G1 X114.419 Y106.028 E.03227
G1 X114.369 Y104.964 E.0334
G1 X114.422 Y103.936 E.03227
G1 X114.593 Y102.832 E.03504
G1 X114.852 Y101.832 E.03238
G1 X115.254 Y100.755 E.03605
G1 X116.234 Y98.985 E.06343
G1 X116.791 Y98.249 E.02894
M204 S1000
M73 Q6 S2
G1 X117.091 Y98.476 F10800
M204 S800
G1 F1200
G1 X117.873 Y97.628 E.03617
G1 X118.622 Y96.971 E.03123
G1 X119.517 Y96.335 E.03442
G1 X121.264 Y95.451 E.06139
G1 X122.261 Y95.118 E.03297
M73 P6 R2
G1 X123.23 Y94.9 E.03115
G1 X125.146 Y94.747 E.06024
G1 X126.232 Y94.82 E.03413
G1 X127.211 Y94.987 E.03115
G1 X129.082 Y95.593 E.06168
G1 X130.016 Y96.056 E.03269
G1 X130.858 Y96.584 E.03114
G1 X132.36 Y97.86 E.06182
G1 X133.044 Y98.641 E.03255
G1 X133.622 Y99.449 E.03115
G1 X134.527 Y101.206 E.06195
G1 X134.86 Y102.184 E.03241
G1 X135.086 Y103.151 E.03115
G1 X135.254 Y105.125 E.06209
G1 X135.03 Y107.132 E.06333
G1 X134.432 Y109.025 E.06223
G1 X133.462 Y110.792 E.0632
G1 X132.185 Y112.317 E.06237
G1 X130.618 Y113.578 E.06306
M73 Q7 S2
G1 X128.852 Y114.503 E.06251
G1 X126.928 Y115.071 E.06292
G1 X124.92 Y115.254 E.06321
G1 X122.916 Y115.04 E.0632
M73 P7 R2
G1 X121.006 Y114.444 E.06272
G1 X119.249 Y113.489 E.06271
G1 X117.706 Y112.207 E.06288
G1 X116.449 Y110.659 E.06255
G1 X115.509 Y108.881 E.06304
G1 X114.938 Y106.975 E.06239
G1 X114.746 Y104.968 E.06321
G1 X114.797 Y103.976 E.03115
G1 X114.962 Y102.907 E.03392
G1 X115.211 Y101.947 E.03109
G1 X115.601 Y100.902 E.03497
G1 X116.544 Y99.201 E.06099
G1 X117.055 Y98.524 E.0266
M204 S1000
G1 X117.377 Y98.796 F10800
M204 S800
G1 F1200
G1 X118.138 Y97.897 E.03693
G1 X118.937 Y97.203 E.0332
G1 X119.721 Y96.652 E.03003
G1 X121.4 Y95.802 E.05902
G1 X123.298 Y95.271 E.06179
M73 Q8 S2
G1 X125.143 Y95.124 E.05804
G1 X126.188 Y95.195 E.03283
G1 X127.132 Y95.356 E.03003
G1 X128.931 Y95.939 E.0593
M73 P8 R2
G1 X130.644 Y96.895 E.06151
G1 X132.089 Y98.122 E.05944
G1 X133.306 Y99.655 E.06138
G1 X134.176 Y101.345 E.05958
G1 X134.716 Y103.222 E.06124
G1 X134.877 Y105.119 E.05972
G1 X134.661 Y107.056 E.06109
G1 X134.085 Y108.876 E.05986
G1 X133.15 Y110.58 E.06096
G1 X131.921 Y112.047 E.05999
G1 X130.41 Y113.264 E.06082
G1 X128.711 Y114.154 E.06014
G1 X126.855 Y114.701 E.06068
G1 X124.923 Y114.877 E.06084
G1 X122.993 Y114.671 E.06083
G1 X121.167 Y114.103 E.05998
M73 Q9 S2
G1 X119.461 Y113.178 E.06084
G1 X117.977 Y111.945 E.06051
G1 X116.764 Y110.452 E.0603
M73 P9 R2
G1 X115.859 Y108.741 E.06067
G1 X115.308 Y106.904 E.06014
G1 X115.123 Y104.973 E.06083
G1 X115.172 Y104.016 E.03003
G1 X115.331 Y102.982 E.0328
G1 X115.57 Y102.063 E.0298
G1 X115.948 Y101.05 E.03388
G1 X116.853 Y99.416 E.05856
G1 X117.338 Y98.842 E.02357
M204 S1000
; printing object M8 Washer 8 x 13 x1.7.stl id:0 copy 0
;WIPE_START
G1 F8640
G1 X118.138 Y97.897 E-.28584
G1 X118.937 Y97.203 E-.24447
G1 X119.721 Y96.652 E-.22113
G1 X119.754 Y96.636 E-.00856
;WIPE_END
G1 E-.04 F2100
G1 Z.6 F720
G1 X123.807 Y98.6 F10800
G1 Z.2 F720
G1 E.8 F2100
M204 S800
;TYPE:Perimeter
;WIDTH:0.419999
G1 F1200
G1 X124.402 Y98.518 E.0188
G1 X125.101 Y98.492 E.02194
G1 X125.75 Y98.533 E.02039
G1 X126.338 Y98.629 E.01869
G1 X126.919 Y98.78 E.01882
G1 X127.627 Y99.044 E.0237
G1 X128.182 Y99.322 E.01946
G1 X128.667 Y99.622 E.01789
G1 X129.301 Y100.12 E.02528
G1 X129.697 Y100.492 E.01704
M73 Q10 S2
G1 X130.097 Y100.952 E.01913
G1 X130.495 Y101.511 E.0215
G1 X130.817 Y102.077 E.0204
G1 X131.074 Y102.662 E.02004
G1 X131.253 Y103.188 E.01742
G1 X131.396 Y103.798 E.01965
G1 X131.492 Y104.521 E.02286
G1 X131.502 Y105.202 E.02136
G1 X131.452 Y105.866 E.02089
M73 P10 R2
G1 X131.332 Y106.505 E.0204
G1 X131.187 Y107.025 E.01691
G1 X130.949 Y107.639 E.02066
G1 X130.711 Y108.124 E.01693
G1 X130.343 Y108.718 E.02192
G1 X129.882 Y109.301 E.02329
G1 X129.537 Y109.668 E.01579
G1 X129.072 Y110.077 E.01943
G1 X128.418 Y110.538 E.02508
G1 X127.96 Y110.798 E.01653
G1 X127.385 Y111.056 E.01974
G1 X126.848 Y111.242 E.01783
G1 X126.065 Y111.414 E.02514
G1 X125.517 Y111.489 E.01734
G1 X124.872 Y111.507 E.02022
G1 X124.115 Y111.441 E.02383
G1 X123.581 Y111.353 E.01696
G1 X122.951 Y111.177 E.02053
G1 X122.449 Y110.988 E.01681
G1 X121.772 Y110.653 E.02368
G1 X121.272 Y110.337 E.01855
G1 X120.746 Y109.924 E.02097
G1 X120.358 Y109.564 E.01658
G1 X119.893 Y109.029 E.02221
G1 X119.546 Y108.552 E.01852
G1 X119.187 Y107.924 E.02268
G1 X118.968 Y107.449 E.01639
G1 X118.756 Y106.833 E.02043
G1 X118.589 Y106.077 E.02427
G1 X118.514 Y105.554 E.01656
G1 X118.494 Y104.877 E.02125
G1 X118.558 Y104.127 E.02359
G1 X118.639 Y103.618 E.01617
G1 X118.821 Y102.962 E.02132
G1 X118.996 Y102.484 E.01599
G1 X119.292 Y101.878 E.02114
G1 X119.632 Y101.321 E.02044
G1 X120.007 Y100.823 E.01956
G1 X120.464 Y100.334 E.02101
G1 X120.853 Y99.982 E.01645
G1 X121.382 Y99.593 E.02057
G1 X122.052 Y99.199 E.02437
G1 X122.518 Y98.983 E.01611
G1 X123.232 Y98.735 E.02368
G1 X123.749 Y98.614 E.01666
M204 S1000
G1 X123.753 Y98.227 F10800
M204 S800
;TYPE:External perimeter
G1 F1200
M73 Q11 S2
G1 X124.385 Y98.141 E.01998
G1 X125.123 Y98.115 E.02315
G1 X125.808 Y98.161 E.02153
G1 X126.431 Y98.263 E.01978
G1 X127.049 Y98.426 E.02004
G1 X127.793 Y98.705 E.02492
G1 X128.378 Y99 E.02054
G1 X128.894 Y99.321 E.01907
G1 X129.558 Y99.843 E.02649
G1 X129.979 Y100.242 E.01818
M73 P11 R2
G1 X130.403 Y100.732 E.02031
G1 X130.901 Y101.459 E.02763
G1 X131.16 Y101.921 E.01661
G1 X131.43 Y102.538 E.02113
G1 X131.619 Y103.098 E.01851
G1 X131.77 Y103.746 E.02087
G1 X131.869 Y104.508 E.02408
G1 X131.878 Y105.228 E.02258
G1 X131.823 Y105.931 E.02211
G1 X131.681 Y106.657 E.02321
G1 X131.541 Y107.157 E.01627
G1 X131.289 Y107.803 E.02175
G1 X131.033 Y108.321 E.01811
G1 X130.643 Y108.947 E.02313
G1 X130.159 Y109.558 E.02444
G1 X129.789 Y109.949 E.01688
G1 X129.293 Y110.383 E.02065
G1 X128.555 Y110.894 E.02814
G1 X128.118 Y111.141 E.01576
G1 X127.44 Y111.437 E.02319
G1 X126.94 Y111.608 E.01655
G1 X126.043 Y111.798 E.02875
G1 X125.532 Y111.866 E.01617
G1 X124.853 Y111.883 E.0213
G1 X124.057 Y111.814 E.02506
G1 X123.485 Y111.718 E.01819
G1 X122.768 Y111.511 E.02338
G1 X122.283 Y111.327 E.01627
G1 X121.572 Y110.973 E.02491
G1 X121.044 Y110.637 E.01963
G1 X120.448 Y110.162 E.02388
G1 X120.079 Y109.817 E.01584
G1 X119.59 Y109.253 E.02339
G1 X119.221 Y108.744 E.01973
G1 X118.845 Y108.083 E.02383
G1 X118.614 Y107.576 E.01747
G1 X118.391 Y106.927 E.02152
G1 X118.216 Y106.133 E.0255
G1 X118.138 Y105.571 E.01778
G1 X118.118 Y104.859 E.02233
G1 X118.185 Y104.071 E.02481
G1 X118.274 Y103.523 E.0174
G1 X118.466 Y102.835 E.02241
G1 X118.655 Y102.324 E.01708
M73 Q12 S2
G1 X118.968 Y101.685 E.02232
G1 X119.405 Y100.994 E.02563
G1 X119.728 Y100.57 E.01671
G1 X120.21 Y100.056 E.02209
G1 X120.625 Y99.682 E.01754
G1 X121.186 Y99.27 E.0218
G1 X121.891 Y98.858 E.0256
G1 X122.393 Y98.627 E.01734
G1 X123.144 Y98.369 E.0249
M73 P12 R2
G1 X123.695 Y98.241 E.01775
M204 S1000
G1 X124.014 Y98.531 F10800
;WIPE_START
G1 F8640
G1 X124.385 Y98.141 E-.16097
G1 X125.123 Y98.115 E-.17047
G1 X125.808 Y98.161 E-.15859
G1 X126.431 Y98.263 E-.14564
G1 X126.951 Y98.4 E-.12432
;WIPE_END
G1 E-.04 F2100
G1 Z.6 F720
G1 X129.726 Y103.627 F10800
G1 Z.2 F720
G1 E.8 F2100
M204 S800
;TYPE:Perimeter
G1 F1200
G1 X129.83 Y103.992 E.01191
G1 X129.934 Y104.939 E.02984
G1 X129.87 Y105.642 E.02214
G1 X129.808 Y106.116 E.015
G1 X129.578 Y106.843 E.02389
G1 X129.328 Y107.343 E.01752
G1 X129.078 Y107.773 E.0156
G1 X128.776 Y108.181 E.01594
G1 X128.21 Y108.749 E.02512
G1 X127.684 Y109.143 E.02061
G1 X126.934 Y109.541 E.02661
G1 X126.428 Y109.699 E.01662
G1 X125.918 Y109.848 E.01668
G1 X125.416 Y109.903 E.01583
G1 X124.971 Y109.936 E.01399
G1 X124.409 Y109.9 E.01766
G1 X123.564 Y109.722 E.02705
G1 X122.765 Y109.4 E.02702
G1 X121.79 Y108.749 E.03676
G1 X121.251 Y108.21 E.0239
G1 X120.61 Y107.258 E.03598
G1 X120.308 Y106.531 E.02469
G1 X120.171 Y105.996 E.0173
G1 X120.1 Y105.448 E.01733
G1 X120.064 Y104.963 E.01524
G1 X120.1 Y104.408 E.01744
G1 X120.279 Y103.564 E.02705
G1 X120.6 Y102.765 E.02702
M73 Q13 S2
G1 X120.921 Y102.223 E.01975
G1 X121.476 Y101.545 E.02745
G1 X122.129 Y100.986 E.02698
G1 X122.674 Y100.647 E.02012
G1 X123.468 Y100.309 E.02705
G1 X124.093 Y100.161 E.02013
G1 X124.453 Y100.1 E.01146
G1 X125.369 Y100.08 E.02871
G1 X126.006 Y100.181 E.02022
M73 P13 R2
G1 X126.36 Y100.259 E.01139
G1 X127.224 Y100.595 E.02905
G1 X128.177 Y101.221 E.03574
G1 X128.812 Y101.866 E.02839
G1 X129.25 Y102.49 E.0239
G1 X129.546 Y103.077 E.02061
G1 X129.708 Y103.57 E.01627
M204 S1000
G1 X129.33 Y103.624 F10800
M204 S800
;TYPE:External perimeter
G1 F1200
G1 X129.456 Y104.034 E.01342
G1 X129.559 Y104.98 E.02984
G1 X129.448 Y106.003 E.03227
G1 X129.219 Y106.73 E.02389
G1 X128.854 Y107.436 E.02493
G1 X128.501 Y107.921 E.01881
G1 X127.943 Y108.482 E.02481
G1 X127.461 Y108.839 E.01881
G1 X126.76 Y109.206 E.02481
G1 X125.826 Y109.482 E.03055
G1 X124.99 Y109.56 E.0263
G1 X124.433 Y109.524 E.01752
G1 X123.645 Y109.353 E.02526
G1 X122.909 Y109.052 E.02494
G1 X122.057 Y108.482 E.03214
G1 X121.518 Y107.943 E.0239
G1 X120.948 Y107.091 E.03214
G1 X120.657 Y106.386 E.0239
G1 X120.512 Y105.804 E.01881
G1 X120.441 Y105.016 E.02481
G1 X120.476 Y104.432 E.01834
G1 X120.647 Y103.645 E.02526
G1 X120.949 Y102.909 E.02494
G1 X121.244 Y102.418 E.01795
G1 X121.765 Y101.788 E.02565
G1 X122.372 Y101.274 E.02493
G1 X122.87 Y100.969 E.01834
G1 X123.613 Y100.657 E.02526
G1 X124.462 Y100.477 E.0272
G1 X125.377 Y100.457 E.02871
G1 X126.224 Y100.611 E.02698
M73 Q14 S2
G1 X127.087 Y100.947 E.02905
G1 X127.944 Y101.518 E.03227
G1 X128.482 Y102.057 E.02389
G1 X128.85 Y102.577 E.01999
G1 X129.208 Y103.243 E.02371
G1 X129.312 Y103.567 E.01066
M204 S1000
G1 X129.723 Y103.697 F10800
;WIPE_START
M73 P14 R2
G1 F8640
G1 X129.456 Y104.034 E-.11267
G1 X129.559 Y104.98 E-.21978
G1 X129.448 Y106.003 E-.23764
G1 X129.219 Y106.73 E-.17595
G1 X129.191 Y106.783 E-.01396
;WIPE_END
G1 E-.04 F2100
G1 Z.6 F720
G1 X130.428 Y101.62 F10800
G1 Z.2 F720
G1 E.8 F2100
M204 S800
;TYPE:Solid infill
;WIDTH:0.420378
G1 F1200
G1 X129.468 Y100.661 E.04259
G1 X129.011 Y100.236 E.01959
G1 X128.476 Y99.832 E.02103
G1 X127.989 Y99.536 E.01788
G1 X127.637 Y99.364 E.0123
G1 X130.636 Y102.362 E.13309
G1 X130.785 Y102.691 E.01134
G1 X130.973 Y103.233 E.01799
G1 X126.769 Y99.03 E.18657
G1 X126.077 Y98.871 E.0223
G1 X131.327 Y104.121 E.23302
M204 S1000
;WIPE_START
G1 F8640
M73 Q15 S2
G1 X128.999 Y101.793 E-.76
;WIPE_END
G1 E-.04 F2100
G1 Z.6 F720
G1 X129.588 Y102.916 F10800
M73 P15 R2
G1 Z.2 F720
G1 E.8 F2100
M204 S800
G1 F1200
G1 X131.21 Y104.538 E.07197
G1 X131.228 Y105.067 E.01662
G1 X131.227 Y105.088 E.00068
G1 X130.105 Y103.967 E.04977
G1 X130.17 Y104.565 E.01888
G1 X131.192 Y105.587 E.04538
G1 X131.178 Y105.791 E.00641
G1 X131.131 Y106.06 E.00857
G1 X130.208 Y105.137 E.04096
G1 X130.154 Y105.617 E.01516
G1 X131.039 Y106.502 E.03928
G1 X130.924 Y106.921 E.01363
G1 X130.1 Y106.097 E.03656
G1 X129.976 Y106.507 E.01344
G1 X130.779 Y107.31 E.03564
G1 X130.615 Y107.68 E.0127
G1 X129.847 Y106.912 E.0341
G1 X129.81 Y107.028 E.00383
G1 X129.678 Y107.276 E.00883
G1 X130.435 Y108.033 E.03361
G1 X130.232 Y108.364 E.01219
G1 X129.493 Y107.625 E.03284
G1 X129.375 Y107.845 E.00785
G1 X129.292 Y107.958 E.00439
G1 X130.015 Y108.681 E.03211
G1 X129.785 Y108.984 E.01195
G1 X129.065 Y108.265 E.03194
G1 X128.812 Y108.545 E.01186
G1 X129.531 Y109.264 E.03192
G1 X129.366 Y109.442 E.0076
G1 X129.265 Y109.533 E.00426
G1 X128.546 Y108.813 E.03195
G1 X128.405 Y108.954 E.00624
M73 Q16 S2
G1 X128.261 Y109.062 E.00567
G1 X128.984 Y109.785 E.03209
G1 X128.943 Y109.821 E.00171
G1 X128.678 Y110.013 E.01026
G1 X127.956 Y109.29 E.03208
G1 X127.807 Y109.401 E.00581
G1 X127.626 Y109.495 E.0064
G1 X128.369 Y110.237 E.03296
G1 X128.032 Y110.434 E.01225
M73 P16 R2
G1 X127.275 Y109.677 E.0336
G1 X126.914 Y109.85 E.01256
G1 X127.68 Y110.616 E.03401
G1 X127.312 Y110.782 E.01266
G1 X126.499 Y109.969 E.0361
G1 X126.084 Y110.088 E.01355
G1 X126.917 Y110.921 E.03701
G1 X126.501 Y111.038 E.01359
G1 X125.628 Y110.166 E.03872
G1 X125.136 Y110.207 E.01552
G1 X126.058 Y111.129 E.04093
G1 X125.592 Y111.197 E.01479
G1 X124.588 Y110.193 E.04455
G1 X124.315 Y110.174 E.00859
G1 X123.957 Y110.096 E.01149
G1 X125.084 Y111.224 E.05003
G1 X124.964 Y111.228 E.00377
G1 X124.533 Y111.206 E.01355
G1 X122.904 Y109.577 E.0723
M204 S1000
;WIPE_START
G1 F8640
G1 X124.533 Y111.206 E-.53194
G1 X124.964 Y111.228 E-.09972
G1 X125.084 Y111.224 E-.02774
G1 X124.776 Y110.915 E-.1006
;WIPE_END
G1 E-.04 F2100
G1 Z.6 F720
G1 X127.103 Y100.43 F10800
G1 Z.2 F720
G1 E.8 F2100
M204 S800
G1 F1200
G1 X125.469 Y98.797 E.07251
G1 X125.089 Y98.774 E.01195
M73 Q17 S2
G1 X124.919 Y98.781 E.00532
G1 X126.039 Y99.901 E.04971
G1 X125.521 Y99.808 E.01653
G1 X125.412 Y99.807 E.00343
G1 X124.406 Y98.801 E.04465
G1 X124.388 Y98.802 E.00055
M73 P17 R2
G1 X123.938 Y98.867 E.01428
G1 X124.88 Y99.809 E.0418
G1 X124.361 Y99.824 E.01628
G1 X123.499 Y98.962 E.03827
G1 X123.085 Y99.082 E.01351
G1 X123.919 Y99.916 E.03702
