; generated by PrusaSlicer 2.5.0+win64 on 2023-01-19 at 08:53:25 UTC


;
;
; 

; external perimeters extrusion width = 0.45mm
; perimeters extrusion width = 0.45mm
; infill extrusion width = 0.45mm
; solid infill extrusion width = 0.45mm
; top infill extrusion width = 0.40mm
; first layer extrusion width = 0.42mm

; external perimeters extrusion width = 0.45mm
; perimeters extrusion width = 0.45mm
; infill extrusion width = 0.45mm
; solid infill extrusion width = 0.45mm
; top infill extrusion width = 0.40mm
; first layer extrusion width = 0.42mm

M73 P0 R14
M73 Q0 S14
M201 X1000 Y1000 Z200 E5000 ; sets maximum accelerations, mm/sec^2
M203 X200 Y200 Z12 E120 ; sets maximum feedrates, mm / sec
M204 P1250 R1250 T1250 ; sets acceleration (P, T) and retract acceleration (R), mm/sec^2
M205 X8.00 Y8.00 Z0.40 E4.50 ; sets the jerk limits, mm/sec
M205 S0 T0 ; sets the minimum extruding and travel feed rate, mm/sec
M107
;TYPE:Custom
M862.3 P "MK3S" ; printer model check
M862.1 P0.4 ; nozzle diameter check
M115 U3.11.0 ; tell printer latest fw version
G90 ; use absolute coordinates
M83 ; extruder relative mode
M104 S215 ; set extruder temp
M140 S60 ; set bed temp
M190 S60 ; wait for bed temp
M109 S215 ; wait for extruder temp
G28 W ; home all without mesh bed level
G80 ; mesh bed leveling

G1 Z0.2 F720
G1 Y-3 F1000 ; go outside print area
G92 E0
G1 X60 E9 F1000 ; intro line
G1 X100 E12.5 F1000 ; intro line

G92 E0
M221 S95

; Don't change E values below. Excessive value can damage the printer.
M907 E430 ; set extruder motor current
G21 ; set units to millimeters
G90 ; use absolute coordinates
M83 ; use relative distances for extrusion
M900 K0.05 ; Filament gcode LA 1.5
M900 K30 ; Filament gcode LA 1.0
M107
;LAYER_CHANGE
;Z:0.2
;HEIGHT:0.2
;BEFORE_LAYER_CHANGE
G92 E0.0
;0.2


G1 E-.8 F2100
G1 Z.4 F720
;AFTER_LAYER_CHANGE
;0.2
G1 X115.257 Y96.77 F10800
G1 Z.2 F720
G1 E.8 F2100
M204 S800
;TYPE:Skirt/Brim
;WIDTH:0.42
G1 F1200
G1 X116.041 Y95.923 E.03621
G1 X117.058 Y95.021 E.04262
G1 X117.99 Y94.345 E.0361
G1 X119.162 Y93.661 E.04256
G1 X120.218 Y93.177 E.0364
G1 X121.503 Y92.735 E.04262
G1 X122.627 Y92.469 E.03622
G1 X123.974 Y92.287 E.04262
G1 X125.129 Y92.247 E.03622
G1 X126.482 Y92.332 E.04252
G1 X127.621 Y92.518 E.0362
G1 X128.938 Y92.869 E.04274
G1 X130.02 Y93.276 E.03622
G1 X131.236 Y93.875 E.04252
G1 X132.22 Y94.487 E.03632
G1 X133.291 Y95.309 E.04232
G1 X134.137 Y96.102 E.03639
G1 X135.035 Y97.128 E.04274
G1 X135.699 Y98.059 E.03585
G1 X136.383 Y99.247 E.04299
G1 X136.857 Y100.301 E.03622
G1 X137.283 Y101.566 E.04186
M73 Q1 S14
G1 X137.544 Y102.696 E.03637
G1 X137.716 Y104.021 E.04188
G1 X137.753 Y105.16 E.03575
G1 X137.684 Y106.333 E.03684
G1 X137.474 Y107.656 E.04199
G1 X137.189 Y108.752 E.03552
M73 P1 R14
G1 X136.72 Y110.03 E.04269
G1 X136.218 Y111.067 E.03612
G1 X135.512 Y112.222 E.04245
G1 X134.809 Y113.151 E.03652
G1 X133.893 Y114.142 E.04232
G1 X133.025 Y114.913 E.03639
G1 X131.929 Y115.708 E.04245
G1 X130.923 Y116.295 E.03652
G1 X129.696 Y116.858 E.04232
G1 X128.607 Y117.233 E.03614
G1 X127.283 Y117.548 E.04267
G1 X126.139 Y117.703 E.03617
G1 X124.772 Y117.752 E.04291
G1 X123.628 Y117.68 E.03593
G1 X122.275 Y117.459 E.04299
G1 X121.159 Y117.162 E.03622
G1 X119.886 Y116.684 E.04262
G1 X118.85 Y116.173 E.03622
G1 X117.696 Y115.455 E.04262
G1 X116.78 Y114.752 E.03622
G1 X115.791 Y113.823 E.04254
G1 X115.028 Y112.952 E.0363
G1 X114.239 Y111.846 E.04259
G1 X113.669 Y110.854 E.03588
G1 X113.106 Y109.604 E.04299
G1 X112.738 Y108.509 E.03622
G1 X112.431 Y107.163 E.04329
G1 X112.287 Y106.015 E.03627
G1 X112.249 Y104.711 E.04091
G1 X112.325 Y103.58 E.03552
G1 X112.5 Y102.467 E.03535
G1 X112.842 Y101.147 E.04274
G1 X113.24 Y100.063 E.03622
G1 X113.832 Y98.84 E.04259
G1 X114.436 Y97.854 E.03625
G1 X115.22 Y96.818 E.04075
M204 S1000
G1 X115.521 Y97.045 F10800
M204 S800
G1 F1200
G1 X116.303 Y96.194 E.03625
G1 X117.296 Y95.313 E.04162
G1 X118.194 Y94.663 E.03477
G1 X119.339 Y93.994 E.04157
G1 X120.355 Y93.528 E.03506
G1 X121.61 Y93.096 E.04162
G1 X122.693 Y92.84 E.03489
G1 X124.009 Y92.663 E.04162
G1 X125.117 Y92.624 E.03477
G1 X126.442 Y92.707 E.04164
G1 X127.54 Y92.887 E.03487
G1 X128.826 Y93.229 E.04174
G1 X129.868 Y93.621 E.03489
G1 X131.056 Y94.206 E.04152
G1 X132.003 Y94.795 E.03499
G1 X133.049 Y95.598 E.04132
G1 X133.864 Y96.362 E.03506
G1 X134.741 Y97.364 E.04174
G1 X135.381 Y98.26 E.03453
G1 X136.048 Y99.421 E.04198
G1 X136.505 Y100.436 E.03489
G1 X136.921 Y101.671 E.04086
G1 X137.173 Y102.762 E.03512
G1 X137.34 Y104.053 E.0408
G1 X137.376 Y105.158 E.03467
G1 X137.309 Y106.291 E.03559
G1 X137.105 Y107.58 E.04092
G1 X136.83 Y108.637 E.03427
G1 X136.372 Y109.886 E.04169
G1 X135.889 Y110.884 E.03479
G1 X135.199 Y112.012 E.04145
G1 X134.522 Y112.907 E.03518
G1 X133.627 Y113.875 E.04132
G1 X132.791 Y114.617 E.03506
G1 X131.721 Y115.393 E.04144
G1 X130.752 Y115.959 E.03518
G1 X129.554 Y116.509 E.04132
G1 X128.504 Y116.87 E.03482
G1 X127.211 Y117.178 E.04166
G1 X126.11 Y117.327 E.03485
G1 X124.774 Y117.375 E.04191
G1 X123.673 Y117.305 E.0346
G1 X122.351 Y117.09 E.04198
G1 X121.28 Y116.805 E.03477
G1 X120.034 Y116.337 E.04174
G1 X119.039 Y115.847 E.03477
G1 X117.909 Y115.144 E.04174
G1 X117.026 Y114.466 E.03489
G1 X116.06 Y113.559 E.04155
G1 X115.326 Y112.72 E.03496
G1 X114.555 Y111.64 E.04159
G1 X114.006 Y110.685 E.03455
G1 X113.456 Y109.464 E.04198
G1 X113.102 Y108.409 E.03489
G1 X112.803 Y107.101 E.04207
G1 X112.663 Y105.998 E.03488
G1 X112.627 Y104.716 E.04021
G1 X112.869 Y102.546 E.06847
G1 X113.203 Y101.257 E.04174
G1 X113.587 Y100.213 E.03489
G1 X114.164 Y99.018 E.04159
G1 X114.746 Y98.069 E.03491
G1 X115.484 Y97.093 E.03837
M204 S1000
; printing object Stopper Ring.stl id:0 copy 0
;WIPE_START
G1 F8640
G1 X116.303 Y96.194 E-.28078
G1 X117.296 Y95.313 E-.30648
G1 X117.902 Y94.874 E-.17274
;WIPE_END
G1 E-.04 F2100
G1 Z.6 F720
G1 X125.255 Y105.14 F10800
G1 Z.2 F720
G1 E.8 F2100
M204 S800
;TYPE:External perimeter
;WIDTH:0.38292
G1 F1200
G1 X125.13 Y105.262 E.00495
G1 X124.981 Y105.294 E.00429
G1 X124.846 Y105.251 E.00401
G1 X124.735 Y105.126 E.00475
G1 X124.732 Y104.875 E.00707
G1 X124.903 Y104.729 E.00637
G1 X125.105 Y104.722 E.00573
G1 X125.261 Y104.894 E.00656
G1 X125.256 Y105.08 E.00525
M204 S1000
G1 X125.081 Y105.158 F10800
; stop printing object Stopper Ring.stl id:0 copy 0
; printing object Stopper Ring.stl id:1 copy 0
;WIPE_START
G1 F8640
G1 X125.13 Y105.262 E-.0512
G1 X124.981 Y105.294 E-.035
G1 X124.846 Y105.251 E-.03272
G1 X124.735 Y105.126 E-.03881
G1 X124.732 Y104.875 E-.05775
G1 X124.903 Y104.729 E-.05202
G1 X125.105 Y104.722 E-.04684
G1 X125.261 Y104.894 E-.05356
G1 X125.256 Y105.08 E-.04288
;WIPE_END
G1 E-.38922 F2100
G1 Z.6 F720
G1 X134.208 Y105.223 F10800
G1 Z.2 F720
G1 E.8 F2100
M204 S800
;TYPE:Perimeter
;WIDTH:0.419999
G1 F1200
G1 X134.19 Y105.648 E.01336
G1 X134.14 Y106.155 E.01595
G1 X134.007 Y106.937 E.02487
G1 X133.885 Y107.437 E.01614
G1 X133.734 Y107.929 E.01615
G1 X133.453 Y108.664 E.02467
G1 X133.235 Y109.13 E.01614
G1 X132.993 Y109.581 E.01605
G1 X132.571 Y110.249 E.02476
G1 X132.266 Y110.664 E.01614
G1 X131.94 Y111.059 E.01605
G1 X131.395 Y111.631 E.02477
G1 X131.015 Y111.978 E.01614
G1 X130.616 Y112.303 E.01615
G1 X129.972 Y112.756 E.02467
G1 X129.531 Y113.021 E.01614
G1 X129.076 Y113.262 E.01615
G1 X128.356 Y113.579 E.02467
G1 X127.872 Y113.754 E.01615
G1 X127.381 Y113.9 E.01605
G1 X126.61 Y114.071 E.02477
G1 X126.101 Y114.147 E.01614
G1 X125.591 Y114.194 E.01605
G1 X124.801 Y114.21 E.02476
G1 X124.287 Y114.185 E.01614
G1 X123.775 Y114.131 E.01614
G1 X123 Y113.993 E.02467
G1 X122.501 Y113.867 E.01614
G1 X122.009 Y113.714 E.01615
G1 X121.277 Y113.427 E.02467
G1 X120.812 Y113.206 E.01614
G1 X120.363 Y112.96 E.01605
G1 X119.701 Y112.536 E.02463
G1 X119.081 Y112.059 E.02454
G1 X118.695 Y111.718 E.01614
M73 Q2 S14
G1 X118.327 Y111.352 E.01628
G1 X117.98 Y110.966 E.01627
G1 X117.659 Y110.567 E.01605
G1 X117.212 Y109.921 E.02463
G1 X116.822 Y109.242 E.02454
G1 X116.598 Y108.779 E.01615
G1 X116.4 Y108.303 E.01614
G1 X116.15 Y107.558 E.02467
G1 X116.02 Y107.059 E.01614
G1 X115.919 Y106.554 E.01614
G1 X115.82 Y105.77 E.0248
G1 X115.791 Y105.26 E.01602
M73 P2 R14
G1 X115.791 Y104.74 E.01628
G1 X115.82 Y104.222 E.01627
G1 X115.878 Y103.713 E.01606
G1 X116.021 Y102.937 E.02476
G1 X116.151 Y102.438 E.01614
G1 X116.307 Y101.951 E.01605
G1 X116.6 Y101.217 E.02476
G1 X116.824 Y100.754 E.01614
G1 X117.073 Y100.307 E.01605
G1 X117.504 Y99.645 E.02476
G1 X117.815 Y99.234 E.01614
G1 X118.146 Y98.844 E.01605
G1 X118.699 Y98.28 E.02476
G1 X119.084 Y97.938 E.01614
G1 X119.488 Y97.619 E.01614
G1 X120.134 Y97.178 E.02454
G1 X120.816 Y96.793 E.02454
G1 X121.281 Y96.572 E.01614
G1 X121.757 Y96.377 E.01615
G1 X122.505 Y96.132 E.02467
G1 X123.004 Y96.006 E.01614
G1 X123.51 Y95.909 E.01615
G1 X124.291 Y95.815 E.02467
G1 X124.805 Y95.789 E.01615
G1 X125.317 Y95.793 E.01605
G1 X126.105 Y95.854 E.02477
G1 X126.614 Y95.93 E.01614
G1 X127.122 Y96.035 E.01628
G1 X127.624 Y96.169 E.01628
G1 X128.11 Y96.328 E.01605
G1 X128.838 Y96.625 E.02464
G1 X129.535 Y96.981 E.02453
G1 X129.976 Y97.247 E.01615
G1 X130.405 Y97.539 E.01627
G1 X130.816 Y97.855 E.01628
G1 X131.206 Y98.192 E.01614
G1 X131.765 Y98.746 E.02467
G1 X132.103 Y99.134 E.01614
G1 X132.42 Y99.54 E.01615
G1 X132.827 Y100.145 E.02286
G1 X133.092 Y100.599 E.0165
G1 X133.319 Y101.045 E.01568
G1 X133.534 Y101.55 E.01721
G1 X133.731 Y102.086 E.0179
G1 X133.9 Y102.627 E.0178
G1 X134.052 Y103.304 E.02173
G1 X134.132 Y103.845 E.01716
G1 X134.191 Y104.422 E.01818
G1 X134.208 Y105.163 E.02324
M204 S1000
G1 X134.585 Y105.239 F10800
M204 S800
;TYPE:External perimeter
G1 F1200
G1 X134.566 Y105.675 E.01369
G1 X134.514 Y106.205 E.0167
G1 X134.376 Y107.013 E.0257
G1 X134.248 Y107.536 E.01689
G1 X134.091 Y108.052 E.0169
G1 X133.8 Y108.811 E.0255
G1 X133.572 Y109.299 E.01689
G1 X133.319 Y109.771 E.0168
G1 X132.883 Y110.462 E.0256
G1 X132.563 Y110.896 E.0169
G1 X132.222 Y111.309 E.0168
G1 X131.659 Y111.9 E.0256
G1 X131.261 Y112.264 E.01689
G1 X130.844 Y112.604 E.01689
G1 X130.178 Y113.072 E.0255
G1 X129.717 Y113.35 E.01689
G1 X129.24 Y113.601 E.0169
G1 X128.496 Y113.93 E.0255
G1 X127.989 Y114.112 E.0169
G1 X127.476 Y114.265 E.0168
G1 X126.679 Y114.442 E.0256
G1 X126.146 Y114.521 E.01689
G1 X125.612 Y114.57 E.0168
G1 X124.796 Y114.588 E.0256
G1 X124.258 Y114.561 E.0169
G1 X123.722 Y114.504 E.01689
G1 X122.921 Y114.362 E.0255
G1 X122.399 Y114.23 E.01689
G1 X121.884 Y114.07 E.0169
G1 X121.127 Y113.773 E.0255
G1 X120.64 Y113.542 E.01689
G1 X120.17 Y113.285 E.0168
G1 X119.484 Y112.845 E.02555
G1 X118.84 Y112.35 E.02545
G1 X118.437 Y111.993 E.01689
G1 X118.054 Y111.612 E.01694
G1 X117.692 Y111.21 E.01694
G1 X117.357 Y110.792 E.0168
G1 X116.893 Y110.122 E.02555
G1 X116.489 Y109.418 E.02545
G1 X116.254 Y108.933 E.0169
G1 X116.047 Y108.436 E.01689
G1 X115.788 Y107.665 E.0255
G1 X115.653 Y107.143 E.01689
G1 X115.547 Y106.615 E.01689
G1 X115.444 Y105.804 E.02563
G1 X115.414 Y105.27 E.01676
G1 X115.414 Y104.73 E.01694
G1 X115.444 Y104.19 E.01694
G1 X115.505 Y103.658 E.01681
G1 X115.653 Y102.855 E.02559
G1 X115.788 Y102.334 E.01689
G1 X115.952 Y101.823 E.0168
G1 X116.255 Y101.065 E.0256
G1 X116.489 Y100.58 E.0169
G1 X116.75 Y100.112 E.0168
G1 X117.195 Y99.428 E.0256
G1 X117.52 Y98.998 E.01689
G1 X117.867 Y98.59 E.0168
G1 X118.438 Y98.006 E.0256
G1 X118.841 Y97.649 E.01689
G1 X119.264 Y97.315 E.01689
G1 X119.935 Y96.857 E.02545
G1 X120.642 Y96.458 E.02546
G1 X121.128 Y96.226 E.01689
G1 X121.627 Y96.023 E.0169
G1 X122.4 Y95.769 E.0255
G1 X122.923 Y95.638 E.01689
G1 X123.452 Y95.536 E.0169
G1 X124.259 Y95.439 E.0255
G1 X124.797 Y95.412 E.0169
G1 X125.333 Y95.416 E.0168
G1 X126.147 Y95.479 E.0256
G1 X126.68 Y95.558 E.01689
G1 X127.209 Y95.668 E.01694
G1 X127.731 Y95.807 E.01694
G1 X128.24 Y95.974 E.0168
G1 X128.995 Y96.282 E.02555
G1 X129.718 Y96.651 E.02545
G1 X130.18 Y96.929 E.0169
G1 X130.626 Y97.234 E.01694
G1 X131.054 Y97.563 E.01695
G1 X131.462 Y97.915 E.01689
G1 X132.04 Y98.488 E.0255
G1 X132.394 Y98.893 E.01689
G1 X132.726 Y99.318 E.0169
G1 X133.179 Y99.993 E.0255
G1 X133.448 Y100.461 E.01689
G1 X133.688 Y100.94 E.0168
G1 X133.882 Y101.405 E.01581
G1 X134.09 Y101.971 E.01891
G1 X134.267 Y102.538 E.01863
G1 X134.422 Y103.235 E.02239
G1 X134.507 Y103.803 E.01799
G1 X134.568 Y104.411 E.01918
G1 X134.585 Y105.179 E.02407
M204 S1000
G1 X134.236 Y105.435 F10800
;WIPE_START
G1 F8640
G1 X134.566 Y105.675 E-.11462
G1 X134.514 Y106.205 E-.12297
G1 X134.376 Y107.013 E-.18928
G1 X134.248 Y107.536 E-.12438
G1 X134.091 Y108.052 E-.12443
G1 X133.961 Y108.393 E-.08432
;WIPE_END
G1 E-.04 F2100
G1 Z.6 F720
G1 X125.275 Y99.079 F10800
G1 Z.2 F720
G1 E.8 F2100
M204 S800
;TYPE:Perimeter
G1 F1200
G1 X126.332 Y99.217 E.0334
G1 X127.482 Y99.606 E.03808
G1 X128.533 Y100.232 E.03835
G1 X129.32 Y100.931 E.03302
G1 X130.071 Y101.912 E.03872
G1 X130.562 Y102.924 E.03526
G1 X130.853 Y104.017 E.03547
G1 X130.932 Y105.178 E.03649
G1 X130.783 Y106.332 E.03648
G1 X130.412 Y107.434 E.03648
G1 X130.128 Y107.981 E.01932
G1 X129.683 Y108.649 E.02517
G1 X129.061 Y109.329 E.02887
G1 X128.148 Y110.031 E.03614
G1 X127.106 Y110.549 E.03648
G1 X125.983 Y110.853 E.03648
G1 X125.337 Y110.923 E.02036
G1 X124.568 Y110.92 E.02413
G1 X123.657 Y110.782 E.02887
G1 X122.566 Y110.412 E.03613
G1 X121.556 Y109.833 E.03648
G1 X120.92 Y109.282 E.02641
G1 X120.544 Y108.908 E.01661
G1 X119.969 Y108.148 E.0299
G1 X119.413 Y107.002 E.03994
G1 X119.147 Y105.983 E.033
G1 X119.085 Y105.116 E.02725
G1 X119.091 Y104.522 E.01864
G1 X119.142 Y104.038 E.01524
G1 X119.278 Y103.421 E.01982
G1 X119.591 Y102.555 E.02887
G1 X119.921 Y101.927 E.02225
G1 X120.317 Y101.351 E.02191
G1 X120.939 Y100.671 E.02887
G1 X121.875 Y99.953 E.03701
G1 X122.998 Y99.413 E.03908
G1 X124.017 Y99.147 E.03302
G1 X125.216 Y99.072 E.03765
M204 S1000
G1 X125.377 Y99.465 F10800
M204 S800
;TYPE:External perimeter
G1 F1200
G1 X126.28 Y99.59 E.02859
G1 X127.344 Y99.959 E.03532
G1 X128.253 Y100.492 E.03302
G1 X129.095 Y101.24 E.03532
G1 X129.73 Y102.08 E.03302
G1 X130.214 Y103.069 E.03451
G1 X130.494 Y104.149 E.03498
G1 X130.556 Y105.2 E.03302
G1 X130.41 Y106.28 E.03417
G1 X130.056 Y107.311 E.03417
G1 X129.796 Y107.803 E.01746
G1 X129.373 Y108.433 E.02378
G1 X128.784 Y109.073 E.02725
G1 X127.92 Y109.73 E.03406
G1 X126.941 Y110.209 E.03417
G1 X125.888 Y110.488 E.03417
G1 X125.3 Y110.548 E.01851
G1 X124.575 Y110.543 E.02274
G1 X123.716 Y110.409 E.02725
G1 X122.689 Y110.056 E.03405
G1 X121.747 Y109.508 E.03417
G1 X121.17 Y109 E.0241
G1 X120.845 Y108.681 E.0143
G1 X120.27 Y107.92 E.0299
G1 X119.778 Y106.907 E.03533
G1 X119.512 Y105.888 E.033
G1 X119.462 Y105.094 E.02494
G1 X119.466 Y104.559 E.01679
G1 X119.597 Y103.725 E.02645
G1 X119.753 Y103.207 E.01695
G1 X119.945 Y102.686 E.01743
G1 X120.254 Y102.105 E.02063
G1 X120.627 Y101.567 E.02052
G1 X121.216 Y100.927 E.02725
M73 Q3 S14
G1 X122.091 Y100.261 E.0345
G1 X123.093 Y99.778 E.03488
G1 X124.112 Y99.512 E.03302
G1 X125.237 Y99.446 E.03532
G1 X125.317 Y99.457 E.00254
M204 S1000
G1 X125.603 Y99.136 F10800
;WIPE_START
G1 F8640
M73 P3 R14
G1 X126.28 Y99.59 E-.22443
G1 X127.344 Y99.959 E-.26012
G1 X128.253 Y100.492 E-.24315
G1 X128.357 Y100.585 E-.0323
;WIPE_END
G1 E-.04 F2100
G1 Z.6 F720
G1 X130.053 Y97.436 F10800
G1 Z.2 F720
G1 E.8 F2100
M204 S800
;TYPE:Solid infill
;WIDTH:0.422645
G1 F1200
G1 X131.571 Y98.955 E.06783
G1 X131.885 Y99.314 E.01505
G1 X132.191 Y99.706 E.01569
G1 X132.619 Y100.342 E.02421
G1 X132.879 Y100.8 E.01663
G1 X129.214 Y97.135 E.16365
G1 X128.72 Y96.882 E.01753
G1 X128.222 Y96.679 E.01698
G1 X133.323 Y101.781 E.22779
G1 X133.596 Y102.59 E.02697
G1 X127.41 Y96.405 E.2762
G1 X126.706 Y96.238 E.02284
G1 X133.762 Y103.293 E.31506
G1 X133.856 Y103.925 E.02016
G1 X126.066 Y96.135 E.34786
G1 X125.484 Y96.09 E.01843
G1 X133.911 Y104.517 E.37629
G1 X133.926 Y105.069 E.01745
G1 X124.931 Y96.073 E.40169
G1 X124.413 Y96.092 E.01636
G1 X127.768 Y99.447 E.14982
G1 X128.653 Y99.966 E.03239
G1 X129.571 Y100.781 E.03875
G1 X130.307 Y101.755 E.03857
G1 X130.524 Y102.204 E.01572
G1 X133.909 Y105.589 E.15116
G1 X133.863 Y106.08 E.01557
