; generated by PrusaSlicer 2.5.0+win64 on 2023-01-24 at 11:14:24 UTC


;
;
; 

; external perimeters extrusion width = 0.50mm
; perimeters extrusion width = 0.50mm
; infill extrusion width = 0.50mm
; solid infill extrusion width = 0.50mm
; top infill extrusion width = 0.50mm
; first layer extrusion width = 0.50mm

M73 P0 R16
M73 Q0 S16
M201 X1000 Y1000 Z200 E5000 ; sets maximum accelerations, mm/sec^2
M203 X200 Y200 Z12 E120 ; sets maximum feedrates, mm / sec
M204 P1250 R1250 T1250 ; sets acceleration (P, T) and retract acceleration (R), mm/sec^2
M205 X8.00 Y8.00 Z0.40 E4.50 ; sets the jerk limits, mm/sec
M205 S0 T0 ; sets the minimum extruding and travel feed rate, mm/sec
M107
;TYPE:Custom
M862.3 P "MK3S" ; printer model check
M862.1 P0.4 ; nozzle diameter check
M115 U3.11.0 ; tell printer latest fw version
G90 ; use absolute coordinates
M83 ; extruder relative mode
M104 S215 ; set extruder temp
M140 S60 ; set bed temp
M190 S60 ; wait for bed temp
M109 S215 ; wait for extruder temp
G28 W ; home all without mesh bed level
G80 ; mesh bed leveling

G1 Z0.2 F720
G1 Y-3 F1000 ; go outside print area
G92 E0
G1 X60 E9 F1000 ; intro line
G1 X100 E12.5 F1000 ; intro line

G92 E0
M221 S95

; Don't change E values below. Excessive value can damage the printer.
M907 E430 ; set extruder motor current
G21 ; set units to millimeters
G90 ; use absolute coordinates
M83 ; use relative distances for extrusion
M900 K0.05 ; Filament gcode LA 1.5
M900 K30 ; Filament gcode LA 1.0
M107
;LAYER_CHANGE
;Z:0.2
;HEIGHT:0.2
;BEFORE_LAYER_CHANGE
G92 E0.0
;0.2


G1 E-.8 F2100
G1 Z.4 F720
;AFTER_LAYER_CHANGE
;0.2
G1 X116.931 Y99.24 F10800
G1 Z.2 F720
G1 E.8 F2100
M204 S800
;TYPE:Skirt/Brim
;WIDTH:0.5
G1 F1200
G1 X118.084 Y97.896 E.06729
G1 X118.824 Y97.245 E.03749
G1 X119.655 Y96.65 E.03885
G1 X121.35 Y95.783 E.07234
G1 X122.294 Y95.463 E.0379
G1 X123.273 Y95.238 E.03817
G1 X125.25 Y95.09 E.07534
G1 X127.043 Y95.299 E.06863
G1 X127.998 Y95.551 E.03751
G1 X128.954 Y95.909 E.03882
G1 X129.854 Y96.356 E.03817
G1 X130.703 Y96.891 E.03817
G1 X132.151 Y98.134 E.07252
G1 X132.806 Y98.889 E.03799
G1 X133.384 Y99.71 E.03817
G1 X133.876 Y100.586 E.03817
G1 X134.275 Y101.5 E.0379
G1 X134.752 Y103.217 E.06774
G1 X134.882 Y104.213 E.03817
G1 X134.911 Y105.217 E.03817
G1 X134.838 Y106.218 E.03817
G1 X134.664 Y107.207 E.03817
G1 X134.392 Y108.174 E.03817
G1 X134.022 Y109.108 E.03817
G1 X133.56 Y110 E.03817
G1 X133.011 Y110.84 E.03817
G1 X131.744 Y112.266 E.07251
G1 X130.344 Y113.35 E.06729
G1 X128.569 Y114.249 E.07558
G1 X126.715 Y114.764 E.07317
G1 X125.718 Y114.888 E.03817
G1 X124.714 Y114.91 E.03817
G1 X123.725 Y114.831 E.03772
G1 X122.725 Y114.649 E.03862
G1 X121.76 Y114.37 E.03817
G1 X120.833 Y113.996 E.03799
G1 X119.296 Y113.109 E.06747
G1 X118.518 Y112.501 E.03751
M73 Q1 S16
G1 X117.78 Y111.795 E.03882
G1 X117.13 Y111.029 E.03817
G1 X116.569 Y110.216 E.03754
G1 X115.72 Y108.489 E.07314
G1 X115.415 Y107.533 E.03817
G1 X115.208 Y106.554 E.03799
M73 P1 R16
G1 X115.088 Y104.783 E.06747
G1 X115.161 Y103.782 E.03817
G1 X115.331 Y102.809 E.03754
G1 X115.936 Y100.982 E.07314
G1 X116.384 Y100.096 E.03772
G1 X116.898 Y99.29 E.03634
M204 S1000
G1 X117.296 Y99.518 F10800
M204 S800
G1 F1200
G1 X118.399 Y98.228 E.0645
G1 X119.897 Y97.038 E.07272
G1 X121.523 Y96.205 E.06943
G1 X123.357 Y95.687 E.07243
G1 X125.242 Y95.547 E.07183
G1 X126.944 Y95.745 E.06512
G1 X128.767 Y96.326 E.07273
G1 X130.436 Y97.262 E.07272
G1 X131.825 Y98.455 E.06959
G1 X133.001 Y99.959 E.07257
G1 X133.849 Y101.666 E.07243
G1 X134.301 Y103.294 E.06422
G1 X134.454 Y105.201 E.07272
G1 X134.22 Y107.1 E.07272
G1 X133.609 Y108.913 E.07272
G1 X132.645 Y110.566 E.07272
G1 X131.429 Y111.935 E.06958
G1 X130.102 Y112.962 E.06378
G1 X128.41 Y113.82 E.0721
G1 X126.63 Y114.315 E.07021
G1 X124.722 Y114.453 E.07272
G1 X122.824 Y114.203 E.07273
G1 X121.02 Y113.579 E.07257
G1 X119.563 Y112.738 E.06393
G1 X118.117 Y111.485 E.07272
G1 X116.961 Y109.98 E.07213
G1 X116.146 Y108.323 E.07018
G1 X115.659 Y106.477 E.07257
G1 X115.545 Y104.799 E.06393
G1 X115.776 Y102.915 E.07213
G1 X116.356 Y101.162 E.07018
G1 X117.266 Y99.57 E.06971
M204 S1000
; printing object Barrel Plug 25mm .stl id:0 copy 0
;WIPE_START
G1 F8640
G1 X118.399 Y98.228 E-.40549
G1 X119.601 Y97.273 E-.35451
;WIPE_END
G1 E-.04 F2100
G1 Z.6 F720
G1 X130.34 Y103.278 F10800
G1 Z.2 F720
G1 E.8 F2100
M204 S800
;TYPE:Perimeter
;WIDTH:0.499999
G1 F1200
G1 X130.482 Y103.73 E.01798
G1 X130.575 Y104.242 E.0198
G1 X130.632 Y105.075 E.03174
G1 X130.532 Y106.06 E.03761
G1 X130.403 Y106.596 E.02095
G1 X130.214 Y107.134 E.02169
G1 X129.971 Y107.651 E.02169
G1 X129.678 Y108.14 E.02169
G1 X129.336 Y108.597 E.02169
G1 X128.95 Y109.018 E.02169
G1 X128.523 Y109.397 E.02169
G1 X128.06 Y109.731 E.02169
G1 X127.566 Y110.016 E.02169
G1 X127.045 Y110.25 E.02169
G1 X126.504 Y110.43 E.02169
G1 X125.947 Y110.554 E.02169
G1 X125.38 Y110.621 E.02169
G1 X124.828 Y110.631 E.02096
G1 X123.847 Y110.514 E.03758
G1 X123.313 Y110.376 E.02096
G1 X122.778 Y110.178 E.02169
G1 X122.265 Y109.926 E.02169
G1 X121.781 Y109.624 E.02169
G1 X121.329 Y109.275 E.02169
G1 X120.916 Y108.882 E.02169
G1 X120.544 Y108.449 E.02169
G1 X120.218 Y107.98 E.02169
G1 X119.941 Y107.481 E.02169
G1 X119.716 Y106.957 E.02169
G1 X119.545 Y106.412 E.02169
G1 X119.434 Y105.872 E.02096
G1 X119.367 Y104.886 E.03758
G1 X119.405 Y104.335 E.02096
G1 X119.5 Y103.773 E.02169
G1 X119.653 Y103.223 E.02169
G1 X119.86 Y102.691 E.02169
G1 X120.12 Y102.183 E.02169
G1 X120.43 Y101.704 E.02169
G1 X120.775 Y101.273 E.02096
G1 X121.492 Y100.592 E.03758
G1 X121.939 Y100.269 E.02096
G1 X122.433 Y99.984 E.02169
G1 X122.954 Y99.75 E.02169
G1 X123.495 Y99.57 E.02169
G1 X124.052 Y99.446 E.02169
G1 X124.619 Y99.379 E.0217
G1 X125.163 Y99.369 E.02066
G1 X126.153 Y99.486 E.03789
G1 X126.686 Y99.624 E.02094
G1 X127.221 Y99.822 E.02169
G1 X127.734 Y100.074 E.02169
G1 X128.218 Y100.376 E.02169
G1 X128.67 Y100.725 E.02169
G1 X129.083 Y101.118 E.02169
G1 X129.455 Y101.551 E.02169
G1 X129.781 Y102.02 E.02169
G1 X130.049 Y102.502 E.02096
G1 X130.322 Y103.221 E.02924
M204 S1000
G1 X130.775 Y103.142 F10800
M204 S800
G1 F1200
G1 X130.926 Y103.622 E.01915
G1 X131.035 Y104.23 E.02344
G1 X131.09 Y105.091 E.03279
G1 X130.984 Y106.137 E.03996
G1 X130.842 Y106.725 E.02301
G1 X130.638 Y107.308 E.02345
G1 X130.375 Y107.866 E.02345
G1 X130.058 Y108.395 E.02345
G1 X129.688 Y108.89 E.02346
G1 X129.271 Y109.344 E.02345
G1 X128.809 Y109.754 E.02345
G1 X128.309 Y110.115 E.02345
G1 X127.774 Y110.423 E.02345
G1 X127.211 Y110.676 E.02345
G1 X126.626 Y110.871 E.02345
G1 X126.024 Y111.005 E.02345
G1 X125.411 Y111.078 E.02345
G1 X124.805 Y111.088 E.02302
G1 X123.762 Y110.964 E.03993
G1 X123.176 Y110.813 E.02301
G1 X122.597 Y110.598 E.02346
G1 X122.043 Y110.327 E.02345
G1 X121.519 Y110 E.02345
G1 X121.031 Y109.622 E.02345
G1 X120.584 Y109.197 E.02345
G1 X120.182 Y108.729 E.02346
G1 X119.83 Y108.222 E.02345
G1 X119.53 Y107.683 E.02345
G1 X119.287 Y107.116 E.02345
G1 X119.102 Y106.527 E.02345
G1 X118.98 Y105.934 E.02302
G1 X118.909 Y104.886 E.03993
G1 X118.95 Y104.281 E.02301
G1 X119.054 Y103.673 E.02345
G1 X119.219 Y103.078 E.02345
G1 X119.443 Y102.503 E.02345
G1 X119.724 Y101.954 E.02345
G1 X120.059 Y101.436 E.02345
G1 X120.438 Y100.963 E.02302
G1 X121.199 Y100.239 E.03993
G1 X121.69 Y99.885 E.02301
G1 X122.225 Y99.577 E.02346
G1 X122.788 Y99.324 E.02345
G1 X123.373 Y99.129 E.02345
G1 X123.975 Y98.995 E.02345
G1 X124.588 Y98.922 E.02346
G1 X125.186 Y98.912 E.02271
G1 X126.237 Y99.036 E.04024
G1 X126.823 Y99.187 E.023
G1 X127.402 Y99.402 E.02345
G1 X127.956 Y99.674 E.02345
G1 X128.48 Y100 E.02345
G1 X128.968 Y100.378 E.02345
G1 X129.415 Y100.803 E.02345
G1 X129.817 Y101.271 E.02345
G1 X130.169 Y101.778 E.02346
G1 X130.463 Y102.307 E.02302
G1 X130.757 Y103.084 E.03158
M204 S1000
G1 X131.228 Y103.009 F10800
M204 S800
;TYPE:External perimeter
G1 F1200
G1 X131.282 Y103.149 E.00569
G1 X131.37 Y103.515 E.01433
G1 X131.488 Y104.168 E.0252
G1 X131.548 Y105.106 E.03573
G1 X131.436 Y106.214 E.04231
G1 X131.281 Y106.855 E.02507
G1 X131.061 Y107.481 E.02522
G1 X130.779 Y108.081 E.02522
G1 X130.438 Y108.65 E.02522
G1 X130.04 Y109.182 E.02522
G1 X129.592 Y109.67 E.02521
G1 X129.095 Y110.111 E.02522
G1 X128.557 Y110.499 E.02522
G1 X127.983 Y110.831 E.02521
G1 X127.378 Y111.103 E.02522
G1 X126.748 Y111.312 E.02522
G1 X126.101 Y111.456 E.02522
G1 X125.442 Y111.535 E.02522
G1 X124.782 Y111.546 E.02507
G1 X123.677 Y111.415 E.04228
G1 X123.039 Y111.249 E.02507
G1 X122.417 Y111.019 E.02522
G1 X121.821 Y110.727 E.02522
G1 X121.258 Y110.376 E.02522
G1 X120.733 Y109.97 E.02521
G1 X120.252 Y109.513 E.02522
G1 X119.82 Y109.009 E.02522
G1 X119.441 Y108.465 E.02521
G1 X119.119 Y107.884 E.02522
G1 X118.858 Y107.275 E.02522
G1 X118.659 Y106.642 E.02522
G1 X118.526 Y105.995 E.02508
G1 X118.451 Y104.886 E.04228
G1 X118.496 Y104.227 E.02507
G1 X118.607 Y103.573 E.02522
G1 X118.784 Y102.934 E.02521
G1 X119.025 Y102.316 E.02522
G1 X119.327 Y101.725 E.02522
G1 X119.688 Y101.168 E.02522
G1 X120.1 Y100.653 E.02508
G1 X120.907 Y99.887 E.04228
G1 X121.442 Y99.501 E.02507
G1 X122.016 Y99.169 E.02522
G1 X122.621 Y98.897 E.02521
G1 X123.251 Y98.688 E.02522
G1 X123.898 Y98.544 E.02521
G1 X124.557 Y98.465 E.02522
G1 X125.209 Y98.454 E.02476
G1 X126.322 Y98.585 E.0426
G1 X126.96 Y98.751 E.02507
G1 X127.582 Y98.981 E.02522
G1 X128.178 Y99.273 E.02522
M73 Q2 S16
G1 X128.741 Y99.624 E.02521
G1 X129.266 Y100.03 E.02522
G1 X129.747 Y100.487 E.02522
G1 X130.179 Y100.991 E.02522
G1 X130.558 Y101.535 E.02522
G1 X130.878 Y102.112 E.02507
G1 X131.206 Y102.954 E.03431
M204 S1000
G1 X131.136 Y103.128 F10800
;WIPE_START
G1 F8640
M73 P2 R16
G1 X131.282 Y103.149 E-.0484
G1 X131.37 Y103.515 E-.08705
G1 X131.488 Y104.168 E-.15312
G1 X131.548 Y105.106 E-.21705
G1 X131.437 Y106.202 E-.25438
;WIPE_END
G1 E-.04 F2100
G1 Z.6 F720
G1 X127.679 Y100.201 F10800
G1 Z.2 F720
G1 E.8 F2100
M204 S800
;TYPE:Solid infill
;WIDTH:0.502764
G1 F1200
G1 X128.845 Y101.367 E.06302
G1 X129.184 Y101.761 E.01988
G1 X129.49 Y102.201 E.0205
G1 X129.738 Y102.648 E.01954
G1 X129.905 Y103.077 E.01761
G1 X126.895 Y100.067 E.16278
G1 X126.583 Y99.952 E.01269
G1 X125.989 Y99.812 E.02334
G1 X130.199 Y104.022 E.22765
G1 X130.272 Y104.554 E.02052
G1 X130.278 Y104.751 E.00756
G1 X125.252 Y99.725 E.2718
G1 X125.146 Y99.712 E.00409
G1 X124.603 Y99.726 E.02077
G1 X130.257 Y105.38 E.30575
G1 X130.197 Y105.97 E.02269
M73 P2 R15
G1 X124.029 Y99.802 E.33353
G1 X123.505 Y99.928 E.02062
G1 X130.074 Y106.498 E.35524
G1 X129.905 Y106.979 E.0195
G1 X123.021 Y100.096 E.37223
G1 X122.574 Y100.299 E.01878
G1 X129.699 Y107.424 E.38529
G1 X129.461 Y107.835 E.0182
G1 X122.162 Y100.537 E.39468
G1 X121.781 Y100.806 E.01784
G1 X129.192 Y108.217 E.40075
G1 X128.895 Y108.57 E.01765
M73 Q2 S15
G1 X121.439 Y101.115 E.40316
G1 X121.106 Y101.432 E.01759
G1 X128.57 Y108.896 E.40363
G1 X128.218 Y109.194 E.01764
G1 X120.806 Y101.782 E.40078
G1 X120.539 Y102.166 E.01786
G1 X127.837 Y109.463 E.39462
G1 X127.425 Y109.702 E.0182
G1 X120.302 Y102.579 E.38514
G1 X120.098 Y103.025 E.01875
G1 X126.977 Y109.904 E.37201
G1 X126.494 Y110.072 E.01955
G1 X119.93 Y103.507 E.35498
G1 X119.804 Y104.032 E.02063
G1 X125.97 Y110.198 E.33342
G1 X125.396 Y110.274 E.02213
G1 X119.73 Y104.608 E.30642
M73 Q3 S15
G1 X119.711 Y104.886 E.01065
M73 P3 R15
G1 X119.737 Y105.265 E.01453
G1 X124.748 Y110.276 E.27098
G1 X124.01 Y110.188 E.02842
G1 X119.807 Y105.986 E.22724
G1 X119.877 Y106.326 E.01328
G1 X120.06 Y106.889 E.0226
G1 X123.104 Y109.933 E.16464
G1 X122.913 Y109.862 E.0078
G1 X122.432 Y109.626 E.02049
G1 X121.977 Y109.343 E.02049
G1 X121.553 Y109.015 E.02049
G1 X120.217 Y107.696 E.07176
M204 S1000
; stop printing object Barrel Plug 25mm .stl id:0 copy 0
M106 S84.15
;LAYER_CHANGE
;Z:0.4
;HEIGHT:0.2
;BEFORE_LAYER_CHANGE
G92 E0.0
;0.4


;WIPE_START
G1 F8640
G1 X121.553 Y109.015 E-.43336
G1 X121.977 Y109.343 E-.12375
G1 X122.432 Y109.626 E-.12376
G1 X122.739 Y109.777 E-.07912
;WIPE_END
G1 E-.04 F2100
G1 Z.6 F720
;AFTER_LAYER_CHANGE
;0.4
M104 S210 ; set temperature
G1 X120.437 Y113.767 F10800
G1 Z.4 F720
G1 E.8 F2100
;TYPE:Skirt/Brim
;WIDTH:0.5
G1 F2135
G1 X119.296 Y113.109 E.05008
G1 X118.518 Y112.501 E.03751
G1 X117.78 Y111.795 E.03882
G1 X117.13 Y111.029 E.03817
G1 X116.569 Y110.216 E.03754
G1 X115.72 Y108.489 E.07314
G1 X115.415 Y107.533 E.03817
G1 X115.208 Y106.554 E.03799
G1 X115.088 Y104.783 E.06747
G1 X115.161 Y103.782 E.03817
G1 X115.331 Y102.809 E.03754
G1 X115.936 Y100.982 E.07314
G1 X116.384 Y100.096 E.03772
G1 X116.931 Y99.24 E.03862
G1 X118.084 Y97.896 E.06729
G1 X118.824 Y97.245 E.03749
G1 X119.655 Y96.65 E.03885
G1 X121.35 Y95.783 E.07234
G1 X122.294 Y95.463 E.0379
G1 X123.273 Y95.238 E.03817
G1 X125.25 Y95.09 E.07534
G1 X127.043 Y95.299 E.06863
G1 X127.998 Y95.551 E.03751
G1 X128.954 Y95.909 E.03882
G1 X129.854 Y96.356 E.03817
G1 X130.703 Y96.891 E.03817
G1 X132.151 Y98.134 E.07252
G1 X132.806 Y98.889 E.03799
G1 X133.384 Y99.71 E.03817
G1 X133.876 Y100.586 E.03817
G1 X134.275 Y101.5 E.0379
G1 X134.752 Y103.217 E.06774
G1 X134.882 Y104.213 E.03817
G1 X134.911 Y105.217 E.03817
G1 X134.838 Y106.218 E.03817
G1 X134.664 Y107.207 E.03817
G1 X134.392 Y108.174 E.03817
G1 X134.022 Y109.108 E.03817
G1 X133.56 Y110 E.03817
G1 X133.011 Y110.84 E.03817
G1 X131.744 Y112.266 E.07251
G1 X130.344 Y113.35 E.06729
G1 X128.569 Y114.249 E.07558
G1 X126.715 Y114.764 E.07317
G1 X125.718 Y114.888 E.03817
G1 X124.714 Y114.91 E.03817
G1 X123.725 Y114.831 E.03772
G1 X122.725 Y114.649 E.03862
G1 X121.76 Y114.37 E.03817
G1 X120.833 Y113.996 E.03799
G1 X120.489 Y113.797 E.01511
G1 X120.716 Y113.403 F10800
G1 F2135
G1 X119.563 Y112.738 E.0506
G1 X118.117 Y111.485 E.07272
G1 X116.961 Y109.98 E.07213
G1 X116.146 Y108.323 E.07018
G1 X115.659 Y106.477 E.07257
G1 X115.545 Y104.799 E.06393
G1 X115.776 Y102.915 E.07213
G1 X116.356 Y101.162 E.07018
G1 X117.306 Y99.501 E.07272
G1 X118.399 Y98.228 E.06378
G1 X119.897 Y97.038 E.07272
G1 X121.523 Y96.205 E.06943
G1 X123.357 Y95.687 E.07243
G1 X125.242 Y95.547 E.07183
G1 X126.944 Y95.745 E.06512
G1 X128.767 Y96.326 E.07273
G1 X130.436 Y97.262 E.07272
G1 X131.825 Y98.455 E.06959
G1 X133.001 Y99.959 E.07257
G1 X133.849 Y101.666 E.07243
G1 X134.301 Y103.294 E.06422
G1 X134.454 Y105.201 E.07272
G1 X134.22 Y107.1 E.07272
G1 X133.609 Y108.913 E.07272
G1 X132.645 Y110.566 E.07272
G1 X131.429 Y111.935 E.06958
G1 X130.102 Y112.962 E.06378
G1 X128.41 Y113.82 E.0721
G1 X126.63 Y114.315 E.07021
G1 X124.722 Y114.453 E.07272
G1 X122.824 Y114.203 E.07273
G1 X121.02 Y113.579 E.07257
G1 X120.768 Y113.433 E.01104
; printing object Barrel Plug 25mm .stl id:0 copy 0
;WIPE_START
G1 F8640
G1 X119.563 Y112.738 E-.32128
G1 X118.127 Y111.494 E-.43872
;WIPE_END
G1 E-.04 F2100
G1 Z.8 F720
G1 X130.539 Y103.191 F10800
G1 Z.4 F720
G1 E.8 F2100
M204 S800
;TYPE:Perimeter
;WIDTH:0.499999
G1 F1500
G1 X130.648 Y103.539 E.01384
G1 X130.763 Y104.094 E.02157
G1 X130.82 Y104.711 E.02353
G1 X130.812 Y105.403 E.02632
G1 X130.732 Y106.053 E.02491
G1 X130.598 Y106.645 E.02305
G1 X130.399 Y107.21 E.02276
G1 X130.148 Y107.745 E.02246
G1 X129.844 Y108.252 E.02246
G1 X129.49 Y108.725 E.02246
G1 X129.09 Y109.16 E.02246
G1 X128.648 Y109.553 E.02246
G1 X128.169 Y109.898 E.02246
G1 X127.657 Y110.194 E.02246
G1 X127.118 Y110.436 E.02246
G1 X126.557 Y110.623 E.02246
G1 X125.98 Y110.751 E.02246
G1 X125.393 Y110.821 E.02246
G1 X124.802 Y110.831 E.02246
G1 X124.214 Y110.781 E.02246
G1 X123.633 Y110.672 E.02246
G1 X123.066 Y110.505 E.02246
G1 X122.519 Y110.281 E.02246
G1 X122.014 Y110.012 E.02173
G1 X121.45 Y109.605 E.02644
G1 X120.948 Y109.188 E.02478
G1 X120.565 Y108.78 E.02128
G1 X120.211 Y108.32 E.02208
G1 X119.899 Y107.817 E.02247
G1 X119.615 Y107.229 E.02483
G1 X119.406 Y106.66 E.02305
G1 X119.266 Y106.078 E.02276
G1 X119.186 Y105.492 E.02246
G1 X119.166 Y104.901 E.02246
G1 X119.206 Y104.312 E.02246
G1 X119.305 Y103.729 E.02246
G1 X119.463 Y103.16 E.02246
G1 X119.678 Y102.609 E.02246
G1 X119.947 Y102.083 E.02246
G1 X120.268 Y101.586 E.0225
G1 X120.758 Y100.998 E.02908
G1 X121.13 Y100.643 E.01954
G1 X121.591 Y100.274 E.02243
