; generated by PrusaSlicer 2.5.0+win64 on 2023-01-19 at 11:37:55 UTC


;
;
; 

; external perimeters extrusion width = 0.45mm
; perimeters extrusion width = 0.45mm
; infill extrusion width = 0.45mm
; solid infill extrusion width = 0.45mm
; top infill extrusion width = 0.40mm
; first layer extrusion width = 0.42mm

M73 P0 R7
M73 Q0 S7
M201 X1000 Y1000 Z200 E5000 ; sets maximum accelerations, mm/sec^2
M203 X200 Y200 Z12 E120 ; sets maximum feedrates, mm / sec
M204 P1250 R1250 T1250 ; sets acceleration (P, T) and retract acceleration (R), mm/sec^2
M205 X8.00 Y8.00 Z0.40 E4.50 ; sets the jerk limits, mm/sec
M205 S0 T0 ; sets the minimum extruding and travel feed rate, mm/sec
M107
;TYPE:Custom
M862.3 P "MK3S" ; printer model check
M862.1 P0.4 ; nozzle diameter check
M115 U3.11.0 ; tell printer latest fw version
G90 ; use absolute coordinates
M83 ; extruder relative mode
M104 S215 ; set extruder temp
M140 S60 ; set bed temp
M190 S60 ; wait for bed temp
M109 S215 ; wait for extruder temp
G28 W ; home all without mesh bed level
G80 ; mesh bed leveling

G1 Z0.2 F720
G1 Y-3 F1000 ; go outside print area
G92 E0
G1 X60 E9 F1000 ; intro line
G1 X100 E12.5 F1000 ; intro line

G92 E0
M221 S95

; Don't change E values below. Excessive value can damage the printer.
M907 E430 ; set extruder motor current
G21 ; set units to millimeters
G90 ; use absolute coordinates
M83 ; use relative distances for extrusion
M900 K0.05 ; Filament gcode LA 1.5
M900 K30 ; Filament gcode LA 1.0
M107
;LAYER_CHANGE
;Z:0.2
;HEIGHT:0.2
;BEFORE_LAYER_CHANGE
G92 E0.0
;0.2


G1 E-.8 F2100
M73 P1 R7
M73 Q1 S7
G1 Z.4 F720
;AFTER_LAYER_CHANGE
;0.2
G1 X116.753 Y99.116 F10800
G1 Z.2 F720
G1 E.8 F2100
M204 S800
;TYPE:Skirt/Brim
;WIDTH:0.42
G1 F1200
G1 X117.934 Y97.739 E.05689
G1 X118.691 Y97.073 E.0316
G1 X119.541 Y96.466 E.03275
G1 X121.267 Y95.582 E.06081
G1 X122.233 Y95.254 E.03196
G1 X123.233 Y95.024 E.03218
G1 X124.263 Y94.896 E.03255
G1 X125.253 Y94.873 E.03107
G1 X127.091 Y95.087 E.058
G1 X128.066 Y95.344 E.03162
G1 X129.043 Y95.711 E.03273
G1 X129.962 Y96.168 E.03218
G1 X130.83 Y96.715 E.03218
G1 X132.306 Y97.982 E.06097
G1 X132.975 Y98.753 E.03202
G1 X133.566 Y99.592 E.03218
G1 X134.069 Y100.486 E.03218
G1 X134.477 Y101.421 E.03196
G1 X134.966 Y103.181 E.05726
M73 Q2 S7
G1 X135.099 Y104.198 E.03218
G1 X135.128 Y105.224 E.03218
G1 X135.053 Y106.248 E.03218
G1 X134.876 Y107.258 E.03218
G1 X134.596 Y108.246 E.03218
G1 X134.219 Y109.2 E.03218
M73 P2 R7
G1 X133.747 Y110.111 E.03218
G1 X133.185 Y110.97 E.03218
G1 X131.893 Y112.424 E.06097
G1 X130.458 Y113.534 E.05689
G1 X129.582 Y114.035 E.03165
G1 X128.645 Y114.452 E.03215
G1 X126.755 Y114.978 E.06152
G1 X125.736 Y115.104 E.03218
G1 X124.71 Y115.127 E.03218
G1 X122.908 Y114.913 E.05689
G1 X121.916 Y114.65 E.03218
G1 X120.971 Y114.295 E.03165
G1 X119.26 Y113.348 E.06134
G1 X118.45 Y112.729 E.03196
G1 X117.693 Y112.018 E.03255
G1 X117.024 Y111.247 E.03202
G1 X116.439 Y110.418 E.0318
G1 X115.927 Y109.509 E.03271
G1 X115.531 Y108.601 E.03106
G1 X115.037 Y106.836 E.05747
G1 X114.902 Y105.82 E.03213
G1 X114.871 Y104.776 E.03275
G1 X114.946 Y103.752 E.03218
G1 X115.12 Y102.758 E.03165
G1 X115.737 Y100.896 E.0615
G1 X116.194 Y99.991 E.03181
G1 X116.72 Y99.166 E.03067
M204 S1000
G1 X117.049 Y99.354 F10800
M204 S800
G1 F1200
G1 X118.194 Y98.012 E.05531
G1 X119.74 Y96.786 E.06188
G1 X121.411 Y95.93 E.05884
G1 X123.302 Y95.395 E.06165
G1 X125.247 Y95.25 E.06114
G1 X127.008 Y95.455 E.05561
M73 P2 R6
G1 X128.889 Y96.055 E.06188
G1 X129.774 Y96.494 E.03098
G1 X130.61 Y97.021 E.03098
G1 X132.037 Y98.246 E.05898
G1 X133.25 Y99.797 E.06174
G1 X134.126 Y101.558 E.06165
G1 X134.594 Y103.244 E.05487
G1 X134.722 Y104.224 E.03098
G1 X134.751 Y105.211 E.03098
M73 Q2 S6
G1 X134.68 Y106.197 E.03098
G1 X134.509 Y107.17 E.03098
G1 X134.241 Y108.121 E.03098
G1 X133.877 Y109.04 E.03098
G1 X133.423 Y109.917 E.03098
G1 X132.883 Y110.744 E.03098
G1 X131.633 Y112.15 E.05898
G1 X130.259 Y113.214 E.0545
G1 X128.513 Y114.099 E.06135
G1 X126.685 Y114.607 E.05951
G1 X125.704 Y114.728 E.03098
G1 X124.717 Y114.75 E.03098
G1 X122.76 Y114.493 E.06188
G1 X120.899 Y113.85 E.06174
G1 X119.389 Y112.979 E.05464
M73 Q3 S6
G1 X117.898 Y111.686 E.06188
G1 X116.706 Y110.134 E.06137
G1 X115.869 Y108.431 E.05948
G1 X115.366 Y106.527 E.06174
M73 P3 R6
G1 X115.248 Y104.789 E.05464
G1 X115.487 Y102.846 E.06137
G1 X116.083 Y101.045 E.05948
G1 X117.019 Y99.406 E.05917
M204 S1000
G1 X117.345 Y99.593 F10800
M204 S800
G1 F1200
G1 X118.454 Y98.286 E.05374
G1 X119.94 Y97.106 E.05949
G1 X121.554 Y96.279 E.05686
G1 X123.372 Y95.766 E.05924
G1 X125.241 Y95.627 E.05875
G1 X126.926 Y95.823 E.05321
G1 X128.734 Y96.399 E.05949
G1 X130.389 Y97.327 E.05949
G1 X131.768 Y98.511 E.05698
G1 X132.934 Y100.003 E.05937
G1 X133.774 Y101.695 E.05924
G1 X134.222 Y103.307 E.05248
G1 X134.374 Y105.199 E.05949
G1 X134.142 Y107.082 E.05949
G1 X133.536 Y108.879 E.05949
G1 X132.581 Y110.518 E.05949
G1 X131.374 Y111.877 E.05698
G1 X130.059 Y112.894 E.05211
G1 X128.382 Y113.745 E.05898
G1 X126.615 Y114.237 E.05749
G1 X124.723 Y114.373 E.05949
G1 X122.842 Y114.125 E.05949
G1 X121.053 Y113.506 E.05937
G1 X119.61 Y112.673 E.05223
G1 X118.176 Y111.431 E.05949
G1 X117.029 Y109.939 E.059
G1 X116.22 Y108.294 E.05747
G1 X115.738 Y106.463 E.05937
G1 X115.625 Y104.801 E.05223
G1 X115.853 Y102.934 E.059
G1 X116.43 Y101.194 E.05747
G1 X117.315 Y99.645 E.05595
M204 S1000
; printing object Barrel Plug LDPE.stl id:0 copy 0
;WIPE_START
G1 F8640
G1 X118.454 Y98.286 E-.40937
G1 X119.643 Y97.341 E-.35063
;WIPE_END
G1 E-.04 F2100
G1 Z.6 F720
G1 X130.845 Y102.964 F10800
G1 Z.2 F720
G1 E.8 F2100
M204 S800
;TYPE:Perimeter
;WIDTH:0.419999
G1 F1200
M73 Q4 S6
G1 X131.043 Y103.594 E.02073
G1 X131.154 Y104.213 E.01972
G1 X131.21 Y105.095 E.02769
G1 X131.102 Y106.157 E.03347
G1 X130.957 Y106.759 E.01943
G1 X130.749 Y107.353 E.01973
G1 X130.481 Y107.923 E.01973
G1 X130.157 Y108.462 E.01973
G1 X129.781 Y108.966 E.01973
M73 P4 R6
G1 X129.355 Y109.43 E.01973
G1 X128.884 Y109.847 E.01973
G1 X128.374 Y110.216 E.01973
G1 X127.829 Y110.53 E.01973
G1 X127.255 Y110.788 E.01973
G1 X126.658 Y110.987 E.01973
G1 X126.044 Y111.124 E.01973
G1 X125.419 Y111.198 E.01973
G1 X124.799 Y111.208 E.01944
G1 X123.74 Y111.083 E.03345
G1 X123.14 Y110.927 E.01943
G1 X122.55 Y110.709 E.01973
G1 X121.985 Y110.432 E.01973
G1 X121.451 Y110.099 E.01973
G1 X120.953 Y109.714 E.01973
G1 X120.497 Y109.28 E.01973
G1 X120.087 Y108.802 E.01973
G1 X119.728 Y108.286 E.01973
G1 X119.422 Y107.736 E.01973
G1 X119.174 Y107.158 E.01973
G1 X118.986 Y106.557 E.01973
G1 X118.861 Y105.95 E.01944
G1 X118.789 Y104.886 E.03345
G1 X118.831 Y104.267 E.01943
G1 X118.937 Y103.647 E.01973
G1 X119.105 Y103.04 E.01973
G1 X119.333 Y102.454 E.01973
G1 X119.62 Y101.894 E.01973
G1 X119.961 Y101.366 E.01973
G1 X120.349 Y100.882 E.01944
G1 X121.122 Y100.147 E.03345
G1 X121.625 Y99.784 E.01943
G1 X122.17 Y99.47 E.01973
G1 X122.744 Y99.212 E.01973
G1 X123.341 Y99.013 E.01973
G1 X123.955 Y98.876 E.01973
G1 X124.58 Y98.802 E.01973
G1 X125.192 Y98.791 E.01918
G1 X126.259 Y98.917 E.03371
G1 X126.859 Y99.073 E.01942
G1 X127.449 Y99.291 E.01973
G1 X128.014 Y99.568 E.01973
G1 X128.548 Y99.901 E.01973
G1 X129.046 Y100.286 E.01973
G1 X129.502 Y100.72 E.01973
G1 X129.912 Y101.198 E.01973
G1 X130.271 Y101.714 E.01973
G1 X130.572 Y102.256 E.01943
G1 X130.826 Y102.907 E.02189
M204 S1000
G1 X131.212 Y102.858 F10800
M204 S800
;TYPE:External perimeter
G1 F1200
G1 X131.32 Y103.137 E.00937
G1 X131.409 Y103.506 E.01191
G1 X131.527 Y104.163 E.02092
G1 X131.588 Y105.107 E.02969
G1 X131.475 Y106.22 E.03508
G1 X131.319 Y106.866 E.02083
G1 X131.098 Y107.496 E.02093
G1 X130.814 Y108.1 E.02093
G1 X130.471 Y108.673 E.02093
G1 X130.071 Y109.207 E.02093
G1 X129.62 Y109.699 E.02093
G1 X129.121 Y110.142 E.02093
G1 X128.579 Y110.533 E.02093
G1 X128.001 Y110.866 E.02093
G1 X127.392 Y111.14 E.02093
G1 X126.759 Y111.351 E.02093
G1 X126.107 Y111.496 E.02093
G1 X125.444 Y111.575 E.02093
G1 X124.78 Y111.586 E.02084
G1 X123.67 Y111.454 E.03505
G1 X123.027 Y111.287 E.02083
G1 X122.401 Y111.056 E.02093
G1 X121.802 Y110.762 E.02093
G1 X121.235 Y110.409 E.02093
G1 X120.707 Y110 E.02093
G1 X120.223 Y109.54 E.02093
G1 X119.789 Y109.034 E.02093
G1 X119.407 Y108.486 E.02093
G1 X119.083 Y107.902 E.02093
G1 X118.82 Y107.289 E.02093
G1 X118.62 Y106.652 E.02093
G1 X118.486 Y106.001 E.02084
G1 X118.411 Y104.886 E.03505
G1 X118.456 Y104.223 E.02083
G1 X118.568 Y103.565 E.02093
G1 X118.746 Y102.921 E.02093
G1 X118.989 Y102.299 E.02093
G1 X119.293 Y101.705 E.02093
G1 X119.655 Y101.145 E.02093
G1 X120.071 Y100.626 E.02084
G1 X120.881 Y99.856 E.03505
G1 X121.42 Y99.467 E.02083
G1 X121.998 Y99.134 E.02093
G1 X122.607 Y98.86 E.02093
G1 X123.24 Y98.649 E.02093
G1 X123.892 Y98.504 E.02093
G1 X124.555 Y98.425 E.02093
G1 X125.211 Y98.414 E.02057
G1 X126.329 Y98.546 E.03531
G1 X126.972 Y98.713 E.02083
G1 X127.598 Y98.944 E.02093
G1 X128.198 Y99.238 E.02093
G1 X128.764 Y99.591 E.02093
G1 X129.292 Y100 E.02093
G1 X129.776 Y100.46 E.02093
G1 X130.21 Y100.966 E.02093
G1 X130.592 Y101.514 E.02093
G1 X130.914 Y102.095 E.02083
G1 X131.19 Y102.803 E.0238
M204 S1000
G1 X131.03 Y103.095 F10800
;WIPE_START
G1 F8640
G1 X131.32 Y103.137 E-.08286
G1 X131.409 Y103.506 E-.08768
G1 X131.527 Y104.163 E-.15405
G1 X131.588 Y105.107 E-.21862
G1 X131.493 Y106.042 E-.21679
;WIPE_END
G1 E-.04 F2100
G1 Z.6 F720
G1 X128.189 Y99.81 F10800
M73 Q5 S6
G1 Z.2 F720
G1 E.8 F2100
M204 S800
;TYPE:Solid infill
;WIDTH:0.425157
G1 F1200
G1 X129.318 Y100.94 E.05076
G1 X129.688 Y101.371 E.01806
M73 P5 R6
G1 X130.031 Y101.864 E.01909
G1 X130.316 Y102.377 E.01864
G1 X130.381 Y102.543 E.00568
G1 X127.439 Y99.601 E.13223
G1 X126.774 Y99.343 E.02265
G1 X126.593 Y99.296 E.00596
G1 X130.707 Y103.41 E.18493
G1 X130.826 Y103.905 E.01617
G1 X130.852 Y104.096 E.00613
G1 X125.918 Y99.162 E.22177
G1 X125.306 Y99.09 E.01962
G1 X130.914 Y104.698 E.25209
G1 X130.927 Y105.085 E.01231
G1 X130.912 Y105.236 E.00483
G1 X124.757 Y99.082 E.27664
G1 X124.26 Y99.125 E.01587
G1 X130.862 Y105.727 E.29676
G1 X130.8 Y106.206 E.01534
G1 X123.796 Y99.202 E.31482
G1 X123.359 Y99.305 E.01427
G1 X130.695 Y106.641 E.32973
G1 X130.557 Y107.044 E.01354
G1 X122.953 Y99.44 E.34179
G1 X122.572 Y99.599 E.01314
M73 Q6 S6
G1 X130.401 Y107.428 E.35191
G1 X130.228 Y107.796 E.01291
M73 P6 R6
G1 X122.207 Y99.775 E.36052
G1 X121.864 Y99.973 E.01258
G1 X130.025 Y108.133 E.36681
G1 X129.808 Y108.457 E.01238
G1 X121.543 Y100.192 E.3715
G1 X121.238 Y100.427 E.01225
G1 X129.577 Y108.767 E.37483
G1 X129.32 Y109.05 E.01216
G1 X120.961 Y100.691 E.37573
G1 X120.683 Y100.954 E.01215
G1 X129.051 Y109.322 E.37609
G1 X128.764 Y109.576 E.01217
M73 Q7 S6
G1 X120.426 Y101.238 E.37478
G1 X120.186 Y101.538 E.01223
M73 P7 R6
G1 X128.456 Y109.808 E.3717
G1 X128.135 Y110.027 E.01236
G1 X119.974 Y101.867 E.3668
G1 X119.776 Y102.209 E.01257
G1 X127.792 Y110.225 E.3603
G1 X127.427 Y110.401 E.01287
G1 X119.593 Y102.567 E.35213
G1 X119.441 Y102.955 E.01326
G1 X127.046 Y110.56 E.3418
G1 X126.64 Y110.695 E.01359
G1 X119.309 Y103.363 E.32953
G1 X119.198 Y103.794 E.01412
G1 X126.203 Y110.798 E.31485
M73 Q8 S6
G1 X125.739 Y110.875 E.01494
M73 P8 R6
G1 X119.12 Y104.256 E.29754
G1 X119.081 Y104.757 E.016
G1 X125.242 Y110.918 E.27691
G1 X124.813 Y110.925 E.01361
G1 X124.694 Y110.911 E.00382
G1 X119.102 Y105.319 E.25137
G1 X119.141 Y105.898 E.01847
G1 X124.081 Y110.838 E.22204
G1 X123.792 Y110.804 E.00924
G1 X123.406 Y110.704 E.01268
G1 X119.293 Y106.591 E.18488
G1 X119.44 Y107.059 E.0156
G1 X119.604 Y107.443 E.01328
G1 X122.56 Y110.399 E.13285
G1 X122.122 Y110.184 E.0155
G1 X121.612 Y109.866 E.01909
G1 X121.138 Y109.499 E.01909
G1 X119.795 Y108.174 E.05994
M204 S1000
; stop printing object Barrel Plug LDPE.stl id:0 copy 0
M106 S84.15
;LAYER_CHANGE
;Z:0.4
;HEIGHT:0.2
;BEFORE_LAYER_CHANGE
G92 E0.0
;0.4


;WIPE_START
G1 F8640
G1 X121.138 Y109.499 E-.43545
G1 X121.612 Y109.866 E-.13867
G1 X122.122 Y110.184 E-.13869
G1 X122.306 Y110.274 E-.04719
;WIPE_END
G1 E-.04 F2100
G1 Z.6 F720
;AFTER_LAYER_CHANGE
;0.4
M104 S210 ; set temperature
G1 X120.289 Y113.918 F10800
G1 Z.4 F720
G1 E.8 F2100
;TYPE:Skirt/Brim
;WIDTH:0.42
G1 F2573
G1 X119.26 Y113.348 E.03688
G1 X118.45 Y112.729 E.03196
G1 X117.693 Y112.018 E.03255
G1 X117.024 Y111.247 E.03202
G1 X116.439 Y110.418 E.0318
G1 X115.927 Y109.509 E.03271
G1 X115.531 Y108.601 E.03106
G1 X115.037 Y106.836 E.05747
G1 X114.902 Y105.82 E.03213
G1 X114.871 Y104.776 E.03275
G1 X114.946 Y103.752 E.03218
G1 X115.12 Y102.758 E.03165
G1 X115.737 Y100.896 E.0615
G1 X116.194 Y99.991 E.03181
G1 X116.753 Y99.116 E.03255
G1 X117.934 Y97.739 E.05689
G1 X118.691 Y97.073 E.0316
G1 X119.541 Y96.466 E.03275
G1 X121.267 Y95.582 E.06081
G1 X122.233 Y95.254 E.03196
G1 X123.233 Y95.024 E.03218
G1 X124.263 Y94.896 E.03255
G1 X125.253 Y94.873 E.03107
G1 X127.091 Y95.087 E.058
G1 X128.066 Y95.344 E.03162
G1 X129.043 Y95.711 E.03273
G1 X129.962 Y96.168 E.03218
G1 X130.83 Y96.715 E.03218
G1 X132.306 Y97.982 E.06097
G1 X132.975 Y98.753 E.03202
M73 Q9 S6
G1 X133.566 Y99.592 E.03218
G1 X134.069 Y100.486 E.03218
G1 X134.477 Y101.421 E.03196
G1 X134.966 Y103.181 E.05726
G1 X135.099 Y104.198 E.03218
G1 X135.128 Y105.224 E.03218
G1 X135.053 Y106.248 E.03218
G1 X134.876 Y107.258 E.03218
G1 X134.596 Y108.246 E.03218
G1 X134.219 Y109.2 E.03218
G1 X133.747 Y110.111 E.03218
G1 X133.185 Y110.97 E.03218
M73 P9 R6
G1 X131.893 Y112.424 E.06097
G1 X130.458 Y113.534 E.05689
G1 X129.582 Y114.035 E.03165
G1 X128.645 Y114.452 E.03215
G1 X126.755 Y114.978 E.06152
G1 X125.736 Y115.104 E.03218
G1 X124.71 Y115.127 E.03218
G1 X122.908 Y114.913 E.05689
G1 X121.916 Y114.65 E.03218
G1 X120.971 Y114.295 E.03165
G1 X120.341 Y113.947 E.02258
G1 X120.522 Y113.633 F10800
G1 F2573
G1 X119.389 Y112.979 E.04102
G1 X117.898 Y111.686 E.06188
G1 X116.706 Y110.134 E.06137
G1 X115.869 Y108.431 E.05948
G1 X115.366 Y106.527 E.06174
G1 X115.248 Y104.789 E.05464
G1 X115.487 Y102.846 E.06137
G1 X116.083 Y101.045 E.05948
G1 X117.062 Y99.331 E.06188
G1 X118.194 Y98.012 E.0545
G1 X119.74 Y96.786 E.06188
G1 X121.411 Y95.93 E.05884
G1 X123.302 Y95.395 E.06165
G1 X125.247 Y95.25 E.06114
G1 X127.008 Y95.455 E.05561
G1 X128.889 Y96.055 E.06188
G1 X129.774 Y96.494 E.03098
G1 X130.61 Y97.021 E.03098
G1 X132.037 Y98.246 E.05898
G1 X133.25 Y99.797 E.06174
G1 X134.126 Y101.558 E.06165
G1 X134.594 Y103.244 E.05487
G1 X134.722 Y104.224 E.03098
G1 X134.751 Y105.211 E.03098
G1 X134.68 Y106.197 E.03098
G1 X134.509 Y107.17 E.03098
G1 X134.241 Y108.121 E.03098
G1 X133.877 Y109.04 E.03098
G1 X133.423 Y109.917 E.03098
G1 X132.883 Y110.744 E.03098
G1 X131.633 Y112.15 E.05898
G1 X130.259 Y113.214 E.0545
G1 X128.513 Y114.099 E.06135
G1 X126.685 Y114.607 E.05951
G1 X125.704 Y114.728 E.03098
G1 X124.717 Y114.75 E.03098
G1 X122.76 Y114.493 E.06188
G1 X120.899 Y113.85 E.06174
G1 X120.574 Y113.663 E.01174
G1 X120.762 Y113.338 F10800
G1 F2573
G1 X119.61 Y112.673 E.0417
G1 X118.176 Y111.431 E.05949
G1 X117.029 Y109.939 E.059
G1 X116.22 Y108.294 E.05747
G1 X115.738 Y106.463 E.05937
G1 X115.625 Y104.801 E.05223
G1 X115.853 Y102.934 E.059
G1 X116.43 Y101.194 E.05747
G1 X117.371 Y99.547 E.05949
G1 X118.454 Y98.286 E.05211
G1 X119.94 Y97.106 E.05949
G1 X121.554 Y96.279 E.05686
G1 X123.372 Y95.766 E.05924
G1 X125.241 Y95.627 E.05875
G1 X126.926 Y95.823 E.05321
G1 X128.734 Y96.399 E.05949
G1 X130.389 Y97.327 E.05949
G1 X131.768 Y98.511 E.05698
G1 X132.934 Y100.003 E.05937
G1 X133.774 Y101.695 E.05924
G1 X134.222 Y103.307 E.05248
G1 X134.374 Y105.199 E.05949
G1 X134.142 Y107.082 E.05949
G1 X133.536 Y108.879 E.05949
G1 X132.581 Y110.518 E.05949
G1 X131.374 Y111.877 E.05698
G1 X130.059 Y112.894 E.05211
G1 X128.382 Y113.745 E.05898
G1 X126.615 Y114.237 E.05749
G1 X124.723 Y114.373 E.05949
G1 X122.842 Y114.125 E.05949
G1 X121.053 Y113.506 E.05937
G1 X120.814 Y113.368 E.00865
; printing object Barrel Plug LDPE.stl id:0 copy 0
;WIPE_START
G1 F8640
G1 X119.61 Y112.673 E-.32094
G1 X118.176 Y111.431 E-.43808
G1 X118.173 Y111.428 E-.00098
;WIPE_END
G1 E-.04 F2100
G1 Z.8 F720
G1 X131.029 Y102.975 F10800
G1 Z.4 F720
G1 E.8 F2100
M204 S800
