; generated by PrusaSlicer 2.5.0+win64 on 2023-01-20 at 09:29:18 UTC


;
;
; 

; external perimeters extrusion width = 0.45mm
; perimeters extrusion width = 0.45mm
; infill extrusion width = 0.45mm
; solid infill extrusion width = 0.45mm
; top infill extrusion width = 0.40mm
; first layer extrusion width = 0.42mm

; external perimeters extrusion width = 0.45mm
; perimeters extrusion width = 0.45mm
; infill extrusion width = 0.45mm
; solid infill extrusion width = 0.45mm
; top infill extrusion width = 0.40mm
; first layer extrusion width = 0.42mm

; external perimeters extrusion width = 0.45mm
; perimeters extrusion width = 0.45mm
; infill extrusion width = 0.45mm
; solid infill extrusion width = 0.45mm
; top infill extrusion width = 0.40mm
; first layer extrusion width = 0.42mm

; external perimeters extrusion width = 0.45mm
; perimeters extrusion width = 0.45mm
; infill extrusion width = 0.45mm
; solid infill extrusion width = 0.45mm
; top infill extrusion width = 0.40mm
; first layer extrusion width = 0.42mm

M73 P0 R19
M73 Q0 S20
M201 X1000 Y1000 Z200 E5000 ; sets maximum accelerations, mm/sec^2
M203 X200 Y200 Z12 E120 ; sets maximum feedrates, mm / sec
M204 P1250 R1250 T1250 ; sets acceleration (P, T) and retract acceleration (R), mm/sec^2
M205 X8.00 Y8.00 Z0.40 E4.50 ; sets the jerk limits, mm/sec
M205 S0 T0 ; sets the minimum extruding and travel feed rate, mm/sec
M107
;TYPE:Custom
M862.3 P "MK3S" ; printer model check
M862.1 P0.4 ; nozzle diameter check
M115 U3.11.0 ; tell printer latest fw version
G90 ; use absolute coordinates
M83 ; extruder relative mode
M104 S215 ; set extruder temp
M140 S60 ; set bed temp
M190 S60 ; wait for bed temp
M109 S215 ; wait for extruder temp
G28 W ; home all without mesh bed level
G80 ; mesh bed leveling

G1 Z0.2 F720
G1 Y-3 F1000 ; go outside print area
G92 E0
G1 X60 E9 F1000 ; intro line
G1 X100 E12.5 F1000 ; intro line

G92 E0
M221 S95

; Don't change E values below. Excessive value can damage the printer.
M907 E430 ; set extruder motor current
G21 ; set units to millimeters
G90 ; use absolute coordinates
M83 ; use relative distances for extrusion
M900 K0.05 ; Filament gcode LA 1.5
M900 K30 ; Filament gcode LA 1.0
M107
;LAYER_CHANGE
;Z:0.2
;HEIGHT:0.2
;BEFORE_LAYER_CHANGE
G92 E0.0
;0.2


G1 E-.8 F2100
G1 Z.4 F720
;AFTER_LAYER_CHANGE
;0.2
G1 X115.352 Y74.575 F10800
G1 Z.2 F720
M73 Q0 S19
G1 E.8 F2100
M204 S800
;TYPE:Skirt/Brim
;WIDTH:0.42
G1 F1200
G1 X116.256 Y73.263 E.04997
G1 X117.409 Y72.088 E.05161
G1 X118.899 Y71.048 E.05698
G1 X120.342 Y70.389 E.04972
G1 X121.945 Y69.972 E.05195
G1 X123.739 Y69.845 E.0564
G1 X147.488 Y72.751 E.75017
G1 X148.398 Y72.919 E.02901
G1 X149.986 Y73.445 E.05248
G1 X151.641 Y74.373 E.05949
G1 X153.02 Y75.557 E.05698
G1 X154.186 Y77.049 E.05937
G1 X154.688 Y77.953 E.03242
G1 X155.136 Y79.047 E.03706
G1 X155.412 Y80.043 E.03242
G1 X155.568 Y80.98 E.02978
G1 X157.408 Y108.012 E.84952
G1 X157.308 Y109.194 E.03718
G1 X157.101 Y110.203 E.0323
G1 X156.702 Y111.388 E.03921
G1 X156.174 Y112.467 E.03767
G1 X155.615 Y113.332 E.0323
G1 X154.813 Y114.291 E.03921
G1 X153.929 Y115.105 E.03767
G1 X153.094 Y115.708 E.0323
G1 X151.768 Y116.414 E.04709
G1 X150.498 Y116.861 E.04221
G1 X149.026 Y117.138 E.04697
G1 X147.677 Y117.183 E.04233
G1 X123.463 Y114.25 E.76477
G1 X122.473 Y114.03 E.03181
M73 P1 R19
M73 Q1 S19
G1 X121.572 Y113.728 E.02978
G1 X119.885 Y112.859 E.05949
G1 X119.104 Y112.292 E.03027
G1 X118.259 Y111.518 E.03593
G1 X117.072 Y110.007 E.06024
G1 X116.563 Y109.093 E.03279
G1 X116.118 Y108.007 E.03681
G1 X115.839 Y107.003 E.03267
G1 X115.661 Y105.843 E.03682
G1 X114.134 Y79.711 E.82073
G1 X114.135 Y78.72 E.03107
G1 X114.236 Y77.759 E.03031
G1 X114.613 Y76.223 E.0496
G1 X115.327 Y74.63 E.05473
M204 S1000
; printing object Barrel Plug LDPE.stl id:1 copy 0
;WIPE_START
G1 F8640
G1 X116.256 Y73.263 E-.38162
G1 X117.404 Y72.094 E-.37838
;WIPE_END
G1 E-.04 F2100
G1 Z.6 F720
G1 X146.583 Y113.836 F10800
G1 Z.2 F720
G1 E.8 F2100
M204 S800
;TYPE:Perimeter
;WIDTH:0.419999
G1 F1200
G1 X146.431 Y113.807 E.00485
G1 X145.861 Y113.625 E.01878
G1 X145.292 Y113.379 E.01942
G1 X144.746 Y113.075 E.01958
G1 X144.241 Y112.724 E.01928
G1 X143.987 Y112.527 E.01008
G1 X143.531 Y112.093 E.01973
G1 X143.121 Y111.616 E.01973
G1 X142.762 Y111.099 E.01973
G1 X142.456 Y110.549 E.01973
G1 X142.208 Y109.971 E.01973
G1 X142.02 Y109.37 E.01973
G1 X141.895 Y108.763 E.01944
G1 X141.823 Y107.699 E.03345
G1 X141.865 Y107.081 E.01943
G1 X141.971 Y106.46 E.01973
G1 X142.139 Y105.854 E.01973
G1 X142.367 Y105.268 E.01973
G1 X142.654 Y104.707 E.01973
G1 X142.996 Y104.179 E.01973
G1 X143.383 Y103.695 E.01944
G1 X144.157 Y102.96 E.03345
G1 X144.659 Y102.598 E.01943
G1 X145.204 Y102.283 E.01973
G1 X145.778 Y102.025 E.01973
G1 X146.375 Y101.827 E.01973
G1 X146.989 Y101.69 E.01973
G1 X147.615 Y101.615 E.01973
G1 X148.226 Y101.605 E.01918
G1 X149.294 Y101.731 E.03371
G1 X149.893 Y101.886 E.01942
G1 X150.484 Y102.105 E.01973
G1 X151.049 Y102.382 E.01973
G1 X151.583 Y102.715 E.01973
G1 X152.08 Y103.1 E.01973
G1 X152.536 Y103.533 E.01973
G1 X152.946 Y104.011 E.01973
G1 X153.306 Y104.527 E.01973
G1 X153.606 Y105.069 E.01943
G1 X153.994 Y106.063 E.03345
G1 X154.139 Y106.666 E.01943
G1 X154.224 Y107.289 E.01973
G1 X154.245 Y107.908 E.01941
G1 X154.137 Y108.97 E.03347
G1 X153.992 Y109.573 E.01943
G1 X153.783 Y110.166 E.01973
G1 X153.515 Y110.736 E.01973
G1 X153.192 Y111.276 E.01973
G1 X152.815 Y111.78 E.01973
G1 X152.389 Y112.243 E.01973
G1 X151.919 Y112.661 E.01973
G1 X151.408 Y113.029 E.01973
G1 X150.863 Y113.344 E.01973
G1 X150.289 Y113.602 E.01973
G1 X149.692 Y113.8 E.01973
G1 X149.078 Y113.937 E.01973
G1 X148.453 Y114.011 E.01973
G1 X147.833 Y114.022 E.01944
G1 X147.126 Y113.938 E.02234
G1 X146.642 Y113.847 E.01543
M204 S1000
G1 X146.52 Y114.22 F10800
M204 S800
;TYPE:External perimeter
G1 F1200
G1 X145.73 Y113.978 E.0259
G1 X145.126 Y113.717 E.02062
G1 X144.547 Y113.395 E.02078
G1 X144.011 Y113.022 E.02048
G1 X143.741 Y112.813 E.01067
G1 X143.258 Y112.353 E.02093
G1 X142.823 Y111.847 E.02093
G1 X142.441 Y111.299 E.02093
G1 X142.117 Y110.715 E.02093
G1 X141.854 Y110.102 E.02093
G1 X141.654 Y109.465 E.02093
G1 X141.521 Y108.814 E.02084
G1 X141.445 Y107.699 E.03505
G1 X141.49 Y107.036 E.02083
G1 X141.602 Y106.378 E.02093
G1 X141.78 Y105.735 E.02093
G1 X142.023 Y105.113 E.02093
G1 X142.327 Y104.519 E.02093
G1 X142.69 Y103.958 E.02093
G1 X143.105 Y103.44 E.02084
G1 X143.915 Y102.669 E.03505
G1 X144.454 Y102.281 E.02083
G1 X145.032 Y101.947 E.02093
G1 X145.641 Y101.673 E.02093
G1 X146.275 Y101.463 E.02093
G1 X146.926 Y101.317 E.02093
G1 X147.589 Y101.239 E.02093
G1 X148.245 Y101.227 E.02057
G1 X149.363 Y101.359 E.03531
G1 X150.007 Y101.526 E.02083
G1 X150.632 Y101.758 E.02093
G1 X151.232 Y102.052 E.02093
G1 X151.798 Y102.405 E.02093
G1 X152.326 Y102.813 E.02093
G1 X152.81 Y103.273 E.02093
G1 X153.245 Y103.78 E.02093
G1 X153.626 Y104.328 E.02093
G1 X153.949 Y104.909 E.02083
G1 X154.354 Y105.95 E.03505
G1 X154.51 Y106.596 E.02083
G1 X154.6 Y107.258 E.02093
G1 X154.622 Y107.921 E.02081
G1 X154.509 Y109.034 E.03508
G1 X154.354 Y109.68 E.02083
G1 X154.132 Y110.309 E.02093
G1 X153.849 Y110.914 E.02093
G1 X153.505 Y111.486 E.02093
G1 X153.106 Y112.021 E.02093
G1 X152.654 Y112.512 E.02093
G1 X152.155 Y112.956 E.02093
G1 X151.613 Y113.346 E.02093
G1 X151.035 Y113.68 E.02093
G1 X150.426 Y113.953 E.02093
G1 X149.793 Y114.164 E.02093
G1 X149.141 Y114.309 E.02093
G1 X148.479 Y114.388 E.02093
G1 X147.814 Y114.399 E.02084
G1 X146.704 Y114.267 E.03505
G1 X146.578 Y114.235 E.0041
M204 S1000
G1 X146.409 Y113.835 F10800
;WIPE_START
G1 F8640
G1 X145.73 Y113.978 E-.20457
G1 X145.126 Y113.717 E-.15185
G1 X144.547 Y113.395 E-.15303
G1 X144.011 Y113.022 E-.15084
G1 X143.741 Y112.813 E-.07861
G1 X143.675 Y112.75 E-.0211
;WIPE_END
G1 E-.04 F2100
G1 Z.6 F720
G1 X151.223 Y102.624 F10800
G1 Z.2 F720
G1 E.8 F2100
M204 S800
;TYPE:Solid infill
;WIDTH:0.425157
G1 F1200
G1 X152.352 Y103.753 E.05076
G1 X152.722 Y104.184 E.01806
G1 X153.065 Y104.677 E.01909
G1 X153.35 Y105.19 E.01864
G1 X153.415 Y105.356 E.00568
G1 X150.473 Y102.415 E.13223
G1 X149.809 Y102.156 E.02265
G1 X149.627 Y102.109 E.00596
G1 X153.742 Y106.224 E.18493
G1 X153.861 Y106.718 E.01617
G1 X153.887 Y106.909 E.00613
G1 X148.953 Y101.975 E.22177
G1 X148.34 Y101.903 E.01962
G1 X153.948 Y107.512 E.25209
G1 X153.961 Y107.899 E.01231
G1 X153.946 Y108.05 E.00483
G1 X147.791 Y101.895 E.27664
G1 X147.294 Y101.938 E.01587
G1 X153.896 Y108.54 E.29676
G1 X153.834 Y109.019 E.01534
G1 X146.83 Y102.015 E.31482
G1 X146.393 Y102.119 E.01427
G1 X153.729 Y109.455 E.32973
G1 X153.592 Y109.858 E.01354
M73 Q2 S19
G1 X145.988 Y102.254 E.34179
G1 X145.606 Y102.413 E.01314
M73 P2 R19
G1 X153.435 Y110.242 E.35191
G1 X153.262 Y110.609 E.01291
G1 X145.241 Y102.588 E.36052
G1 X144.898 Y102.786 E.01258
G1 X153.059 Y110.947 E.36681
G1 X152.842 Y111.271 E.01238
G1 X144.577 Y103.006 E.3715
G1 X144.272 Y103.241 E.01225
G1 X152.611 Y111.58 E.37483
G1 X152.354 Y111.863 E.01216
G1 X143.995 Y103.504 E.37573
G1 X143.718 Y103.768 E.01215
G1 X152.085 Y112.135 E.37609
G1 X151.799 Y112.389 E.01217
G1 X143.461 Y104.051 E.37478
G1 X143.221 Y104.352 E.01223
G1 X151.49 Y112.621 E.3717
G1 X151.169 Y112.841 E.01236
G1 X143.008 Y104.68 E.3668
G1 X142.81 Y105.023 E.01257
G1 X150.826 Y113.039 E.3603
G1 X150.461 Y113.214 E.01287
G1 X142.627 Y105.38 E.35213
G1 X142.475 Y105.769 E.01326
G1 X150.08 Y113.373 E.3418
G1 X149.674 Y113.508 E.01359
G1 X142.343 Y106.177 E.32953
G1 X142.233 Y106.607 E.01412
G1 X149.237 Y113.612 E.31485
G1 X148.773 Y113.689 E.01494
G1 X142.154 Y107.069 E.29754
G1 X142.115 Y107.571 E.016
G1 X148.276 Y113.732 E.27691
G1 X147.848 Y113.739 E.01361
G1 X147.728 Y113.725 E.00382
G1 X142.136 Y108.132 E.25137
G1 X142.175 Y108.712 E.01847
G1 X147.115 Y113.652 E.22204
G1 X146.826 Y113.617 E.00924
G1 X146.44 Y113.517 E.01268
G1 X142.327 Y109.404 E.18488
G1 X142.474 Y109.873 E.0156
G1 X142.639 Y110.256 E.01328
G1 X145.594 Y113.212 E.13285
G1 X145.156 Y112.997 E.0155
G1 X144.647 Y112.68 E.01909
G1 X144.172 Y112.312 E.01909
G1 X142.829 Y110.988 E.05994
M204 S1000
; stop printing object Barrel Plug LDPE.stl id:1 copy 0
; printing object Barrel Plug LDPE.stl id:0 copy 0
;WIPE_START
M73 Q3 S19
G1 F8640
M73 P3 R19
G1 X144.172 Y112.312 E-.43545
G1 X144.647 Y112.68 E-.13867
G1 X145.156 Y112.997 E-.13869
G1 X145.34 Y113.087 E-.04719
;WIPE_END
G1 E-.04 F2100
G1 Z.6 F720
G1 X130.889 Y103.106 F10800
G1 Z.2 F720
G1 E.8 F2100
M204 S800
;TYPE:Perimeter
;WIDTH:0.419999
G1 F1200
G1 X131.043 Y103.594 E.01606
G1 X131.154 Y104.213 E.01972
G1 X131.21 Y105.095 E.02769
G1 X131.102 Y106.157 E.03347
G1 X130.957 Y106.759 E.01943
G1 X130.749 Y107.353 E.01973
G1 X130.481 Y107.923 E.01973
G1 X130.157 Y108.462 E.01973
G1 X129.781 Y108.966 E.01973
G1 X129.355 Y109.43 E.01973
G1 X128.884 Y109.847 E.01973
G1 X128.374 Y110.216 E.01973
G1 X127.829 Y110.53 E.01973
G1 X127.255 Y110.788 E.01973
G1 X126.658 Y110.987 E.01973
G1 X126.044 Y111.124 E.01973
G1 X125.419 Y111.198 E.01973
G1 X124.799 Y111.208 E.01944
G1 X123.74 Y111.083 E.03345
G1 X123.14 Y110.927 E.01943
G1 X122.55 Y110.709 E.01973
G1 X121.985 Y110.432 E.01973
G1 X121.451 Y110.099 E.01973
G1 X120.953 Y109.714 E.01973
G1 X120.497 Y109.28 E.01973
G1 X120.087 Y108.802 E.01973
G1 X119.728 Y108.286 E.01973
G1 X119.422 Y107.736 E.01973
G1 X119.174 Y107.158 E.01973
G1 X118.986 Y106.557 E.01973
G1 X118.861 Y105.95 E.01944
G1 X118.789 Y104.886 E.03345
G1 X118.831 Y104.267 E.01943
G1 X118.937 Y103.647 E.01973
G1 X119.105 Y103.04 E.01973
G1 X119.333 Y102.454 E.01973
G1 X119.62 Y101.894 E.01973
G1 X119.961 Y101.366 E.01973
G1 X120.349 Y100.882 E.01944
G1 X121.122 Y100.147 E.03345
G1 X121.625 Y99.784 E.01943
G1 X122.17 Y99.47 E.01973
G1 X122.744 Y99.212 E.01973
G1 X123.341 Y99.013 E.01973
G1 X123.955 Y98.876 E.01973
G1 X124.58 Y98.802 E.01973
G1 X125.192 Y98.791 E.01918
G1 X126.259 Y98.917 E.03371
G1 X126.859 Y99.073 E.01942
G1 X127.449 Y99.291 E.01973
G1 X128.014 Y99.568 E.01973
G1 X128.548 Y99.901 E.01973
G1 X129.046 Y100.286 E.01973
G1 X129.502 Y100.72 E.01973
G1 X129.912 Y101.198 E.01973
G1 X130.271 Y101.714 E.01973
G1 X130.572 Y102.256 E.01943
G1 X130.871 Y103.048 E.02656
M204 S1000
G1 X131.266 Y102.997 F10800
M204 S800
;TYPE:External perimeter
G1 F1200
G1 X131.32 Y103.137 E.00472
G1 X131.409 Y103.506 E.01191
G1 X131.527 Y104.163 E.02092
G1 X131.588 Y105.107 E.02969
G1 X131.475 Y106.22 E.03508
G1 X131.319 Y106.866 E.02083
G1 X131.098 Y107.496 E.02093
G1 X130.814 Y108.1 E.02093
G1 X130.471 Y108.673 E.02093
G1 X130.071 Y109.207 E.02093
G1 X129.62 Y109.699 E.02093
G1 X129.121 Y110.142 E.02093
G1 X128.579 Y110.533 E.02093
G1 X128.001 Y110.866 E.02093
G1 X127.392 Y111.14 E.02093
G1 X126.759 Y111.351 E.02093
G1 X126.107 Y111.496 E.02093
G1 X125.444 Y111.575 E.02093
G1 X124.78 Y111.586 E.02084
G1 X123.67 Y111.454 E.03505
G1 X123.027 Y111.287 E.02083
G1 X122.401 Y111.056 E.02093
G1 X121.802 Y110.762 E.02093
G1 X121.235 Y110.409 E.02093
G1 X120.707 Y110 E.02093
G1 X120.223 Y109.54 E.02093
G1 X119.789 Y109.034 E.02093
G1 X119.407 Y108.486 E.02093
G1 X119.083 Y107.902 E.02093
G1 X118.82 Y107.289 E.02093
G1 X118.62 Y106.652 E.02093
G1 X118.486 Y106.001 E.02084
G1 X118.411 Y104.886 E.03505
G1 X118.456 Y104.223 E.02083
G1 X118.568 Y103.565 E.02093
G1 X118.746 Y102.921 E.02093
G1 X118.989 Y102.299 E.02093
G1 X119.293 Y101.705 E.02093
G1 X119.655 Y101.145 E.02093
G1 X120.071 Y100.626 E.02084
G1 X120.881 Y99.856 E.03505
G1 X121.42 Y99.467 E.02083
G1 X121.998 Y99.134 E.02093
G1 X122.607 Y98.86 E.02093
G1 X123.24 Y98.649 E.02093
G1 X123.892 Y98.504 E.02093
G1 X124.555 Y98.425 E.02093
G1 X125.211 Y98.414 E.02057
G1 X126.329 Y98.546 E.03531
G1 X126.972 Y98.713 E.02083
G1 X127.598 Y98.944 E.02093
G1 X128.198 Y99.238 E.02093
G1 X128.764 Y99.591 E.02093
G1 X129.292 Y100 E.02093
G1 X129.776 Y100.46 E.02093
G1 X130.21 Y100.966 E.02093
G1 X130.592 Y101.514 E.02093
G1 X130.914 Y102.095 E.02083
G1 X131.244 Y102.941 E.02845
M204 S1000
G1 X131.174 Y103.116 F10800
;WIPE_START
G1 F8640
G1 X131.32 Y103.137 E-.0486
G1 X131.409 Y103.506 E-.08768
G1 X131.527 Y104.163 E-.15405
G1 X131.588 Y105.107 E-.21862
G1 X131.478 Y106.189 E-.25105
;WIPE_END
G1 E-.04 F2100
G1 Z.6 F720
G1 X128.189 Y99.81 F10800
G1 Z.2 F720
G1 E.8 F2100
M204 S800
;TYPE:Solid infill
;WIDTH:0.425157
G1 F1200
G1 X129.318 Y100.94 E.05076
G1 X129.688 Y101.371 E.01806
G1 X130.031 Y101.864 E.01909
G1 X130.316 Y102.377 E.01864
G1 X130.381 Y102.543 E.00568
G1 X127.439 Y99.601 E.13223
G1 X126.774 Y99.343 E.02265
G1 X126.593 Y99.296 E.00596
G1 X130.707 Y103.41 E.18493
G1 X130.826 Y103.905 E.01617
G1 X130.852 Y104.096 E.00613
G1 X125.918 Y99.162 E.22177
G1 X125.306 Y99.09 E.01962
G1 X130.914 Y104.698 E.25209
G1 X130.927 Y105.085 E.01231
G1 X130.912 Y105.236 E.00483
G1 X124.757 Y99.082 E.27664
G1 X124.26 Y99.125 E.01587
G1 X130.862 Y105.727 E.29676
G1 X130.8 Y106.206 E.01534
G1 X123.796 Y99.202 E.31482
G1 X123.359 Y99.305 E.01427
G1 X130.695 Y106.641 E.32973
G1 X130.557 Y107.044 E.01354
G1 X122.953 Y99.44 E.34179
G1 X122.572 Y99.599 E.01314
G1 X130.401 Y107.428 E.35191
G1 X130.228 Y107.796 E.01291
G1 X122.207 Y99.775 E.36052
G1 X121.864 Y99.973 E.01258
G1 X130.025 Y108.133 E.36681
G1 X129.808 Y108.457 E.01238
G1 X121.543 Y100.192 E.3715
G1 X121.238 Y100.427 E.01225
G1 X129.577 Y108.767 E.37483
G1 X129.32 Y109.05 E.01216
M73 P4 R19
M73 Q4 S19
G1 X120.961 Y100.691 E.37573
G1 X120.683 Y100.954 E.01215
G1 X129.051 Y109.322 E.37609
G1 X128.764 Y109.576 E.01217
G1 X120.426 Y101.238 E.37478
G1 X120.186 Y101.538 E.01223
G1 X128.456 Y109.808 E.3717
G1 X128.135 Y110.027 E.01236
G1 X119.974 Y101.867 E.3668
G1 X119.776 Y102.209 E.01257
G1 X127.792 Y110.225 E.3603
G1 X127.427 Y110.401 E.01287
G1 X119.593 Y102.567 E.35213
G1 X119.441 Y102.955 E.01326
G1 X127.046 Y110.56 E.3418
G1 X126.64 Y110.695 E.01359
G1 X119.309 Y103.363 E.32953
G1 X119.198 Y103.794 E.01412
G1 X126.203 Y110.798 E.31485
G1 X125.739 Y110.875 E.01494
G1 X119.12 Y104.256 E.29754
G1 X119.081 Y104.757 E.016
G1 X125.242 Y110.918 E.27691
G1 X124.813 Y110.925 E.01361
G1 X124.694 Y110.911 E.00382
