; generated by PrusaSlicer 2.5.0+win64 on 2023-01-18 at 15:23:35 UTC


;
;
; 

; external perimeters extrusion width = 0.45mm
; perimeters extrusion width = 0.45mm
; infill extrusion width = 0.45mm
; solid infill extrusion width = 0.45mm
; top infill extrusion width = 0.40mm
; first layer extrusion width = 0.42mm

; external perimeters extrusion width = 0.45mm
; perimeters extrusion width = 0.45mm
; infill extrusion width = 0.45mm
; solid infill extrusion width = 0.45mm
; top infill extrusion width = 0.40mm
; first layer extrusion width = 0.42mm

; external perimeters extrusion width = 0.45mm
; perimeters extrusion width = 0.45mm
; infill extrusion width = 0.45mm
; solid infill extrusion width = 0.45mm
; top infill extrusion width = 0.40mm
; first layer extrusion width = 0.42mm

; external perimeters extrusion width = 0.45mm
; perimeters extrusion width = 0.45mm
; infill extrusion width = 0.45mm
; solid infill extrusion width = 0.45mm
; top infill extrusion width = 0.40mm
; first layer extrusion width = 0.42mm

; external perimeters extrusion width = 0.45mm
; perimeters extrusion width = 0.45mm
; infill extrusion width = 0.45mm
; solid infill extrusion width = 0.45mm
; top infill extrusion width = 0.40mm
; first layer extrusion width = 0.42mm

; external perimeters extrusion width = 0.45mm
; perimeters extrusion width = 0.45mm
; infill extrusion width = 0.45mm
; solid infill extrusion width = 0.45mm
; top infill extrusion width = 0.40mm
; first layer extrusion width = 0.42mm

; external perimeters extrusion width = 0.45mm
; perimeters extrusion width = 0.45mm
; infill extrusion width = 0.45mm
; solid infill extrusion width = 0.45mm
; top infill extrusion width = 0.40mm
; first layer extrusion width = 0.42mm

; external perimeters extrusion width = 0.45mm
; perimeters extrusion width = 0.45mm
; infill extrusion width = 0.45mm
; solid infill extrusion width = 0.45mm
; top infill extrusion width = 0.40mm
; first layer extrusion width = 0.42mm

; external perimeters extrusion width = 0.45mm
; perimeters extrusion width = 0.45mm
; infill extrusion width = 0.45mm
; solid infill extrusion width = 0.45mm
; top infill extrusion width = 0.40mm
; first layer extrusion width = 0.42mm

; external perimeters extrusion width = 0.45mm
; perimeters extrusion width = 0.45mm
; infill extrusion width = 0.45mm
; solid infill extrusion width = 0.45mm
; top infill extrusion width = 0.40mm
; first layer extrusion width = 0.42mm

; external perimeters extrusion width = 0.45mm
; perimeters extrusion width = 0.45mm
; infill extrusion width = 0.45mm
; solid infill extrusion width = 0.45mm
; top infill extrusion width = 0.40mm
; first layer extrusion width = 0.42mm

; external perimeters extrusion width = 0.45mm
; perimeters extrusion width = 0.45mm
; infill extrusion width = 0.45mm
; solid infill extrusion width = 0.45mm
; top infill extrusion width = 0.40mm
; first layer extrusion width = 0.42mm

; external perimeters extrusion width = 0.45mm
; perimeters extrusion width = 0.45mm
; infill extrusion width = 0.45mm
; solid infill extrusion width = 0.45mm
; top infill extrusion width = 0.40mm
; first layer extrusion width = 0.42mm

; external perimeters extrusion width = 0.45mm
; perimeters extrusion width = 0.45mm
; infill extrusion width = 0.45mm
; solid infill extrusion width = 0.45mm
; top infill extrusion width = 0.40mm
; first layer extrusion width = 0.42mm

; external perimeters extrusion width = 0.45mm
; perimeters extrusion width = 0.45mm
; infill extrusion width = 0.45mm
; solid infill extrusion width = 0.45mm
; top infill extrusion width = 0.40mm
; first layer extrusion width = 0.42mm

M73 P0 R71
M73 Q0 S71
M201 X1000 Y1000 Z200 E5000 ; sets maximum accelerations, mm/sec^2
M203 X200 Y200 Z12 E120 ; sets maximum feedrates, mm / sec
M204 P1250 R1250 T1250 ; sets acceleration (P, T) and retract acceleration (R), mm/sec^2
M205 X8.00 Y8.00 Z0.40 E4.50 ; sets the jerk limits, mm/sec
M205 S0 T0 ; sets the minimum extruding and travel feed rate, mm/sec
M107
;TYPE:Custom
M862.3 P "MK3S" ; printer model check
M862.1 P0.4 ; nozzle diameter check
M115 U3.11.0 ; tell printer latest fw version
G90 ; use absolute coordinates
M83 ; extruder relative mode
M104 S215 ; set extruder temp
M140 S60 ; set bed temp
M190 S60 ; wait for bed temp
M109 S215 ; wait for extruder temp
G28 W ; home all without mesh bed level
G80 ; mesh bed leveling

G1 Z0.2 F720
G1 Y-3 F1000 ; go outside print area
G92 E0
G1 X60 E9 F1000 ; intro line
G1 X100 E12.5 F1000 ; intro line

G92 E0
M221 S95

; Don't change E values below. Excessive value can damage the printer.
M907 E430 ; set extruder motor current
G21 ; set units to millimeters
G90 ; use absolute coordinates
M83 ; use relative distances for extrusion
M900 K0.05 ; Filament gcode LA 1.5
M900 K30 ; Filament gcode LA 1.0
M107
;LAYER_CHANGE
;Z:0.2
;HEIGHT:0.2
;BEFORE_LAYER_CHANGE
G92 E0.0
;0.2


G1 E-.8 F2100
G1 Z.4 F720
;AFTER_LAYER_CHANGE
;0.2
G1 X71.441 Y89.301 F10800
G1 Z.2 F720
G1 E.8 F2100
M204 S800
;TYPE:Skirt/Brim
;WIDTH:0.42
G1 F1200
G1 X72.457 Y88.533 E.03995
G1 X73.352 Y88.016 E.03242
G1 X74.503 Y87.528 E.03919
G1 X75.96 Y87.148 E.04723
G1 X77.287 Y87.01 E.04182
G1 X159.573 Y85.202 E2.58064
G1 X190.94 Y86.053 E.98387
G1 X192.24 Y86.186 E.04096
G1 X193.469 Y86.486 E.03968
G1 X195.155 Y87.207 E.05749
G1 X196.717 Y88.284 E.05949
G1 X198.027 Y89.651 E.05937
G1 X199.039 Y91.256 E.05949
G1 X199.644 Y92.808 E.05223
G1 X199.986 Y94.674 E.05949
G1 X199.946 Y96.571 E.05949
G1 X199.551 Y98.341 E.05686
G1 X199.176 Y99.305 E.03242
G1 X198.74 Y100.148 E.02978
G1 X198.079 Y101.133 E.03718
G1 X197.419 Y101.903 E.03181
G1 X179.742 Y119.133 E.77397
G1 X178.692 Y119.975 E.04221
G1 X177.395 Y120.725 E.04697
G1 X176.137 Y121.215 E.04233
G1 X174.607 Y121.551 E.04911
G1 X173.669 Y121.628 E.02951
G1 X125.911 Y122.922 E1.49798
G1 X108.793 Y122.74 E.53676
M73 P0 R70
G1 X77.093 Y121.941 E.99423
G1 X75.759 Y121.76 E.04221
G1 X74.33 Y121.338 E.04672
G1 X73.171 Y120.801 E.04007
G1 X72.04 Y120.07 E.04221
G1 X70.942 Y119.098 E.04598
G1 X70.105 Y118.101 E.0408
G1 X69.393 Y116.959 E.04221
G1 X68.805 Y115.59 E.04672
G1 X68.466 Y114.291 E.04209
G1 X68.312 Y112.793 E.04721
G1 X68.212 Y96.264 E.51828
G1 X68.377 Y94.627 E.0516
G1 X68.677 Y93.462 E.03769
G1 X69.152 Y92.289 E.0397
G1 X69.78 Y91.19 E.0397
G1 X70.551 Y90.185 E.03969
G1 X71.398 Y89.344 E.03744
M204 S1000
; printing object Barrel Plug LDPE.stl id:14 copy 0
;WIPE_START
G1 F8640
G1 X72.457 Y88.533 E-.30791
G1 X73.352 Y88.016 E-.23873
G1 X74.203 Y87.655 E-.21337
;WIPE_END
G1 E-.04 F2100
G1 Z.6 F720
G1 X192.071 Y89.387 F10800
G1 Z.2 F720
G1 E.8 F2100
M204 S800
;TYPE:Perimeter
;WIDTH:0.419999
G1 F1200
G1 X192.499 Y89.498 E.01388
G1 X193.089 Y89.717 E.01973
G1 X193.654 Y89.994 E.01973
G1 X194.188 Y90.327 E.01973
G1 X194.686 Y90.712 E.01973
G1 X195.142 Y91.145 E.01973
G1 X195.552 Y91.623 E.01973
G1 X195.911 Y92.139 E.01973
G1 X196.212 Y92.681 E.01943
G1 X196.6 Y93.675 E.03345
G1 X196.745 Y94.278 E.01943
G1 X196.829 Y94.901 E.01973
G1 X196.85 Y95.52 E.01941
G1 X196.742 Y96.582 E.03347
G1 X196.597 Y97.185 E.01943
G1 X196.389 Y97.778 E.01973
G1 X196.121 Y98.348 E.01973
G1 X195.797 Y98.887 E.01973
G1 X195.421 Y99.392 E.01973
G1 X194.995 Y99.855 E.01973
G1 X194.524 Y100.273 E.01973
G1 X194.014 Y100.641 E.01973
G1 X193.469 Y100.956 E.01973
G1 X192.895 Y101.213 E.01973
G1 X192.298 Y101.412 E.01973
G1 X191.684 Y101.549 E.01973
G1 X191.059 Y101.623 E.01973
G1 X190.439 Y101.634 E.01944
G1 X189.38 Y101.508 E.03345
G1 X188.78 Y101.353 E.01943
G1 X188.19 Y101.134 E.01973
G1 X187.625 Y100.857 E.01973
G1 X187.091 Y100.524 E.01973
G1 X186.593 Y100.139 E.01973
G1 X186.137 Y99.705 E.01973
G1 X185.727 Y99.228 E.01973
G1 X185.368 Y98.711 E.01973
G1 X185.062 Y98.161 E.01973
G1 X184.814 Y97.583 E.01973
G1 X184.626 Y96.982 E.01973
G1 X184.501 Y96.375 E.01944
G1 X184.429 Y95.311 E.03345
G1 X184.471 Y94.693 E.01943
G1 X184.576 Y94.072 E.01973
G1 X184.744 Y93.466 E.01973
G1 X184.973 Y92.879 E.01973
G1 X185.26 Y92.319 E.01973
G1 X185.601 Y91.791 E.01973
G1 X185.989 Y91.307 E.01944
G1 X186.762 Y90.572 E.03345
G1 X187.265 Y90.21 E.01943
G1 X187.81 Y89.895 E.01973
G1 X188.384 Y89.637 E.01973
G1 X188.981 Y89.439 E.01973
G1 X189.595 Y89.302 E.01973
G1 X190.22 Y89.227 E.01973
G1 X190.832 Y89.217 E.01918
G1 X191.899 Y89.343 E.03371
G1 X192.013 Y89.372 E.00367
M204 S1000
G1 X192.165 Y89.022 F10800
M204 S800
;TYPE:External perimeter
G1 F1200
G1 X192.612 Y89.138 E.01448
G1 X193.238 Y89.37 E.02093
G1 X193.837 Y89.664 E.02093
G1 X194.404 Y90.017 E.02093
G1 X194.932 Y90.425 E.02093
G1 X195.416 Y90.885 E.02093
G1 X195.85 Y91.392 E.02093
G1 X196.232 Y91.94 E.02093
G1 X196.554 Y92.521 E.02083
G1 X196.96 Y93.562 E.03505
G1 X197.116 Y94.208 E.02083
G1 X197.206 Y94.869 E.02093
G1 X197.228 Y95.533 E.02081
G1 X197.115 Y96.646 E.03508
G1 X196.959 Y97.292 E.02083
G1 X196.738 Y97.921 E.02093
G1 X196.454 Y98.526 E.02093
G1 X196.111 Y99.098 E.02093
G1 X195.711 Y99.633 E.02093
G1 X195.26 Y100.124 E.02093
G1 X194.76 Y100.567 E.02093
G1 X194.219 Y100.958 E.02093
G1 X193.641 Y101.292 E.02093
G1 X193.032 Y101.565 E.02093
G1 X192.399 Y101.776 E.02093
G1 X191.747 Y101.921 E.02093
G1 X191.084 Y102 E.02093
G1 X190.42 Y102.011 E.02084
G1 X189.31 Y101.879 E.03505
G1 X188.667 Y101.713 E.02083
G1 X188.041 Y101.481 E.02093
G1 X187.441 Y101.187 E.02093
G1 X186.875 Y100.834 E.02093
G1 X186.347 Y100.425 E.02093
G1 X185.863 Y99.965 E.02093
G1 X185.428 Y99.459 E.02093
G1 X185.047 Y98.911 E.02093
G1 X184.723 Y98.327 E.02093
G1 X184.46 Y97.714 E.02093
G1 X184.26 Y97.077 E.02093
G1 X184.126 Y96.426 E.02084
G1 X184.051 Y95.311 E.03505
G1 X184.096 Y94.648 E.02083
G1 X184.208 Y93.99 E.02093
G1 X184.386 Y93.347 E.02093
G1 X184.629 Y92.725 E.02093
G1 X184.933 Y92.13 E.02093
G1 X185.295 Y91.57 E.02093
G1 X185.711 Y91.051 E.02084
G1 X186.521 Y90.281 E.03505
G1 X187.06 Y89.893 E.02083
G1 X187.638 Y89.559 E.02093
G1 X188.247 Y89.285 E.02093
G1 X188.88 Y89.075 E.02093
G1 X189.532 Y88.929 E.02093
G1 X190.195 Y88.851 E.02093
G1 X190.851 Y88.839 E.02057
G1 X191.969 Y88.971 E.03531
G1 X192.107 Y89.007 E.00447
M204 S1000
G1 X192.287 Y89.403 F10800
;WIPE_START
G1 F8640
G1 X192.612 Y89.138 E-.12046
G1 X193.238 Y89.37 E-.15413
G1 X193.837 Y89.664 E-.15414
G1 X194.404 Y90.017 E-.15412
G1 X194.932 Y90.425 E-.15414
G1 X195.004 Y90.494 E-.02301
;WIPE_END
G1 E-.04 F2100
G1 Z.6 F720
G1 X193.828 Y90.236 F10800
G1 Z.2 F720
G1 E.8 F2100
M204 S800
;TYPE:Solid infill
;WIDTH:0.425157
G1 F1200
G1 X194.958 Y91.365 E.05076
G1 X195.328 Y91.796 E.01806
G1 X195.671 Y92.289 E.01909
G1 X195.956 Y92.802 E.01864
G1 X196.02 Y92.968 E.00568
G1 X193.079 Y90.026 E.13223
G1 X192.414 Y89.768 E.02265
G1 X192.233 Y89.721 E.00596
G1 X196.347 Y93.835 E.18493
G1 X196.466 Y94.33 E.01617
G1 X196.492 Y94.521 E.00613
G1 X191.558 Y89.587 E.22177
G1 X190.946 Y89.515 E.01962
G1 X196.554 Y95.123 E.25209
G1 X196.567 Y95.51 E.01231
G1 X196.552 Y95.662 E.00483
G1 X190.397 Y89.507 E.27664
G1 X189.9 Y89.55 E.01587
G1 X196.502 Y96.152 E.29676
G1 X196.44 Y96.631 E.01534
G1 X189.436 Y89.627 E.31482
G1 X188.999 Y89.731 E.01427
G1 X196.335 Y97.066 E.32973
G1 X196.197 Y97.47 E.01354
G1 X188.593 Y89.866 E.34179
G1 X188.212 Y90.024 E.01314
G1 X196.041 Y97.854 E.35191
G1 X195.868 Y98.221 E.01291
G1 X187.847 Y90.2 E.36052
G1 X187.504 Y90.398 E.01258
G1 X195.665 Y98.559 E.36681
G1 X195.448 Y98.882 E.01238
G1 X187.183 Y90.617 E.3715
G1 X186.878 Y90.853 E.01225
G1 X195.217 Y99.192 E.37483
G1 X194.96 Y99.475 E.01216
G1 X186.601 Y91.116 E.37573
G1 X186.323 Y91.38 E.01215
G1 X194.691 Y99.747 E.37609
G1 X194.404 Y100.001 E.01217
G1 X186.066 Y91.663 E.37478
G1 X185.826 Y91.964 E.01223
G1 X194.096 Y100.233 E.3717
G1 X193.775 Y100.453 E.01236
G1 X185.614 Y92.292 E.3668
G1 X185.416 Y92.634 E.01257
G1 X193.432 Y100.65 E.3603
G1 X193.067 Y100.826 E.01287
G1 X185.233 Y92.992 E.35213
G1 X185.081 Y93.381 E.01326
G1 X192.686 Y100.985 E.3418
G1 X192.28 Y101.12 E.01359
G1 X184.948 Y93.789 E.32953
G1 X184.838 Y94.219 E.01412
M73 Q0 S70
G1 X191.843 Y101.224 E.31485
G1 X191.379 Y101.3 E.01494
G1 X184.76 Y94.681 E.29754
G1 X184.721 Y95.183 E.016
G1 X190.882 Y101.343 E.27691
G1 X190.453 Y101.351 E.01361
M73 Q1 S70
G1 X190.334 Y101.336 E.00382
G1 X184.742 Y95.744 E.25137
G1 X184.781 Y96.324 E.01847
G1 X189.721 Y101.264 E.22204
G1 X189.432 Y101.229 E.00924
M73 P1 R70
G1 X189.046 Y101.129 E.01268
G1 X184.933 Y97.016 E.18488
G1 X185.08 Y97.484 E.0156
G1 X185.244 Y97.868 E.01328
G1 X188.2 Y100.824 E.13285
G1 X187.762 Y100.609 E.0155
G1 X187.252 Y100.292 E.01909
G1 X186.777 Y99.924 E.01909
G1 X185.435 Y98.6 E.05994
M204 S1000
; stop printing object Barrel Plug LDPE.stl id:14 copy 0
; printing object Barrel Plug LDPE.stl id:13 copy 0
;WIPE_START
G1 F8640
G1 X186.777 Y99.924 E-.43545
G1 X187.252 Y100.292 E-.13867
G1 X187.762 Y100.609 E-.13869
G1 X187.946 Y100.699 E-.04719
;WIPE_END
G1 E-.04 F2100
G1 Z.6 F720
G1 X180.282 Y93.455 F10800
G1 Z.2 F720
G1 E.8 F2100
M204 S800
;TYPE:Perimeter
;WIDTH:0.419999
G1 F1200
G1 X180.436 Y93.944 E.01606
G1 X180.547 Y94.563 E.01972
G1 X180.604 Y95.444 E.02769
G1 X180.496 Y96.506 E.03347
G1 X180.35 Y97.109 E.01943
G1 X180.142 Y97.702 E.01973
G1 X179.874 Y98.272 E.01973
G1 X179.551 Y98.811 E.01973
G1 X179.174 Y99.315 E.01973
G1 X178.748 Y99.779 E.01973
G1 X178.278 Y100.197 E.01973
G1 X177.767 Y100.565 E.01973
G1 X177.222 Y100.879 E.01973
G1 X176.648 Y101.137 E.01973
G1 X176.051 Y101.336 E.01973
G1 X175.437 Y101.473 E.01973
G1 X174.812 Y101.547 E.01973
G1 X174.192 Y101.558 E.01944
G1 X173.133 Y101.432 E.03345
G1 X172.533 Y101.276 E.01943
G1 X171.943 Y101.058 E.01973
G1 X171.378 Y100.781 E.01973
G1 X170.844 Y100.448 E.01973
G1 X170.346 Y100.063 E.01973
G1 X169.89 Y99.629 E.01973
G1 X169.48 Y99.152 E.01973
G1 X169.121 Y98.635 E.01973
G1 X168.815 Y98.085 E.01973
G1 X168.567 Y97.507 E.01973
G1 X168.379 Y96.906 E.01973
G1 X168.254 Y96.299 E.01944
G1 X168.182 Y95.235 E.03345
G1 X168.224 Y94.616 E.01943
G1 X168.33 Y93.996 E.01973
G1 X168.498 Y93.39 E.01973
G1 X168.726 Y92.803 E.01973
G1 X169.013 Y92.243 E.01973
G1 X169.355 Y91.715 E.01973
G1 X169.742 Y91.231 E.01944
G1 X170.515 Y90.496 E.03345
G1 X171.018 Y90.134 E.01943
G1 X171.563 Y89.819 E.01973
G1 X172.137 Y89.561 E.01973
G1 X172.734 Y89.363 E.01973
G1 X173.348 Y89.225 E.01973
G1 X173.973 Y89.151 E.01973
G1 X174.585 Y89.141 E.01918
G1 X175.653 Y89.267 E.03371
G1 X176.252 Y89.422 E.01942
G1 X176.842 Y89.641 E.01973
G1 X177.407 Y89.918 E.01973
G1 X177.941 Y90.25 E.01973
G1 X178.439 Y90.636 E.01973
G1 X178.895 Y91.069 E.01973
G1 X179.305 Y91.547 E.01973
G1 X179.665 Y92.063 E.01973
G1 X179.965 Y92.605 E.01943
G1 X180.264 Y93.398 E.02656
M204 S1000
G1 X180.659 Y93.346 F10800
M204 S800
;TYPE:External perimeter
G1 F1200
G1 X180.713 Y93.486 E.00472
G1 X180.802 Y93.855 E.01191
G1 X180.921 Y94.512 E.02092
G1 X180.981 Y95.457 E.02969
G1 X180.868 Y96.57 E.03508
G1 X180.713 Y97.215 E.02083
G1 X180.491 Y97.845 E.02093
G1 X180.208 Y98.449 E.02093
G1 X179.864 Y99.022 E.02093
G1 X179.464 Y99.557 E.02093
G1 X179.013 Y100.048 E.02093
G1 X178.514 Y100.491 E.02093
G1 X177.972 Y100.882 E.02093
G1 X177.394 Y101.216 E.02093
G1 X176.785 Y101.489 E.02093
G1 X176.152 Y101.7 E.02093
G1 X175.5 Y101.845 E.02093
G1 X174.838 Y101.924 E.02093
G1 X174.173 Y101.935 E.02084
G1 X173.063 Y101.803 E.03505
G1 X172.42 Y101.637 E.02083
G1 X171.794 Y101.405 E.02093
G1 X171.195 Y101.111 E.02093
G1 X170.628 Y100.758 E.02093
G1 X170.1 Y100.349 E.02093
G1 X169.616 Y99.889 E.02093
G1 X169.182 Y99.383 E.02093
G1 X168.8 Y98.835 E.02093
G1 X168.476 Y98.251 E.02093
G1 X168.213 Y97.638 E.02093
G1 X168.013 Y97.001 E.02093
G1 X167.88 Y96.35 E.02084
G1 X167.804 Y95.235 E.03505
G1 X167.849 Y94.572 E.02083
G1 X167.961 Y93.914 E.02093
G1 X168.139 Y93.271 E.02093
G1 X168.382 Y92.649 E.02093
G1 X168.686 Y92.054 E.02093
G1 X169.048 Y91.494 E.02093
G1 X169.464 Y90.975 E.02084
G1 X170.274 Y90.205 E.03505
G1 X170.813 Y89.817 E.02083
G1 X171.391 Y89.483 E.02093
G1 X172 Y89.209 E.02093
G1 X172.633 Y88.999 E.02093
G1 X173.285 Y88.853 E.02093
G1 X173.948 Y88.775 E.02093
G1 X174.604 Y88.763 E.02057
G1 X175.722 Y88.895 E.03531
