; generated by PrusaSlicer 2.5.0+win64 on 2023-01-26 at 08:47:39 UTC


;
;
; 

; external perimeters extrusion width = 0.50mm
; perimeters extrusion width = 0.50mm
; infill extrusion width = 0.50mm
; solid infill extrusion width = 0.50mm
; top infill extrusion width = 0.50mm
; first layer extrusion width = 0.50mm

; external perimeters extrusion width = 0.50mm
; perimeters extrusion width = 0.50mm
; infill extrusion width = 0.50mm
; solid infill extrusion width = 0.50mm
; top infill extrusion width = 0.50mm
; first layer extrusion width = 0.50mm

M73 P0 R126
M73 Q0 S127
M201 X1000 Y1000 Z200 E5000 ; sets maximum accelerations, mm/sec^2
M203 X200 Y200 Z12 E120 ; sets maximum feedrates, mm / sec
M204 P1250 R1250 T1250 ; sets acceleration (P, T) and retract acceleration (R), mm/sec^2
M205 X8.00 Y8.00 Z0.40 E4.50 ; sets the jerk limits, mm/sec
M205 S0 T0 ; sets the minimum extruding and travel feed rate, mm/sec
M107
;TYPE:Custom
M862.3 P "MK3S" ; printer model check
M862.1 P0.4 ; nozzle diameter check
M115 U3.11.0 ; tell printer latest fw version
G90 ; use absolute coordinates
M83 ; extruder relative mode
M104 S215 ; set extruder temp
M140 S60 ; set bed temp
M190 S60 ; wait for bed temp
M109 S215 ; wait for extruder temp
G28 W ; home all without mesh bed level
G80 ; mesh bed leveling

G1 Z0.2 F720
G1 Y-3 F1000 ; go outside print area
G92 E0
G1 X60 E9 F1000 ; intro line
G1 X100 E12.5 F1000 ; intro line

G92 E0
M221 S95

; Don't change E values below. Excessive value can damage the printer.
M907 E430 ; set extruder motor current
G21 ; set units to millimeters
G90 ; use absolute coordinates
M83 ; use relative distances for extrusion
M900 K0.05 ; Filament gcode LA 1.5
M900 K30 ; Filament gcode LA 1.0
M107
;LAYER_CHANGE
;Z:0.2
;HEIGHT:0.2
;BEFORE_LAYER_CHANGE
G92 E0.0
;0.2


G1 E-.8 F2100
G1 Z.4 F720
;AFTER_LAYER_CHANGE
;0.2
G1 X95.444 Y32.975 F10800
G1 Z.2 F720
G1 E.8 F2100
M204 S800
;TYPE:Skirt/Brim
;WIDTH:0.5
G1 F1200
G1 X96.494 Y32.068 E.05274
G1 X97.509 Y31.849 E.03945
G1 X110.061 Y31.849 E.47706
G1 X137.746 Y32.436 E1.05244
G1 X139.069 Y32.856 E.05274
G1 X139.953 Y33.926 E.05274
G1 X140.151 Y34.893 E.03752
G1 X140.151 Y186.893 E5.77696
G1 X139.759 Y188.224 E.05274
G1 X138.709 Y189.131 E.05274
G1 X137.694 Y189.35 E.03945
G1 X125.142 Y189.349 E.47706
G1 X97.457 Y188.762 E1.05244
G1 X96.134 Y188.342 E.05274
G1 X95.25 Y187.273 E.05274
G1 X95.052 Y186.306 E.03752
G1 X95.052 Y34.306 E5.77696
G1 X95.427 Y33.032 E.05046
M204 S1000
; printing object Rails.stl id:0 copy 0
;WIPE_START
M73 P0 R125
G1 F8640
G1 X96.494 Y32.068 E-.33215
G1 X97.509 Y31.849 E-.23969
G1 X98.324 Y31.849 E-.18816
;WIPE_END
G1 E-.04 F2100
M73 Q0 S126
G1 Z.6 F720
G1 X108.645 Y184.942 F10800
G1 Z.2 F720
G1 E.8 F2100
M204 S800
;TYPE:Perimeter
;WIDTH:0.499999
G1 F1200
G1 X98.873 Y184.942 E.37139
G1 X98.873 Y35.67 E5.67326
G1 X108.645 Y35.67 E.37139
G1 X108.645 Y184.882 E5.67098
M204 S1000
G1 X109.102 Y185.399 F10800
M204 S800
G1 F1200
G1 X98.416 Y185.399 E.40613
G1 X98.416 Y35.213 E5.708
G1 X109.102 Y35.213 E.40613
G1 X109.102 Y185.339 E5.70572
M204 S1000
G1 X109.559 Y185.856 F10800
M204 S800
;TYPE:External perimeter
G1 F1200
G1 X97.959 Y185.856 E.44087
G1 X97.959 Y34.756 E5.74275
G1 X109.559 Y34.756 E.44087
G1 X109.559 Y185.796 E5.74047
M204 S1000
G1 X109.207 Y185.665 F10800
;WIPE_START
M73 P1 R125
M73 Q1 S126
G1 F8640
G1 X106.267 Y185.813 E-.76
;WIPE_END
G1 E-.04 F2100
G1 Z.6 F720
G1 X106.524 Y42.153 F10800
G1 Z.2 F720
G1 E.8 F2100
M204 S800
;TYPE:Perimeter
G1 F1200
G1 X106.688 Y42.611 E.01847
G1 X106.769 Y43.182 E.02191
G1 X106.738 Y43.762 E.02207
G1 X106.55 Y44.435 E.02658
G1 X106.259 Y44.983 E.02359
G1 X105.866 Y45.456 E.02338
G1 X105.413 Y45.824 E.02216
G1 X104.998 Y46.05 E.01794
G1 X104.414 Y46.244 E.02341
G1 X103.837 Y46.318 E.02209
G1 X103.178 Y46.26 E.02514
G1 X102.589 Y46.08 E.02342
G1 X102.074 Y45.803 E.02221
G1 X101.707 Y45.509 E.01788
G1 X101.303 Y45.047 E.02334
G1 X100.997 Y44.504 E.02367
G1 X100.816 Y43.951 E.02211
G1 X100.746 Y43.373 E.02215
G1 X100.805 Y42.716 E.02506
G1 X100.934 Y42.264 E.01788
G1 X101.204 Y41.714 E.02327
G1 X101.429 Y41.399 E.01473
G1 X101.871 Y40.961 E.02364
G1 X102.393 Y40.623 E.02362
G1 X102.974 Y40.399 E.02368
G1 X103.579 Y40.301 E.02328
G1 X104.049 Y40.308 E.01789
G1 X104.618 Y40.421 E.02206
G1 X105.191 Y40.658 E.02357
G1 X105.705 Y41.009 E.02363
G1 X106.135 Y41.458 E.02363
G1 X106.461 Y41.979 E.02339
G1 X106.504 Y42.097 E.00475
M204 S1000
G1 X106.086 Y42.261 F10800
M204 S800
G1 F1200
G1 X106.237 Y42.688 E.01721
G1 X106.311 Y43.206 E.0199
G1 X106.278 Y43.728 E.01988
G1 X106.138 Y44.237 E.02005
G1 X105.896 Y44.705 E.02002
G1 X105.567 Y45.11 E.01984
G1 X105.179 Y45.431 E.01913
G1 X104.837 Y45.622 E.01491
G1 X104.343 Y45.793 E.01985
G1 X103.845 Y45.861 E.01912
G1 X103.295 Y45.818 E.02096
G1 X102.793 Y45.671 E.01987
G1 X102.347 Y45.436 E.01917
G1 X102.039 Y45.195 E.01486
G1 X101.692 Y44.807 E.01978
G1 X101.427 Y44.35 E.02009
G1 X101.266 Y43.872 E.01914
G1 X101.203 Y43.373 E.01913
G1 X101.248 Y42.826 E.02086
G1 X101.352 Y42.449 E.01488
G1 X101.575 Y41.98 E.01972
G1 X101.801 Y41.665 E.01473
G1 X102.18 Y41.298 E.02006
G1 X102.626 Y41.016 E.02004
G1 X103.121 Y40.832 E.0201
G1 X103.635 Y40.754 E.01973
G1 X104.144 Y40.781 E.0194
G1 X104.65 Y40.912 E.01983
G1 X105.122 Y41.145 E.02003
G1 X105.537 Y41.472 E.02006
G1 X105.875 Y41.875 E.02003
G1 X106.057 Y42.209 E.01443
M204 S1000
G1 X105.699 Y42.512 F10800
M204 S800
;TYPE:External perimeter
G1 F1200
G1 X105.787 Y42.765 E.01018
G1 X105.855 Y43.19 E.01635
G1 X105.835 Y43.619 E.01632
G1 X105.726 Y44.038 E.01647
G1 X105.534 Y44.427 E.01646
G1 X105.269 Y44.764 E.0163
G1 X104.946 Y45.038 E.0161
G1 X104.675 Y45.194 E.01188
G1 X104.273 Y45.341 E.01629
G1 X103.844 Y45.403 E.01647
G1 X103.411 Y45.376 E.01647
G1 X102.997 Y45.262 E.01632
G1 X102.619 Y45.069 E.01613
G1 X102.371 Y44.881 E.01185
G1 X102.081 Y44.567 E.01622
G1 X101.857 Y44.195 E.01651
G1 X101.715 Y43.786 E.01647
G1 X101.66 Y43.358 E.0164
G1 X101.692 Y42.936 E.01608
G1 X101.771 Y42.633 E.01187
G1 X101.947 Y42.246 E.01616
G1 X102.172 Y41.931 E.01473
G1 X102.527 Y41.607 E.01826
G1 X102.902 Y41.39 E.01647
G1 X103.314 Y41.254 E.0165
G1 X103.73 Y41.207 E.0159
G1 X104.042 Y41.226 E.01188
G1 X104.458 Y41.327 E.01627
G1 X104.849 Y41.512 E.01646
G1 X105.195 Y41.775 E.01648
G1 X105.479 Y42.102 E.01647
G1 X105.677 Y42.456 E.01543
M204 S1000
G1 X105.966 Y42.539 F10800
;WIPE_START
G1 F8640
G1 X105.787 Y42.765 E-.07565
G1 X105.855 Y43.19 E-.09935
G1 X105.835 Y43.619 E-.09915
G1 X105.726 Y44.038 E-.10008
G1 X105.534 Y44.427 E-.10002
G1 X105.269 Y44.764 E-.099
G1 X104.946 Y45.038 E-.0978
G1 X104.675 Y45.194 E-.0722
G1 X104.607 Y45.219 E-.01674
;WIPE_END
G1 E-.04 F2100
G1 Z.6 F720
G1 X103.259 Y105.263 F10800
G1 Z.2 F720
G1 E.8 F2100
M204 S800
;TYPE:Perimeter
G1 F1200
G1 X102.808 Y105.162 E.01754
G1 X102.245 Y104.908 E.02349
G1 X101.707 Y104.509 E.02545
G1 X101.303 Y104.047 E.02334
G1 X100.997 Y103.504 E.02367
G1 X100.816 Y102.951 E.02211
G1 X100.746 Y102.373 E.02215
G1 X100.805 Y101.716 E.02507
G1 X100.934 Y101.264 E.01788
G1 X101.204 Y100.714 E.02327
G1 X101.586 Y100.222 E.02368
G1 X102.06 Y99.82 E.02362
G1 X102.607 Y99.524 E.02364
G1 X103.203 Y99.347 E.02361
G1 X103.726 Y99.292 E.02
G1 X104.247 Y99.335 E.01986
G1 X104.841 Y99.496 E.0234
G1 X105.394 Y99.778 E.02361
G1 X105.879 Y100.168 E.02363
G1 X106.272 Y100.648 E.02359
G1 X106.545 Y101.16 E.02205
G1 X106.688 Y101.611 E.01796
G1 X106.769 Y102.182 E.02191
G1 X106.738 Y102.762 E.02207
G1 X106.55 Y103.435 E.02658
G1 X106.259 Y103.983 E.02359
G1 X105.866 Y104.456 E.02338
G1 X105.413 Y104.824 E.02216
G1 X104.998 Y105.05 E.01795
G1 X104.641 Y105.184 E.01451
G1 X104.032 Y105.304 E.02359
G1 X103.411 Y105.296 E.02363
G1 X103.317 Y105.276 E.00364
M204 S1000
G1 X103.684 Y104.846 F10800
M204 S800
G1 F1200
G1 X103.434 Y104.84 E.0095
G1 X102.925 Y104.721 E.01989
G1 X102.449 Y104.499 E.01994
G1 X102.039 Y104.195 E.01941
G1 X101.692 Y103.807 E.01978
M73 P1 R124
G1 X101.427 Y103.35 E.02009
G1 X101.266 Y102.873 E.01914
G1 X101.203 Y102.373 E.01914
G1 X101.249 Y101.826 E.02086
G1 X101.352 Y101.449 E.01487
G1 X101.575 Y100.98 E.01972
G1 X101.895 Y100.559 E.0201
G1 X102.293 Y100.213 E.02005
G1 X102.755 Y99.957 E.02005
G1 X103.259 Y99.801 E.02006
G1 X103.753 Y99.75 E.01891
G1 X104.144 Y99.781 E.0149
G1 X104.65 Y99.912 E.01983
G1 X105.122 Y100.145 E.02003
G1 X105.537 Y100.472 E.02006
G1 X105.875 Y100.875 E.02003
G1 X106.115 Y101.315 E.01902
G1 X106.237 Y101.688 E.01492
G1 X106.311 Y102.206 E.01989
G1 X106.278 Y102.728 E.01989
G1 X106.138 Y103.237 E.02005
G1 X105.896 Y103.705 E.02002
G1 X105.567 Y104.11 E.01983
G1 X105.179 Y104.431 E.01913
G1 X104.837 Y104.622 E.01492
G1 X104.48 Y104.757 E.01451
G1 X103.962 Y104.852 E.02002
G1 X103.744 Y104.847 E.00827
M204 S1000
G1 X104.151 Y104.355 F10800
M204 S800
;TYPE:External perimeter
G1 F1200
G1 X103.844 Y104.403 E.01183
G1 X103.411 Y104.376 E.01647
G1 X102.997 Y104.262 E.01632
G1 X102.619 Y104.069 E.01613
G1 X102.371 Y103.881 E.01185
G1 X102.081 Y103.567 E.01622
G1 X101.857 Y103.195 E.01651
G1 X101.715 Y102.786 E.01647
G1 X101.66 Y102.358 E.0164
G1 X101.692 Y101.936 E.01608
G1 X101.771 Y101.633 E.01187
G1 X101.947 Y101.246 E.01616
G1 X102.204 Y100.896 E.01651
G1 X102.527 Y100.607 E.01647
G1 X102.902 Y100.39 E.01647
G1 X103.314 Y100.254 E.0165
G1 X103.73 Y100.207 E.0159
G1 X104.042 Y100.226 E.01188
G1 X104.458 Y100.327 E.01627
G1 X104.849 Y100.512 E.01646
G1 X105.195 Y100.775 E.01648
G1 X105.479 Y101.102 E.01647
G1 X105.684 Y101.469 E.016
G1 X105.787 Y101.765 E.01189
G1 X105.855 Y102.19 E.01635
G1 X105.835 Y102.619 E.01633
G1 X105.726 Y103.038 E.01647
G1 X105.534 Y103.427 E.01646
G1 X105.269 Y103.764 E.01629
G1 X104.946 Y104.038 E.0161
G1 X104.675 Y104.194 E.01189
G1 X104.318 Y104.329 E.01451
G1 X104.211 Y104.346 E.00414
M204 S1000
G1 X104.053 Y104.651 F10800
;WIPE_START
G1 F8640
G1 X103.844 Y104.403 E-.08571
G1 X103.411 Y104.376 E-.10007
G1 X102.997 Y104.262 E-.09914
G1 X102.619 Y104.069 E-.09802
G1 X102.371 Y103.881 E-.07199
G1 X102.081 Y103.567 E-.09856
G1 X101.857 Y103.195 E-.10031
G1 X101.715 Y102.786 E-.10005
G1 X101.712 Y102.759 E-.00615
;WIPE_END
G1 E-.04 F2100
G1 Z.6 F720
G1 X103.649 Y158.3 F10800
G1 Z.2 F720
G1 E.8 F2100
M204 S800
;TYPE:Perimeter
G1 F1200
G1 X103.726 Y158.292 E.00294
G1 X104.247 Y158.335 E.01986
G1 X104.841 Y158.496 E.0234
G1 X105.394 Y158.778 E.02361
G1 X105.879 Y159.168 E.02363
G1 X106.272 Y159.648 E.02359
G1 X106.545 Y160.16 E.02205
G1 X106.688 Y160.611 E.01796
G1 X106.769 Y161.182 E.02191
G1 X106.738 Y161.762 E.02207
G1 X106.55 Y162.435 E.02658
G1 X106.259 Y162.983 E.02359
G1 X105.866 Y163.456 E.02338
G1 X105.413 Y163.824 E.02216
G1 X104.998 Y164.049 E.01794
G1 X104.414 Y164.244 E.02341
G1 X103.837 Y164.318 E.02209
G1 X103.178 Y164.26 E.02514
G1 X102.589 Y164.08 E.02342
G1 X102.074 Y163.803 E.02222
G1 X101.707 Y163.509 E.01787
G1 X101.303 Y163.047 E.02334
G1 X100.997 Y162.504 E.02367
G1 X100.816 Y161.951 E.02211
G1 X100.746 Y161.373 E.02215
G1 X100.805 Y160.716 E.02506
G1 X100.934 Y160.264 E.01788
G1 X101.204 Y159.714 E.02327
G1 X101.586 Y159.222 E.02368
G1 X102.06 Y158.82 E.02362
G1 X102.607 Y158.524 E.02364
G1 X103.203 Y158.347 E.02362
G1 X103.589 Y158.307 E.01478
M204 S1000
G1 X103.693 Y158.756 F10800
M204 S800
M73 Q1 S125
G1 F1200
G1 X104.144 Y158.781 E.01717
G1 X104.649 Y158.912 E.01983
G1 X105.122 Y159.145 E.02003
G1 X105.537 Y159.472 E.02006
G1 X105.875 Y159.875 E.02003
G1 X106.115 Y160.315 E.01902
G1 X106.237 Y160.688 E.01493
G1 X106.312 Y161.182 E.01898
G1 X106.288 Y161.683 E.01906
G1 X106.138 Y162.237 E.02182
G1 X105.896 Y162.705 E.02002
G1 X105.567 Y163.11 E.01983
G1 X105.179 Y163.431 E.01913
G1 X104.837 Y163.622 E.01491
G1 X104.343 Y163.793 E.01985
G1 X103.845 Y163.861 E.01912
G1 X103.295 Y163.818 E.02096
G1 X102.793 Y163.671 E.01986
G1 X102.347 Y163.436 E.01918
G1 X102.039 Y163.195 E.01486
G1 X101.692 Y162.807 E.01978
G1 X101.427 Y162.35 E.02009
G1 X101.266 Y161.873 E.01914
G1 X101.203 Y161.373 E.01914
G1 X101.248 Y160.826 E.02086
G1 X101.352 Y160.449 E.01488
G1 X101.575 Y159.98 E.01972
G1 X101.895 Y159.559 E.0201
G1 X102.293 Y159.213 E.02005
G1 X102.755 Y158.957 E.02005
G1 X103.259 Y158.801 E.02006
G1 X103.634 Y158.762 E.01433
M204 S1000
G1 X103.679 Y159.213 F10800
M204 S800
;TYPE:External perimeter
G1 F1200
G1 X104.042 Y159.226 E.01381
G1 X104.458 Y159.327 E.01627
G1 X104.849 Y159.512 E.01646
G1 X105.195 Y159.775 E.01648
G1 X105.479 Y160.102 E.01647
G1 X105.684 Y160.469 E.016
G1 X105.787 Y160.765 E.01189
G1 X105.855 Y161.182 E.01605
G1 X105.835 Y161.619 E.01663
G1 X105.726 Y162.038 E.01647
G1 X105.534 Y162.427 E.01646
G1 X105.269 Y162.764 E.01629
G1 X104.946 Y163.038 E.0161
G1 X104.675 Y163.194 E.01188
G1 X104.273 Y163.341 E.01629
G1 X103.844 Y163.403 E.01647
G1 X103.411 Y163.376 E.01647
G1 X102.998 Y163.262 E.01632
G1 X102.619 Y163.069 E.01614
G1 X102.371 Y162.881 E.01185
G1 X102.081 Y162.567 E.01622
G1 X101.857 Y162.195 E.01651
G1 X101.715 Y161.786 E.01647
G1 X101.66 Y161.358 E.0164
G1 X101.692 Y160.936 E.01608
G1 X101.771 Y160.633 E.01188
G1 X101.947 Y160.246 E.01616
G1 X102.204 Y159.896 E.01651
G1 X102.527 Y159.607 E.01647
G1 X102.902 Y159.39 E.01647
G1 X103.314 Y159.254 E.0165
G1 X103.619 Y159.219 E.01167
M204 S1000
G1 X103.845 Y158.889 F10800
;WIPE_START
G1 F8640
G1 X104.042 Y159.226 E-.0976
G1 X104.458 Y159.327 E-.09887
G1 X104.849 Y159.512 E-.1
G1 X105.195 Y159.775 E-.10012
G1 X105.479 Y160.102 E-.10004
G1 X105.684 Y160.469 E-.0972
G1 X105.787 Y160.765 E-.07226
G1 X105.852 Y161.166 E-.0939
;WIPE_END
G1 E-.04 F2100
G1 Z.6 F720
G1 X108.508 Y36.732 F10800
G1 Z.2 F720
G1 E.8 F2100
M204 S800
;TYPE:Solid infill
;WIDTH:0.500623
G1 F1200
G1 X107.788 Y36.013 E.03873
G1 X107.141 Y36.013 E.02463
G1 X108.302 Y37.174 E.0625
G1 X108.302 Y37.821 E.02463
G1 X106.493 Y36.013 E.09734
G1 X105.846 Y36.013 E.02463
G1 X108.302 Y38.469 E.13218
G1 X108.302 Y39.116 E.02463
G1 X105.199 Y36.013 E.16702
G1 X104.551 Y36.013 E.02463
G1 X108.302 Y39.763 E.20185
G1 X108.302 Y40.411 E.02463
G1 X103.904 Y36.013 E.23669
G1 X103.257 Y36.013 E.02463
G1 X108.302 Y41.058 E.27153
G1 X108.302 Y41.705 E.02463
G1 X102.61 Y36.013 E.30637
G1 X101.962 Y36.013 E.02463
G1 X108.302 Y42.352 E.34121
G1 X108.302 Y43 E.02463
G1 X101.315 Y36.013 E.37605
G1 X100.668 Y36.013 E.02463
G1 X104.764 Y40.109 E.22049
G1 X104.979 Y40.183 E.00863
G1 X105.34 Y40.349 E.01514
G1 X105.594 Y40.5 E.01122
G1 X105.914 Y40.737 E.01517
G1 X106.131 Y40.936 E.01123
G1 X106.396 Y41.235 E.01516
G1 X106.567 Y41.473 E.01118
G1 X106.763 Y41.816 E.01502
G1 X106.961 Y42.307 E.02015
G1 X108.508 Y43.853 E.08321
M204 S1000
;WIPE_START
G1 F8640
G1 X106.961 Y42.307 E-.50486
G1 X106.763 Y41.816 E-.12225
G1 X106.567 Y41.473 E-.09115
G1 X106.461 Y41.326 E-.04174
;WIPE_END
G1 E-.04 F2100
G1 Z.6 F720
G1 X106.86 Y42.852 F10800
G1 Z.2 F720
G1 E.8 F2100
M204 S800
G1 F1200
G1 X108.302 Y44.294 E.07763
G1 X108.302 Y44.942 E.02463
G1 X107.082 Y43.722 E.06565
G1 X107.077 Y43.818 E.00365
G1 X106.971 Y44.258 E.01724
G1 X108.302 Y45.589 E.07162
G1 X108.302 Y46.236 E.02463
G1 X106.791 Y44.725 E.08134
G1 X106.562 Y45.143 E.01815
G1 X108.302 Y46.883 E.09366
G1 X108.302 Y47.531 E.02463
G1 X106.283 Y45.512 E.10865
G1 X105.955 Y45.832 E.01742
G1 X108.302 Y48.178 E.12629
G1 X108.302 Y48.825 E.02463
G1 X105.592 Y46.116 E.14584
G1 X105.172 Y46.343 E.01818
G1 X108.302 Y49.473 E.16845
G1 X108.302 Y50.12 E.02463
G1 X104.703 Y46.521 E.19369
G1 X104.471 Y46.583 E.00915
G1 X104.156 Y46.621 E.01207
G1 X108.302 Y50.767 E.22313
G1 X108.302 Y51.414 E.02463
G1 X103.305 Y46.417 E.26896
M204 S1000
;WIPE_START
G1 F8640
G1 X105.632 Y48.745 E-.76
;WIPE_END
G1 E-.04 F2100
G1 Z.6 F720
G1 X104.198 Y40.191 F10800
G1 Z.2 F720
G1 E.8 F2100
M204 S800
G1 F1200
G1 X100.02 Y36.013 E.22487
G1 X99.373 Y36.013 E.02463
G1 X103.345 Y39.985 E.21378
G1 X103.084 Y40.018 E.01002
G1 X102.808 Y40.095 E.01091
G1 X99.216 Y36.503 E.19333
G1 X99.216 Y37.15 E.02463
G1 X102.334 Y40.268 E.16783
G1 X101.923 Y40.504 E.01805
G1 X99.216 Y37.797 E.14568
G1 X99.216 Y38.445 E.02463
G1 X101.556 Y40.785 E.12595
G1 X101.231 Y41.107 E.01742
