; generated by PrusaSlicer 2.5.0+win64 on 2023-01-31 at 10:16:48 UTC


;
;
; 

; external perimeters extrusion width = 0.50mm
; perimeters extrusion width = 0.50mm
; infill extrusion width = 0.50mm
; solid infill extrusion width = 0.50mm
; top infill extrusion width = 0.50mm
; first layer extrusion width = 0.50mm

; external perimeters extrusion width = 0.50mm
; perimeters extrusion width = 0.50mm
; infill extrusion width = 0.50mm
; solid infill extrusion width = 0.50mm
; top infill extrusion width = 0.50mm
; first layer extrusion width = 0.50mm

M73 P0 R120
M73 Q0 S121
M201 X1000 Y1000 Z200 E5000 ; sets maximum accelerations, mm/sec^2
M203 X200 Y200 Z12 E120 ; sets maximum feedrates, mm / sec
M204 P1250 R1250 T1250 ; sets acceleration (P, T) and retract acceleration (R), mm/sec^2
M205 X8.00 Y8.00 Z0.40 E4.50 ; sets the jerk limits, mm/sec
M205 S0 T0 ; sets the minimum extruding and travel feed rate, mm/sec
M107
;TYPE:Custom
M862.3 P "MK3S" ; printer model check
M862.1 P0.4 ; nozzle diameter check
M115 U3.11.0 ; tell printer latest fw version
G90 ; use absolute coordinates
M83 ; extruder relative mode
M104 S215 ; set extruder temp
M140 S60 ; set bed temp
M190 S60 ; wait for bed temp
M109 S215 ; wait for extruder temp
G28 W ; home all without mesh bed level
G80 ; mesh bed leveling

G1 Z0.2 F720
G1 Y-3 F1000 ; go outside print area
G92 E0
G1 X60 E9 F1000 ; intro line
G1 X100 E12.5 F1000 ; intro line

G92 E0
M221 S95

; Don't change E values below. Excessive value can damage the printer.
M907 E430 ; set extruder motor current
G21 ; set units to millimeters
G90 ; use absolute coordinates
M83 ; use relative distances for extrusion
M900 K0.05 ; Filament gcode LA 1.5
M900 K30 ; Filament gcode LA 1.0
M107
;LAYER_CHANGE
;Z:0.2
;HEIGHT:0.2
;BEFORE_LAYER_CHANGE
G92 E0.0
;0.2


G1 E-.8 F2100
G1 Z.4 F720
;AFTER_LAYER_CHANGE
;0.2
G1 X116.293 Y33 F10800
G1 Z.2 F720
G1 E.8 F2100
M204 S800
;TYPE:Skirt/Brim
;WIDTH:0.5
G1 F1200
G1 X116.685 Y31.669 E.05274
G1 X117.735 Y30.762 E.05274
G1 X118.75 Y30.543 E.03945
G1 X131.418 Y30.549 E.48148
G1 X153.681 Y32.078 E.84811
G1 X154.982 Y32.56 E.05274
M73 P0 R119
G1 X155.815 Y33.67 E.05274
G1 X155.97 Y34.529 E.03317
G1 X155.97 Y178.529 E5.47291
G1 X155.578 Y179.86 E.05274
M73 Q0 S120
G1 X154.527 Y180.767 E.05274
G1 X153.513 Y180.986 E.03945
G1 X140.844 Y180.98 E.48148
G1 X118.582 Y179.451 E.84811
G1 X117.28 Y178.969 E.05274
G1 X116.448 Y177.859 E.05274
G1 X116.293 Y177 E.03317
G1 X116.293 Y33.06 E5.47063
M204 S1000
; printing object Rails.stl id:0 copy 0
;WIPE_START
G1 F8640
G1 X116.685 Y31.669 E-.33373
G1 X117.735 Y30.762 E-.32042
G1 X118.183 Y30.665 E-.10585
;WIPE_END
G1 E-.04 F2100
G1 Z.6 F720
G1 X129.886 Y175.636 F10800
G1 Z.2 F720
G1 E.8 F2100
M204 S800
;TYPE:Perimeter
;WIDTH:0.499999
G1 F1200
G1 X126.402 Y175.636 E.13239
;WIDTH:0.54075
G1 X126.171 Y175.615 E.0096
;WIDTH:0.581501
G1 X125.94 Y175.595 E.01039
;WIDTH:0.622251
G1 X125.709 Y175.575 E.01117
G1 X125.022 Y175.594 E.03313
;WIDTH:0.618034
G1 X124.331 Y175.577 E.03304
G1 X124.096 Y175.596 E.01126
;WIDTH:0.578689
G1 X123.862 Y175.616 E.01049
;WIDTH:0.539344
G1 X123.627 Y175.636 E.00972
;WIDTH:0.499999
G1 X120.114 Y175.636 E.13351
G1 X120.114 Y34.364 E5.36921
G1 X129.886 Y34.364 E.37139
G1 X129.886 Y36.932 E.09761
G1 X129.886 Y175.576 E5.26932
M204 S1000
G1 X130.343 Y176.093 F10800
M204 S800
G1 F1200
G1 X119.657 Y176.093 E.40613
G1 X119.657 Y33.907 E5.40395
G1 X130.343 Y33.907 E.40613
G1 X130.343 Y176.033 E5.40167
M204 S1000
G1 X130.8 Y176.55 F10800
M204 S800
;TYPE:External perimeter
G1 F1200
G1 X119.2 Y176.55 E.44087
G1 X119.2 Y33.45 E5.4387
G1 X130.8 Y33.45 E.44087
G1 X130.8 Y176.49 E5.43642
M204 S1000
G1 X130.448 Y176.359 F10800
;WIPE_START
M73 P1 R118
M73 Q1 S119
G1 F8640
G1 X127.509 Y176.507 E-.76
;WIPE_END
G1 E-.04 F2100
G1 Z.6 F720
G1 X127.881 Y41.171 F10800
G1 Z.2 F720
G1 E.8 F2100
M204 S800
;TYPE:Perimeter
G1 F1200
G1 X127.929 Y41.305 E.0054
G1 X128.01 Y41.876 E.02191
G1 X127.979 Y42.456 E.02207
G1 X127.791 Y43.129 E.02658
G1 X127.5 Y43.677 E.02359
G1 X127.107 Y44.15 E.02338
G1 X126.654 Y44.518 E.02216
G1 X126.239 Y44.744 E.01794
G1 X125.655 Y44.938 E.02341
G1 X125.079 Y45.012 E.02209
G1 X124.419 Y44.954 E.02517
G1 X123.825 Y44.772 E.02359
G1 X123.316 Y44.497 E.022
G1 X122.948 Y44.203 E.01788
G1 X122.544 Y43.741 E.02334
G1 X122.238 Y43.198 E.02367
G1 X122.057 Y42.646 E.02211
G1 X121.987 Y42.067 E.02215
G1 X122.046 Y41.41 E.02506
G1 X122.176 Y40.958 E.01788
G1 X122.445 Y40.408 E.02327
G1 X122.827 Y39.916 E.02368
G1 X123.301 Y39.514 E.02362
G1 X123.742 Y39.261 E.01933
G1 X124.215 Y39.094 E.01906
G1 X124.82 Y38.995 E.02329
G1 X125.29 Y39.002 E.01788
G1 X125.86 Y39.115 E.02205
G1 X126.433 Y39.352 E.02358
G1 X126.946 Y39.703 E.02363
G1 X127.376 Y40.152 E.02363
G1 X127.703 Y40.673 E.02339
G1 X127.861 Y41.115 E.01782
M204 S1000
G1 X127.46 Y41.326 F10800
M204 S800
G1 F1200
G1 X127.553 Y41.9 E.02211
G1 X127.519 Y42.422 E.01989
G1 X127.379 Y42.931 E.02005
G1 X127.138 Y43.399 E.02002
G1 X126.808 Y43.804 E.01984
G1 X126.42 Y44.125 E.01913
G1 X126.078 Y44.316 E.01491
G1 X125.584 Y44.487 E.01985
G1 X125.086 Y44.555 E.01913
G1 X124.536 Y44.512 E.02098
G1 X124.03 Y44.363 E.02003
G1 X123.588 Y44.13 E.01899
G1 X123.28 Y43.889 E.01486
G1 X122.933 Y43.501 E.01978
G1 X122.668 Y43.044 E.02009
G1 X122.507 Y42.567 E.01914
G1 X122.444 Y42.067 E.01914
G1 X122.49 Y41.52 E.02086
G1 X122.594 Y41.143 E.01488
G1 X122.816 Y40.674 E.01972
G1 X123.136 Y40.253 E.0201
G1 X123.535 Y39.908 E.02005
G1 X123.996 Y39.651 E.02005
G1 X124.5 Y39.495 E.02006
G1 X124.995 Y39.444 E.01891
G1 X125.386 Y39.475 E.0149
G1 X125.891 Y39.606 E.01983
G1 X126.363 Y39.839 E.02003
G1 X126.778 Y40.166 E.02006
G1 X127.117 Y40.569 E.02003
G1 X127.356 Y41.009 E.01902
G1 X127.441 Y41.269 E.0104
M204 S1000
G1 X127.048 Y41.583 F10800
M204 S800
;TYPE:External perimeter
G1 F1200
G1 X127.096 Y41.884 E.01156
G1 X127.076 Y42.313 E.01633
G1 X126.967 Y42.733 E.01647
G1 X126.775 Y43.121 E.01646
G1 X126.51 Y43.458 E.0163
G1 X126.187 Y43.732 E.0161
G1 X125.916 Y43.888 E.01188
G1 X125.514 Y44.035 E.01628
G1 X125.085 Y44.097 E.01647
G1 X124.652 Y44.07 E.01648
G1 X124.235 Y43.955 E.01647
G1 X123.86 Y43.763 E.01598
G1 X123.612 Y43.575 E.01185
G1 X123.322 Y43.261 E.01622
G1 X123.098 Y42.889 E.01651
G1 X122.956 Y42.48 E.01647
G1 X122.902 Y42.052 E.0164
G1 X122.933 Y41.63 E.01608
G1 X123.012 Y41.327 E.01188
G1 X123.188 Y40.94 E.01616
G1 X123.445 Y40.59 E.01651
G1 X123.768 Y40.301 E.01647
G1 X124.143 Y40.084 E.01647
G1 X124.556 Y39.948 E.0165
G1 X124.971 Y39.901 E.0159
G1 X125.283 Y39.92 E.01188
G1 X125.699 Y40.021 E.01627
G1 X126.091 Y40.206 E.01646
G1 X126.436 Y40.469 E.01648
G1 X126.72 Y40.796 E.01647
G1 X126.926 Y41.163 E.016
G1 X127.038 Y41.524 E.01437
M204 S1000
G1 X127.34 Y41.669 F10800
;WIPE_START
G1 F8640
G1 X127.096 Y41.884 E-.08411
G1 X127.076 Y42.313 E-.09918
G1 X126.967 Y42.733 E-.10008
G1 X126.775 Y43.121 E-.10002
G1 X126.51 Y43.458 E-.099
G1 X126.187 Y43.732 E-.0978
G1 X125.916 Y43.888 E-.0722
G1 X125.514 Y44.035 E-.09894
G1 X125.477 Y44.041 E-.00866
;WIPE_END
G1 E-.04 F2100
G1 Z.6 F720
G1 X127.73 Y99.749 F10800
G1 Z.2 F720
G1 E.8 F2100
M204 S800
;TYPE:Perimeter
G1 F1200
G1 X127.786 Y99.855 E.00455
G1 X127.929 Y100.305 E.01796
G1 X128.01 Y100.876 E.02191
G1 X127.979 Y101.456 E.02207
G1 X127.791 Y102.129 E.02658
G1 X127.5 Y102.677 E.02359
G1 X127.107 Y103.15 E.02338
G1 X126.654 Y103.518 E.02216
G1 X126.239 Y103.744 E.01794
G1 X125.655 Y103.938 E.02341
G1 X125.079 Y104.012 E.02209
G1 X124.419 Y103.954 E.02514
G1 X123.83 Y103.774 E.02342
G1 X123.316 Y103.497 E.02221
G1 X122.948 Y103.203 E.01788
G1 X122.544 Y102.741 E.02334
G1 X122.238 Y102.198 E.02367
G1 X122.057 Y101.646 E.02211
G1 X121.987 Y101.067 E.02215
G1 X122.046 Y100.41 E.02506
G1 X122.175 Y99.958 E.01788
G1 X122.445 Y99.408 E.02327
G1 X122.827 Y98.916 E.02368
G1 X123.301 Y98.514 E.02362
G1 X123.848 Y98.218 E.02364
G1 X124.444 Y98.041 E.02362
G1 X124.967 Y97.986 E.02
G1 X125.488 Y98.029 E.01986
G1 X126.082 Y98.191 E.0234
G1 X126.636 Y98.472 E.02361
G1 X127.12 Y98.862 E.02363
G1 X127.513 Y99.343 E.02359
G1 X127.701 Y99.696 E.01521
M204 S1000
G1 X127.327 Y99.956 F10800
M204 S800
G1 F1200
G1 X127.479 Y100.382 E.0172
G1 X127.553 Y100.9 E.01989
G1 X127.519 Y101.422 E.01989
G1 X127.379 Y101.931 E.02005
G1 X127.138 Y102.399 E.02002
G1 X126.809 Y102.804 E.01983
G1 X126.42 Y103.125 E.01913
G1 X126.078 Y103.316 E.01491
G1 X125.584 Y103.487 E.01985
G1 X125.086 Y103.555 E.01913
G1 X124.536 Y103.512 E.02096
G1 X124.034 Y103.365 E.01987
G1 X123.588 Y103.13 E.01917
G1 X123.28 Y102.889 E.01486
G1 X122.933 Y102.501 E.01978
G1 X122.668 Y102.044 E.02009
G1 X122.507 Y101.567 E.01914
G1 X122.444 Y101.067 E.01914
G1 X122.49 Y100.52 E.02086
G1 X122.594 Y100.143 E.01487
G1 X122.816 Y99.674 E.01972
G1 X123.136 Y99.253 E.0201
G1 X123.535 Y98.907 E.02005
G1 X123.996 Y98.651 E.02005
G1 X124.5 Y98.495 E.02006
G1 X124.995 Y98.444 E.01891
G1 X125.386 Y98.475 E.0149
G1 X125.891 Y98.606 E.01983
G1 X126.363 Y98.839 E.02003
G1 X126.778 Y99.166 E.02006
G1 X127.117 Y99.569 E.02003
G1 X127.298 Y99.903 E.01443
M204 S1000
G1 X126.943 Y100.214 F10800
M204 S800
;TYPE:External perimeter
G1 F1200
G1 X127.028 Y100.459 E.00985
G1 X127.096 Y100.884 E.01635
G1 X127.076 Y101.313 E.01633
G1 X126.967 Y101.733 E.01647
G1 X126.775 Y102.121 E.01646
G1 X126.51 Y102.458 E.01629
G1 X126.187 Y102.732 E.0161
G1 X125.916 Y102.888 E.01189
G1 X125.514 Y103.035 E.01628
G1 X125.085 Y103.097 E.01647
G1 X124.653 Y103.07 E.01647
G1 X124.239 Y102.956 E.01632
G1 X123.86 Y102.763 E.01613
G1 X123.612 Y102.575 E.01185
G1 X123.322 Y102.261 E.01622
G1 X123.098 Y101.889 E.01651
G1 X122.956 Y101.48 E.01647
G1 X122.902 Y101.052 E.0164
G1 X122.933 Y100.63 E.01608
G1 X123.012 Y100.327 E.01187
G1 X123.188 Y99.94 E.01616
G1 X123.445 Y99.59 E.01652
G1 X123.768 Y99.301 E.01647
G1 X124.143 Y99.084 E.01647
G1 X124.556 Y98.948 E.0165
G1 X124.971 Y98.901 E.0159
G1 X125.283 Y98.92 E.01188
G1 X125.699 Y99.021 E.01628
G1 X126.091 Y99.206 E.01646
G1 X126.436 Y99.469 E.01648
G1 X126.72 Y99.796 E.01647
G1 X126.923 Y100.158 E.01576
M204 S1000
G1 X127.201 Y100.241 F10800
;WIPE_START
G1 F8640
G1 X127.028 Y100.459 E-.07365
G1 X127.096 Y100.884 E-.09932
G1 X127.076 Y101.313 E-.09918
G1 X126.967 Y101.733 E-.10008
G1 X126.775 Y102.121 E-.10002
G1 X126.51 Y102.458 E-.09898
G1 X126.187 Y102.732 E-.09781
G1 X125.916 Y102.888 E-.07221
G1 X125.84 Y102.916 E-.01873
;WIPE_END
G1 E-.04 F2100
G1 Z.6 F720
G1 X127.73 Y170.749 F10800
G1 Z.2 F720
G1 E.8 F2100
M204 S800
;TYPE:Perimeter
G1 F1200
G1 X127.786 Y170.854 E.00455
G1 X127.929 Y171.305 E.01796
G1 X128.01 Y171.876 E.02191
G1 X127.979 Y172.456 E.02207
G1 X127.791 Y173.129 E.02658
G1 X127.538 Y173.625 E.02118
G1 X127.107 Y174.15 E.02581
G1 X126.654 Y174.518 E.02217
;WIDTH:0.535425
G1 X125.889 Y174.895 E.03494
;WIDTH:0.578838
G1 X125.777 Y174.947 E.0055
;WIDTH:0.622251
G1 X125.665 Y174.999 E.00595
G1 X125.097 Y175.054 E.02747
;WIDTH:0.618034
G1 X124.404 Y175.011 E.03318
G1 X124.213 Y174.932 E.0099
;WIDTH:0.578689
G1 X124.022 Y174.853 E.00922
;WIDTH:0.539344
G1 X123.83 Y174.774 E.00855
;WIDTH:0.499999
G1 X123.316 Y174.497 E.02221
G1 X122.948 Y174.203 E.01788
G1 X122.544 Y173.741 E.02335
G1 X122.238 Y173.198 E.02367
G1 X122.057 Y172.646 E.02211
G1 X121.987 Y172.067 E.02215
G1 X122.046 Y171.41 E.02507
G1 X122.175 Y170.958 E.01787
G1 X122.445 Y170.408 E.02327
G1 X122.827 Y169.916 E.02368
G1 X123.301 Y169.514 E.02363
G1 X123.848 Y169.218 E.02364
G1 X124.444 Y169.041 E.02362
G1 X124.967 Y168.986 E.02
G1 X125.488 Y169.029 E.01986
G1 X126.082 Y169.191 E.02339
G1 X126.636 Y169.472 E.02361
G1 X127.12 Y169.862 E.02364
G1 X127.513 Y170.342 E.02359
G1 X127.701 Y170.696 E.01521
M204 S1000
G1 X127.327 Y170.956 F10800
M204 S800
G1 F1200
G1 X127.479 Y171.382 E.01721
G1 X127.553 Y171.876 E.01897
G1 X127.529 Y172.377 E.01906
G1 X127.379 Y172.931 E.02182
G1 X127.138 Y173.399 E.02003
G1 X126.809 Y173.804 E.01983
G1 X126.42 Y174.125 E.01913
G1 X126.078 Y174.316 E.01491
G1 X125.597 Y174.485 E.01937
G1 X125.097 Y174.555 E.01919
G1 X124.536 Y174.512 E.02138
G1 X124.035 Y174.365 E.01986
G1 X123.588 Y174.13 E.01917
G1 X123.28 Y173.889 E.01486
G1 X122.933 Y173.501 E.01978
G1 X122.668 Y173.044 E.02009
G1 X122.507 Y172.567 E.01914
G1 X122.444 Y172.067 E.01913
G1 X122.49 Y171.52 E.02087
G1 X122.594 Y171.143 E.01487
G1 X122.816 Y170.674 E.01972
G1 X123.136 Y170.253 E.0201
G1 X123.535 Y169.907 E.02005
G1 X123.996 Y169.651 E.02005
G1 X124.5 Y169.495 E.02006
G1 X124.995 Y169.444 E.01891
G1 X125.386 Y169.475 E.01491
G1 X125.891 Y169.606 E.01983
G1 X126.363 Y169.839 E.02003
G1 X126.778 Y170.166 E.02006
G1 X127.117 Y170.569 E.02003
G1 X127.298 Y170.903 E.01443
M204 S1000
G1 X126.941 Y171.207 F10800
M204 S800
;TYPE:External perimeter
G1 F1200
G1 X127.028 Y171.459 E.01013
G1 X127.096 Y171.876 E.01604
G1 X127.076 Y172.313 E.01664
G1 X126.967 Y172.733 E.01647
G1 X126.775 Y173.121 E.01646
G1 X126.51 Y173.458 E.01629
G1 X126.187 Y173.732 E.0161
G1 X125.916 Y173.888 E.01188
G1 X125.514 Y174.035 E.01629
G1 X125.085 Y174.097 E.01647
G1 X124.653 Y174.07 E.01647
G1 X124.239 Y173.956 E.01632
G1 X123.86 Y173.763 E.01614
G1 X123.612 Y173.575 E.01185
G1 X123.279 Y173.191 E.01932
G1 X123.098 Y172.889 E.01337
G1 X122.956 Y172.48 E.01647
G1 X122.902 Y172.052 E.0164
G1 X122.933 Y171.63 E.01609
G1 X123.012 Y171.327 E.01187
G1 X123.188 Y170.94 E.01616
G1 X123.445 Y170.59 E.01651
G1 X123.768 Y170.301 E.01647
G1 X124.143 Y170.084 E.01647
G1 X124.556 Y169.948 E.0165
G1 X124.971 Y169.901 E.0159
G1 X125.283 Y169.92 E.01188
G1 X125.699 Y170.021 E.01627
G1 X126.091 Y170.206 E.01646
G1 X126.436 Y170.469 E.01648
G1 X126.72 Y170.796 E.01647
G1 X126.919 Y171.152 E.01549
M204 S1000
G1 X127.206 Y171.234 F10800
;WIPE_START
G1 F8640
G1 X127.028 Y171.459 E-.07534
G1 X127.096 Y171.876 E-.09745
G1 X127.076 Y172.313 E-.10107
G1 X126.967 Y172.733 E-.10008
G1 X126.775 Y173.121 E-.10002
G1 X126.51 Y173.458 E-.09897
G1 X126.187 Y173.732 E-.09783
G1 X125.916 Y173.888 E-.0722
G1 X125.847 Y173.914 E-.01704
;WIPE_END
G1 E-.04 F2100
G1 Z.6 F720
G1 X129.749 Y35.429 F10800
G1 Z.2 F720
G1 E.8 F2100
M204 S800
;TYPE:Solid infill
;WIDTH:0.501888
G1 F1200
G1 X129.026 Y34.707 E.03898
G1 X128.377 Y34.707 E.02477
G1 X129.543 Y35.873 E.06291
G1 X129.543 Y36.522 E.02477
G1 X127.728 Y34.707 E.09795
G1 X127.079 Y34.707 E.02477
G1 X129.543 Y37.171 E.13298
G1 X129.543 Y37.82 E.02477
G1 X126.43 Y34.707 E.16801
G1 X125.781 Y34.707 E.02477
G1 X129.543 Y38.469 E.20304
G1 X129.543 Y39.118 E.02477
G1 X125.132 Y34.707 E.23807
G1 X124.483 Y34.707 E.02477
G1 X129.543 Y39.767 E.2731
G1 X129.543 Y40.416 E.02477
G1 X123.834 Y34.707 E.30813
G1 X123.185 Y34.707 E.02477
G1 X129.543 Y41.065 E.34317
G1 X129.543 Y41.714 E.02477
G1 X122.536 Y34.707 E.3782
G1 X121.887 Y34.707 E.02477
G1 X125.972 Y38.792 E.22047
G1 X126.22 Y38.877 E.01002
G1 X126.582 Y39.043 E.01519
G1 X126.835 Y39.194 E.01125
G1 X127.155 Y39.431 E.01521
G1 X127.373 Y39.631 E.01126
G1 X127.637 Y39.929 E.0152
G1 X127.808 Y40.167 E.01121
G1 X128.004 Y40.51 E.01507
G1 X128.211 Y41.031 E.02139
G1 X129.543 Y42.363 E.07191
G1 X129.543 Y43.013 E.02477
G1 X128.346 Y41.815 E.06462
G1 X128.322 Y42.44 E.02388
G1 X129.543 Y43.662 E.06591
G1 X129.543 Y44.311 E.02477
G1 X128.207 Y42.975 E.07211
G1 X128.102 Y43.272 E.01204
G1 X128.022 Y43.439 E.00705
G1 X129.543 Y44.96 E.08208
G1 X129.543 Y45.609 E.02477
G1 X127.791 Y43.857 E.09457
G1 X127.508 Y44.223 E.01766
G1 X129.543 Y46.258 E.10982
G1 X129.543 Y46.907 E.02477
G1 X127.178 Y44.542 E.12765
G1 X126.81 Y44.823 E.01767
G1 X129.543 Y47.556 E.14752
G1 X129.543 Y48.205 E.02477
G1 X126.388 Y45.05 E.17026
G1 X125.913 Y45.224 E.01932
G1 X129.543 Y48.854 E.19594
G1 X129.543 Y49.503 E.02477
G1 X125.36 Y45.32 E.22577
G1 X125.079 Y45.355 E.0108
G1 X124.728 Y45.337 E.01341
G1 X129.749 Y50.358 E.27097
M204 S1000
;WIPE_START
G1 F8640
G1 X127.421 Y48.031 E-.76
;WIPE_END
G1 E-.04 F2100
G1 Z.6 F720
G1 X125.412 Y38.881 F10800
G1 Z.2 F720
G1 E.8 F2100
M204 S800
G1 F1200
G1 X121.237 Y34.707 E.22528
G1 X120.588 Y34.707 E.02477
G1 X124.563 Y38.682 E.21453
G1 X124.325 Y38.712 E.00917
G1 X124.028 Y38.796 E.01176
