; generated by PrusaSlicer 2.5.0+win64 on 2023-01-24 at 10:18:36 UTC


;
;
; 

; external perimeters extrusion width = 0.50mm
; perimeters extrusion width = 0.50mm
; infill extrusion width = 0.50mm
; solid infill extrusion width = 0.50mm
; top infill extrusion width = 0.50mm
; first layer extrusion width = 0.50mm

; external perimeters extrusion width = 0.50mm
; perimeters extrusion width = 0.50mm
; infill extrusion width = 0.50mm
; solid infill extrusion width = 0.50mm
; top infill extrusion width = 0.50mm
; first layer extrusion width = 0.50mm

M73 P0 R54
M73 Q0 S55
M201 X1000 Y1000 Z200 E5000 ; sets maximum accelerations, mm/sec^2
M203 X200 Y200 Z12 E120 ; sets maximum feedrates, mm / sec
M204 P1250 R1250 T1250 ; sets acceleration (P, T) and retract acceleration (R), mm/sec^2
M205 X8.00 Y8.00 Z0.40 E4.50 ; sets the jerk limits, mm/sec
M205 S0 T0 ; sets the minimum extruding and travel feed rate, mm/sec
M107
;TYPE:Custom
M862.3 P "MK3S" ; printer model check
M862.1 P0.4 ; nozzle diameter check
M115 U3.11.0 ; tell printer latest fw version
G90 ; use absolute coordinates
M83 ; extruder relative mode
M104 S215 ; set extruder temp
M140 S60 ; set bed temp
M190 S60 ; wait for bed temp
M109 S215 ; wait for extruder temp
G28 W ; home all without mesh bed level
G80 ; mesh bed leveling

G1 Z0.2 F720
G1 Y-3 F1000 ; go outside print area
G92 E0
G1 X60 E9 F1000 ; intro line
G1 X100 E12.5 F1000 ; intro line

G92 E0
M221 S95

; Don't change E values below. Excessive value can damage the printer.
M907 E430 ; set extruder motor current
G21 ; set units to millimeters
G90 ; use absolute coordinates
M83 ; use relative distances for extrusion
M900 K0.05 ; Filament gcode LA 1.5
M900 K30 ; Filament gcode LA 1.0
M107
;LAYER_CHANGE
;Z:0.2
;HEIGHT:0.2
;BEFORE_LAYER_CHANGE
G92 E0.0
;0.2


G1 E-.8 F2100
G1 Z.4 F720
;AFTER_LAYER_CHANGE
;0.2
G1 X75.997 Y87.874 F10800
G1 Z.2 F720
G1 E.8 F2100
M204 S800
;TYPE:Skirt/Brim
;WIDTH:0.5
G1 F1200
G1 X77.38 Y86.678 E.06952
G1 X79.626 Y85.11 E.10409
G1 X81.668 Y83.979 E.08872
G1 X83.846 Y83.034 E.09023
M73 Q0 S54
G1 X86.466 Y82.211 E.10436
G1 X88.792 Y81.739 E.09023
G1 X91.519 Y81.479 E.10409
G1 X141.941 Y81.568 E1.91638
G1 X143.82 Y81.64 E.07146
G1 X146.083 Y81.922 E.08668
G1 X147.951 Y82.319 E.07255
G1 X150.133 Y82.982 E.08668
G1 X151.898 Y83.688 E.07226
G1 X153.941 Y84.717 E.08695
G1 X155.528 Y85.693 E.0708
G1 X157.073 Y86.815 E.07255
G1 X158.49 Y88.022 E.07077
G1 X160.095 Y89.642 E.08668
G1 X161.318 Y91.109 E.07255
G1 X162.623 Y92.979 E.08668
G1 X163.577 Y94.632 E.07255
G1 X164.544 Y96.697 E.08665
G1 X165.201 Y98.482 E.07229
G1 X165.707 Y100.274 E.07078
G1 X166.135 Y102.486 E.08562
G1 X166.337 Y104.366 E.07187
G1 X166.392 Y106.281 E.07282
G1 X166.261 Y108.558 E.08668
G1 X165.99 Y110.447 E.07255
G1 X165.583 Y112.265 E.07078
G1 X164.899 Y114.44 E.08668
G1 X164.173 Y116.206 E.07255
G1 X163.131 Y118.227 E.08641
G1 X162.111 Y119.848 E.07282
G1 X160.736 Y121.668 E.08669
G1 X159.464 Y123.081 E.07225
G1 X157.82 Y124.621 E.08562
G1 X156.331 Y125.797 E.0721
G1 X154.751 Y126.855 E.07228
G1 X152.748 Y127.962 E.08698
G1 X150.57 Y128.907 E.09023
G1 X147.951 Y129.73 E.10436
G1 X145.624 Y130.202 E.09023
G1 X142.851 Y130.464 E.10583
G1 X92.475 Y130.374 E1.91463
G1 X90.643 Y130.304 E.06968
G1 X89.207 Y130.154 E.05486
G1 X87.426 Y129.846 E.0687
G1 X86.06 Y129.516 E.05338
G1 X83.369 Y128.613 E.1079
G1 X81.711 Y127.875 E.06897
G1 X80.475 Y127.224 E.05309
G1 X78.124 Y125.716 E.10616
G1 X75.926 Y123.919 E.10791
G1 X73.982 Y121.915 E.10613
G1 X73.098 Y120.833 E.05309
G1 X72.049 Y119.36 E.06873
G1 X70.626 Y116.895 E.10817
G1 X69.681 Y114.768 E.08846
G1 X68.943 Y112.561 E.08846
G1 X68.348 Y109.888 E.10406
G1 X68.08 Y107.576 E.08849
G1 X68.032 Y105.249 E.08846
G1 X68.213 Y102.874 E.0905
G1 X68.612 Y100.581 E.08846
G1 X69.349 Y97.974 E.103
G1 X70.224 Y95.778 E.08981
G1 X71.284 Y93.715 E.08816
G1 X72.545 Y91.749 E.08875
G1 X74.007 Y89.889 E.08994
G1 X75.62 Y88.2 E.08875
G1 X75.951 Y87.914 E.01665
M204 S1000
; printing object Wheel PLA V2.stl id:0 copy 0
;WIPE_START
G1 F8640
G1 X77.38 Y86.678 E-.43623
G1 X78.53 Y85.875 E-.32377
;WIPE_END
G1 E-.04 F2100
G1 Z.6 F720
G1 X107.994 Y92.314 F10800
G1 Z.2 F720
G1 E.8 F2100
M204 S800
;TYPE:Perimeter
;WIDTH:0.499999
G1 F1200
G1 X108.575 Y93.002 E.03424
G1 X109.29 Y93.947 E.04503
G1 X109.73 Y94.591 E.02963
G1 X110.354 Y95.604 E.04521
G1 X110.728 Y96.282 E.02944
G1 X111.253 Y97.349 E.04522
G1 X111.564 Y98.065 E.02965
G1 X111.847 Y98.792 E.02966
G1 X112.225 Y99.92 E.04521
G1 X112.436 Y100.665 E.02944
G1 X112.705 Y101.819 E.045
G1 X112.906 Y102.985 E.045
G1 X113.002 Y103.754 E.02944
G1 X113.092 Y104.935 E.045
G1 X113.111 Y106.234 E.04938
G1 X113.093 Y106.893 E.02506
G1 X113.003 Y108.074 E.045
G1 X112.846 Y109.242 E.04481
G1 X112.706 Y110.009 E.02964
G1 X112.436 Y111.168 E.04521
G1 X112.224 Y111.919 E.02965
G1 X111.983 Y112.661 E.02965
G1 X111.562 Y113.773 E.04521
G1 X111.253 Y114.484 E.02944
G1 X110.731 Y115.546 E.04501
G1 X110.151 Y116.573 E.04479
G1 X109.514 Y117.564 E.04479
G1 X108.818 Y118.522 E.045
G1 X108.333 Y119.126 E.02945
G1 X107.546 Y120.018 E.04521
G1 X107.006 Y120.574 E.02944
G1 X106.141 Y121.382 E.045
G1 X105.232 Y122.141 E.045
G1 X104.614 Y122.608 E.02944
G1 X103.632 Y123.279 E.04521
G1 X102.972 Y123.686 E.02945
G1 X101.931 Y124.261 E.04521
G1 X101.236 Y124.603 E.02945
G1 X100.15 Y125.074 E.045
G1 X99.043 Y125.481 E.04481
G1 X98.299 Y125.715 E.02964
G1 X97.154 Y126.016 E.045
G1 X95.998 Y126.25 E.04481
G1 X95.228 Y126.368 E.02963
G1 X94.05 Y126.492 E.045
G1 X92.872 Y126.548 E.04481
G1 X92.093 Y126.548 E.02963
G1 X90.905 Y126.492 E.04521
G1 X90.128 Y126.418 E.02965
G1 X89.355 Y126.314 E.02965
G1 X88.184 Y126.1 E.04522
G1 X87.43 Y125.925 E.02944
G1 X86.291 Y125.602 E.04501
G1 X85.177 Y125.216 E.04479
G1 X84.086 Y124.768 E.04481
G1 X83.38 Y124.437 E.02963
G1 X82.333 Y123.885 E.045
G1 X81.323 Y123.276 E.04481
G1 X80.675 Y122.842 E.02963
G1 X79.72 Y122.134 E.04521
G1 X79.116 Y121.64 E.02965
G1 X78.531 Y121.123 E.02966
G1 X77.682 Y120.298 E.045
G1 X76.881 Y119.426 E.04501
G1 X76.385 Y118.831 E.02944
G1 X75.668 Y117.882 E.04521
G1 X75.231 Y117.242 E.02945
G1 X74.607 Y116.23 E.04521
G1 X74.229 Y115.547 E.02965
G1 X73.878 Y114.85 E.02966
G1 X73.395 Y113.763 E.04521
G1 X73.114 Y113.041 E.02944
G1 X72.735 Y111.913 E.04521
G1 X72.524 Y111.168 E.02944
G1 X72.256 Y110.015 E.045
G1 X72.054 Y108.848 E.045
G1 X71.958 Y108.079 E.02944
G1 X71.868 Y106.898 E.045
G1 X71.846 Y105.715 E.045
G1 X71.868 Y104.94 E.02944
G1 X71.958 Y103.754 E.04521
G1 X72.054 Y102.985 E.02944
G1 X72.256 Y101.819 E.045
G1 X72.524 Y100.665 E.045
G1 X72.737 Y99.915 E.02965
G1 X72.978 Y99.173 E.02966
G1 X73.397 Y98.065 E.045
G1 X73.876 Y96.989 E.04479
G1 X74.416 Y95.94 E.04481
G1 X74.806 Y95.265 E.02964
G1 X75.446 Y94.269 E.045
G1 X76.142 Y93.311 E.045
G1 X76.63 Y92.703 E.02966
G1 X77.141 Y92.113 E.02965
G1 X77.958 Y91.256 E.045
G1 X78.819 Y90.451 E.04479
G1 X79.729 Y89.693 E.045
G1 X80.346 Y89.225 E.02944
G1 X81.324 Y88.557 E.045
G1 X82.338 Y87.946 E.045
G1 X83.024 Y87.575 E.02966
G1 X83.725 Y87.231 E.02965
G1 X84.811 Y86.759 E.045
G1 X85.917 Y86.353 E.04481
G1 X86.667 Y86.117 E.02984
G1 X87.419 Y85.911 E.02965
G1 X88.58 Y85.653 E.04521
G1 X89.344 Y85.521 E.02944
G1 X90.519 Y85.375 E.045
G1 X91.695 Y85.296 E.04479
G1 X92.874 Y85.285 E.04481
G1 X93.653 Y85.314 E.02963
G1 X94.838 Y85.416 E.04521
G1 X95.606 Y85.519 E.02944
G1 X96.776 Y85.733 E.04521
G1 X97.53 Y85.909 E.02944
G1 X98.67 Y86.231 E.045
G1 X99.789 Y86.619 E.045
G1 X100.508 Y86.907 E.02944
G1 X101.585 Y87.398 E.045
G1 X102.627 Y87.948 E.0448
G1 X103.641 Y88.56 E.045
G1 X104.285 Y88.991 E.02944
G1 X105.241 Y89.699 E.04522
G1 X105.845 Y90.193 E.02965
G1 X106.429 Y90.71 E.02965
G1 X107.278 Y91.535 E.045
G1 X107.953 Y92.27 E.03792
M204 S1000
G1 X108.33 Y92.005 F10800
M204 S800
G1 F1200
G1 X108.933 Y92.718 E.03548
G1 X109.661 Y93.68 E.04585
G1 X110.113 Y94.342 E.03046
G1 X110.749 Y95.373 E.04604
G1 X111.134 Y96.07 E.03027
G1 X111.668 Y97.157 E.04604
G1 X111.987 Y97.891 E.0304
G1 X112.277 Y98.636 E.0304
G1 X112.662 Y99.785 E.04604
G1 X112.879 Y100.551 E.03027
G1 X113.153 Y101.728 E.04591
G1 X113.359 Y102.918 E.04591
G1 X113.457 Y103.708 E.03027
G1 X113.549 Y104.913 E.04591
G1 X113.568 Y106.247 E.0507
G1 X113.549 Y106.917 E.02548
G1 X113.457 Y108.121 E.04591
G1 X113.298 Y109.314 E.04572
G1 X113.153 Y110.102 E.03046
G1 X112.879 Y111.282 E.04604
G1 X112.661 Y112.052 E.0304
G1 X112.414 Y112.812 E.0304
G1 X111.985 Y113.945 E.04604
G1 X111.668 Y114.676 E.03027
G1 X111.135 Y115.76 E.04592
G1 X110.543 Y116.809 E.04578
G1 X109.892 Y117.822 E.04579
G1 X109.182 Y118.799 E.04591
G1 X108.683 Y119.421 E.03027
G1 X107.881 Y120.329 E.04604
G1 X107.326 Y120.9 E.03027
G1 X106.444 Y121.725 E.04591
G1 X105.516 Y122.499 E.04591
G1 X104.881 Y122.979 E.03027
G1 X103.881 Y123.663 E.04604
G1 X103.203 Y124.081 E.03027
G1 X102.143 Y124.666 E.04603
G1 X101.428 Y125.018 E.03027
G1 X100.32 Y125.498 E.04591
G1 X99.19 Y125.913 E.04572
G1 X98.426 Y126.154 E.03046
G1 X97.258 Y126.461 E.04591
G1 X96.079 Y126.7 E.04572
G1 X95.286 Y126.822 E.03046
G1 X94.085 Y126.948 E.04591
G1 X92.883 Y127.005 E.04572
G1 X92.082 Y127.006 E.03046
G1 X90.872 Y126.948 E.04604
G1 X90.076 Y126.872 E.0304
G1 X89.283 Y126.766 E.0304
G1 X88.091 Y126.548 E.04604
G1 X87.316 Y126.367 E.03027
G1 X86.153 Y126.038 E.04592
G1 X85.015 Y125.644 E.04578
G1 X83.903 Y125.186 E.04572
G1 X83.177 Y124.847 E.03046
G1 X82.108 Y124.283 E.04591
G1 X81.078 Y123.662 E.04572
G1 X80.412 Y123.216 E.03046
G1 X79.439 Y122.494 E.04604
G1 X78.82 Y121.988 E.03039
G1 X78.22 Y121.459 E.0304
G1 X77.354 Y120.617 E.04591
G1 X76.537 Y119.727 E.04592
G1 X76.027 Y119.115 E.03027
G1 X75.297 Y118.149 E.04604
G1 X74.847 Y117.491 E.03027
G1 X74.212 Y116.46 E.04604
G1 X73.825 Y115.76 E.03039
G1 X73.465 Y115.046 E.0304
G1 X72.973 Y113.939 E.04604
G1 X72.684 Y113.197 E.03027
G1 X72.298 Y112.048 E.04604
G1 X72.081 Y111.282 E.03027
G1 X71.808 Y110.105 E.04591
G1 X71.602 Y108.915 E.04591
G1 X71.503 Y108.125 E.03027
G1 X71.411 Y106.92 E.04591
G1 X71.388 Y105.712 E.04591
G1 X71.411 Y104.916 E.03027
G1 X71.503 Y103.708 E.04604
G1 X71.602 Y102.918 E.03027
G1 X71.808 Y101.728 E.04591
G1 X72.081 Y100.551 E.04591
G1 X72.299 Y99.782 E.0304
G1 X72.546 Y99.021 E.0304
G1 X72.974 Y97.891 E.04591
G1 X73.464 Y96.791 E.04578
G1 X74.015 Y95.721 E.04572
G1 X74.416 Y95.027 E.03046
G1 X75.069 Y94.011 E.04591
G1 X75.779 Y93.034 E.04591
G1 X76.279 Y92.41 E.0304
G1 X76.803 Y91.805 E.0304
G1 X77.637 Y90.931 E.04591
G1 X78.516 Y90.108 E.04579
G1 X79.444 Y89.335 E.04591
G1 X80.079 Y88.854 E.03027
G1 X81.077 Y88.172 E.04591
G1 X82.111 Y87.549 E.04591
G1 X82.815 Y87.169 E.0304
G1 X83.533 Y86.816 E.0304
G1 X84.641 Y86.335 E.04591
G1 X85.77 Y85.92 E.04572
G1 X86.538 Y85.678 E.03059
G1 X87.309 Y85.468 E.0304
G1 X88.492 Y85.204 E.04604
G1 X89.276 Y85.069 E.03027
G1 X90.475 Y84.919 E.04591
G1 X91.677 Y84.839 E.04579
G1 X92.88 Y84.828 E.04572
G1 X93.681 Y84.858 E.03046
G1 X94.888 Y84.962 E.04604
G1 X95.677 Y85.068 E.03027
M73 Q1 S54
G1 X96.869 Y85.285 E.04604
G1 X97.645 Y85.466 E.03027
G1 X98.807 Y85.795 E.04591
G1 X99.948 Y86.19 E.04591
M73 P1 R54
G1 X100.688 Y86.486 E.03027
G1 X101.787 Y86.988 E.04591
G1 X102.852 Y87.55 E.04579
G1 X103.887 Y88.174 E.04591
G1 X104.548 Y88.617 E.03027
G1 X105.522 Y89.339 E.04604
G1 X106.141 Y89.845 E.03039
G1 X106.74 Y90.374 E.0304
G1 X107.606 Y91.216 E.04591
G1 X108.29 Y91.961 E.03841
M204 S1000
G1 X108.667 Y91.696 F10800
M204 S800
;TYPE:External perimeter
G1 F1200
G1 X109.291 Y92.434 E.03672
G1 X110.032 Y93.413 E.04668
G1 X110.497 Y94.093 E.03129
G1 X111.144 Y95.143 E.04687
G1 X111.539 Y95.859 E.03109
G1 X112.083 Y96.966 E.04687
G1 X112.409 Y97.717 E.03114
G1 X112.707 Y98.481 E.03114
G1 X113.099 Y99.65 E.04686
G1 X113.322 Y100.437 E.0311
G1 X113.601 Y101.637 E.04682
G1 X113.811 Y102.851 E.04682
G1 X113.912 Y103.663 E.0311
G1 X114.006 Y104.891 E.04682
G1 X114.025 Y106.26 E.05202
G1 X114.006 Y106.941 E.02589
G1 X113.912 Y108.169 E.04682
G1 X113.749 Y109.385 E.04663
G1 X113.601 Y110.195 E.03129
G1 X113.322 Y111.396 E.04686
G1 X113.098 Y112.185 E.03114
G1 X112.845 Y112.964 E.03114
G1 X112.409 Y114.117 E.04687
G1 X112.083 Y114.868 E.03109
G1 X111.54 Y115.973 E.04683
G1 X110.934 Y117.045 E.04678
G1 X110.269 Y118.08 E.04678
G1 X109.545 Y119.077 E.04682
G1 X109.033 Y119.715 E.0311
G1 X108.217 Y120.639 E.04687
G1 X107.646 Y121.226 E.0311
G1 X106.747 Y122.068 E.04682
G1 X105.801 Y122.857 E.04682
G1 X105.148 Y123.35 E.0311
G1 X104.13 Y124.046 E.04687
G1 X103.433 Y124.475 E.0311
G1 X102.354 Y125.071 E.04686
G1 X101.62 Y125.432 E.0311
G1 X100.489 Y125.923 E.04682
G1 X99.338 Y126.346 E.04663
G1 X98.553 Y126.593 E.03129
G1 X97.361 Y126.906 E.04682
G1 X96.159 Y127.15 E.04663
G1 X95.345 Y127.275 E.03129
G1 X94.12 Y127.404 E.04682
G1 X92.894 Y127.462 E.04663
G1 X92.071 Y127.463 E.03129
G1 X90.839 Y127.404 E.04687
G1 X90.024 Y127.326 E.03114
G1 X89.212 Y127.217 E.03114
G1 X87.999 Y126.995 E.04687
G1 X87.202 Y126.81 E.03109
G1 X86.016 Y126.474 E.04683
G1 X84.853 Y126.072 E.04678
G1 X83.719 Y125.605 E.04663
G1 X82.973 Y125.256 E.03129
G1 X81.883 Y124.681 E.04682
G1 X80.833 Y124.048 E.04663
G1 X80.149 Y123.59 E.03129
G1 X79.158 Y122.855 E.04687
G1 X78.524 Y122.337 E.03114
G1 X77.91 Y121.794 E.03114
G1 X77.026 Y120.936 E.04682
G1 X76.193 Y120.028 E.04683
G1 X75.669 Y119.399 E.03109
G1 X74.925 Y118.416 E.04687
G1 X74.464 Y117.74 E.0311
G1 X73.817 Y116.691 E.04687
G1 X73.421 Y115.973 E.03114
G1 X73.052 Y115.241 E.03114
G1 X72.551 Y114.115 E.04687
G1 X72.254 Y113.352 E.0311
G1 X71.862 Y112.183 E.04687
G1 X71.639 Y111.396 E.0311
G1 X71.36 Y110.196 E.04682
G1 X71.149 Y108.982 E.04682
G1 X71.048 Y108.17 E.03109
G1 X70.955 Y106.942 E.04682
G1 X70.931 Y105.71 E.04682
G1 X70.955 Y104.892 E.0311
G1 X71.048 Y103.663 E.04687
G1 X71.149 Y102.851 E.0311
G1 X71.36 Y101.637 E.04682
G1 X71.639 Y100.437 E.04682
G1 X71.862 Y99.649 E.03114
G1 X72.115 Y98.869 E.03114
G1 X72.551 Y97.717 E.04682
G1 X73.052 Y96.593 E.04677
G1 X73.614 Y95.502 E.04663
G1 X74.025 Y94.789 E.03129
G1 X74.691 Y93.753 E.04682
G1 X75.415 Y92.756 E.04682
G1 X75.928 Y92.117 E.03114
G1 X76.465 Y91.498 E.03114
G1 X77.315 Y90.606 E.04682
G1 X78.214 Y89.765 E.04678
G1 X79.16 Y88.976 E.04682
G1 X79.812 Y88.483 E.0311
G1 X80.829 Y87.788 E.04682
G1 X81.884 Y87.152 E.04682
G1 X82.605 Y86.762 E.03114
G1 X83.341 Y86.401 E.03114
G1 X84.471 Y85.91 E.04682
G1 X85.622 Y85.487 E.04663
G1 X86.409 Y85.24 E.03133
G1 X87.199 Y85.024 E.03114
G1 X88.403 Y84.756 E.04686
G1 X89.209 Y84.616 E.0311
G1 X90.432 Y84.464 E.04682
G1 X91.66 Y84.382 E.04678
G1 X92.887 Y84.371 E.04663
G1 X93.709 Y84.402 E.03129
G1 X94.938 Y84.507 E.04687
G1 X95.749 Y84.616 E.03109
G1 X96.962 Y84.838 E.04687
G1 X97.759 Y85.023 E.0311
G1 X98.944 Y85.359 E.04682
G1 X100.108 Y85.762 E.04682
G1 X100.868 Y86.066 E.0311
G1 X101.988 Y86.578 E.04682
G1 X103.077 Y87.152 E.04678
G1 X104.132 Y87.788 E.04682
G1 X104.812 Y88.244 E.03109
G1 X105.802 Y88.978 E.04687
G1 X106.437 Y89.497 E.03114
G1 X107.051 Y90.039 E.03114
G1 X107.934 Y90.898 E.04682
G1 X108.627 Y91.652 E.03891
M204 S1000
G1 X108.541 Y92.076 F10800
;WIPE_START
G1 F8640
G1 X109.291 Y92.434 E-.23696
G1 X110.032 Y93.413 E-.28358
G1 X110.497 Y94.093 E-.19007
G1 X110.609 Y94.275 E-.04939
;WIPE_END
G1 E-.04 F2100
G1 Z.6 F720
G1 X83.79 Y99.318 F10800
G1 Z.2 F720
G1 E.8 F2100
M204 S800
;TYPE:Perimeter
G1 F1200
G1 X84.153 Y98.862 E.02215
G1 X84.575 Y98.392 E.02404
G1 X85.242 Y97.749 E.03522
G1 X85.738 Y97.335 E.02454
G1 X86.244 Y96.96 E.02391
G1 X87.026 Y96.464 E.03522
G1 X87.54 Y96.186 E.02221
G1 X88.165 Y95.892 E.02623
G1 X88.749 Y95.66 E.02391
G1 X89.771 Y95.353 E.04055
G1 X90.274 Y95.228 E.0197
G1 X90.827 Y95.137 E.0213
G1 X91.401 Y95.059 E.02201
G1 X92.021 Y95.015 E.02363
G1 X92.522 Y95.004 E.01903
G1 X93.373 Y95.04 E.03238
G1 X94.216 Y95.146 E.03229
G1 X95.24 Y95.358 E.03973
G1 X95.83 Y95.53 E.02336
G1 X96.442 Y95.747 E.02468
G1 X97.023 Y95.993 E.02399
G1 X97.587 Y96.272 E.02391
G1 X98.387 Y96.74 E.03522
G1 X98.919 Y97.105 E.02454
G1 X99.41 Y97.486 E.02362
G1 X99.862 Y97.889 E.02302
G1 X100.23 Y98.237 E.01925
