; generated by PrusaSlicer 2.5.0+win64 on 2023-01-18 at 10:34:29 UTC


;
;
; 

; external perimeters extrusion width = 0.45mm
; perimeters extrusion width = 0.45mm
; infill extrusion width = 0.45mm
; solid infill extrusion width = 0.45mm
; top infill extrusion width = 0.40mm
; first layer extrusion width = 0.42mm

; external perimeters extrusion width = 0.45mm
; perimeters extrusion width = 0.45mm
; infill extrusion width = 0.45mm
; solid infill extrusion width = 0.45mm
; top infill extrusion width = 0.40mm
; first layer extrusion width = 0.42mm

M73 P0 R74
M73 Q0 S74
M201 X1000 Y1000 Z200 E5000 ; sets maximum accelerations, mm/sec^2
M203 X200 Y200 Z12 E120 ; sets maximum feedrates, mm / sec
M204 P1250 R1250 T1250 ; sets acceleration (P, T) and retract acceleration (R), mm/sec^2
M205 X8.00 Y8.00 Z0.40 E4.50 ; sets the jerk limits, mm/sec
M205 S0 T0 ; sets the minimum extruding and travel feed rate, mm/sec
M107
;TYPE:Custom
M862.3 P "MK3S" ; printer model check
M862.1 P0.4 ; nozzle diameter check
M115 U3.11.0 ; tell printer latest fw version
G90 ; use absolute coordinates
M83 ; extruder relative mode
M104 S215 ; set extruder temp
M140 S60 ; set bed temp
M190 S60 ; wait for bed temp
M109 S215 ; wait for extruder temp
G28 W ; home all without mesh bed level
G80 ; mesh bed leveling

G1 Z0.2 F720
G1 Y-3 F1000 ; go outside print area
G92 E0
G1 X60 E9 F1000 ; intro line
G1 X100 E12.5 F1000 ; intro line

G92 E0
M221 S95

; Don't change E values below. Excessive value can damage the printer.
M907 E430 ; set extruder motor current
G21 ; set units to millimeters
G90 ; use absolute coordinates
M83 ; use relative distances for extrusion
M900 K0.05 ; Filament gcode LA 1.5
M900 K30 ; Filament gcode LA 1.0
M107
;LAYER_CHANGE
;Z:0.2
;HEIGHT:0.2
;BEFORE_LAYER_CHANGE
G92 E0.0
;0.2


G1 E-.8 F2100
G1 Z.4 F720
;AFTER_LAYER_CHANGE
;0.2
G1 X79.823 Y86.548 F10800
G1 Z.2 F720
G1 E.8 F2100
M204 S800
;TYPE:Skirt/Brim
;WIDTH:0.42
G1 F1200
G1 X81.84 Y84.754 E.08463
G1 X83.791 Y83.325 E.07582
G1 X86.136 Y81.93 E.08557
G1 X88.899 Y80.663 E.09531
G1 X91.487 Y79.797 E.08557
G1 X94.179 Y79.192 E.08651
G1 X96.888 Y78.866 E.08557
G1 X152.633 Y77.621 E1.74827
G1 X154.892 Y77.727 E.07092
G1 X157.23 Y78.039 E.07394
G1 X159.259 Y78.482 E.06513
G1 X161.514 Y79.173 E.07394
G1 X163.443 Y79.942 E.06513
G1 X165.555 Y80.992 E.07394
G1 X167.332 Y82.066 E.06513
G1 X169.244 Y83.447 E.07394
G1 X170.822 Y84.798 E.06513
G1 X172.481 Y86.473 E.07394
G1 X173.817 Y88.064 E.06513
G1 X175.18 Y89.988 E.07394
G1 X176.237 Y91.776 E.06513
G1 X177.267 Y93.897 E.07394
G1 X178.117 Y96.129 E.07487
G1 X178.694 Y98.124 E.06513
G1 X179.161 Y100.436 E.07394
G1 X179.412 Y102.625 E.06909
G1 X179.485 Y104.886 E.07092
G1 X179.358 Y107.24 E.07393
G1 X179.076 Y109.298 E.06513
G1 X178.566 Y111.601 E.07394
G1 X177.952 Y113.585 E.06513
G1 X177.072 Y115.773 E.07394
G1 X176.141 Y117.629 E.06513
G1 X174.898 Y119.669 E.07488
G1 X173.499 Y121.567 E.07394
G1 X172.134 Y123.132 E.06513
G1 X170.443 Y124.775 E.07394
G1 X168.839 Y126.096 E.06513
G1 X166.902 Y127.441 E.07393
G1 X165.104 Y128.481 E.06513
G1 X162.341 Y129.748 E.09531
G1 X159.724 Y130.622 E.08651
G1 X156.937 Y131.24 E.08953
G1 X154.041 Y131.565 E.09135
G1 X99.105 Y132.789 E1.72291
G1 X97.399 Y132.757 E.05349
G1 X95.699 Y132.618 E.05349
G1 X92.644 Y132.092 E.09719
G1 X90.995 Y131.653 E.05349
G1 X89.378 Y131.112 E.05349
G1 X87.797 Y130.47 E.05349
G1 X86.26 Y129.728 E.05349
G1 X84.799 Y128.907 E.05255
G1 X83.367 Y127.98 E.05349
G1 X80.926 Y126.07 E.09719
G1 X79.702 Y124.925 E.05255
G1 X78.531 Y123.684 E.05349
G1 X76.542 Y121.144 E.10115
G1 X75.682 Y119.819 E.04953
G1 X74.843 Y118.334 E.05349
G1 X73.699 Y115.856 E.08557
G1 X72.82 Y113.304 E.08463
G1 X72.228 Y110.83 E.07978
G1 X71.866 Y108.252 E.0816
G1 X71.756 Y105.556 E.08463
G1 X71.918 Y102.831 E.08557
G1 X72.291 Y100.442 E.07582
G1 X72.967 Y97.798 E.08557
G1 X73.906 Y95.236 E.08556
G1 X75.085 Y92.808 E.08462
G1 X76.342 Y90.742 E.07582
G1 X77.976 Y88.557 E.08556
G1 X79.782 Y86.592 E.08368
M204 S1000
; printing object Wheel PLA V2.stl id:0 copy 0
;WIPE_START
G1 F8640
G1 X81.84 Y84.754 E-.63699
G1 X82.27 Y84.439 E-.12301
;WIPE_END
G1 E-.04 F2100
G1 Z.6 F720
G1 X164.657 Y84.805 F10800
G1 Z.2 F720
G1 E.8 F2100
M204 S800
;TYPE:Perimeter
;WIDTH:0.419999
G1 F1200
G1 X165.752 Y85.517 E.04093
G1 X166.464 Y86.031 E.02753
G1 X167.386 Y86.762 E.03692
G1 X168.27 Y87.538 E.03686
G1 X169.113 Y88.357 E.03686
G1 X169.914 Y89.218 E.03687
G1 X170.627 Y90.066 E.03473
G1 X171.205 Y90.817 E.02972
G1 X171.879 Y91.782 E.0369
G1 X172.503 Y92.778 E.03686
G1 X173.076 Y93.805 E.03686
G1 X173.596 Y94.859 E.03686
G1 X174.062 Y95.938 E.03686
G1 X174.473 Y97.04 E.03686
G1 X174.828 Y98.16 E.03686
G1 X175.126 Y99.298 E.03687
G1 X175.353 Y100.382 E.03473
G1 X175.507 Y101.318 E.02972
G1 X175.625 Y102.325 E.03181
G1 X175.725 Y103.822 E.04705
G1 X175.741 Y104.835 E.03176
G1 X175.7 Y106.01 E.03687
G1 X175.607 Y107.114 E.03473
G1 X175.486 Y108.054 E.02972
G1 X175.282 Y109.214 E.0369
G1 X175.021 Y110.36 E.03686
G1 X174.702 Y111.491 E.03686
G1 X174.326 Y112.605 E.03686
G1 X173.894 Y113.699 E.03686
G1 X173.407 Y114.769 E.03686
G1 X172.867 Y115.813 E.03686
G1 X172.274 Y116.83 E.03692
G1 X171.799 Y117.568 E.02753
G1 X171.118 Y118.529 E.03692
G1 X170.391 Y119.453 E.03686
G1 X169.618 Y120.339 E.03687
G1 X168.802 Y121.184 E.03686
G1 X167.943 Y121.988 E.03686
G1 X167.045 Y122.747 E.03686
G1 X166.11 Y123.459 E.03687
G1 X165.197 Y124.086 E.03473
G1 X164.392 Y124.588 E.02972
G1 X163.366 Y125.165 E.0369
G1 X162.314 Y125.688 E.03686
G1 X161.236 Y126.158 E.03686
G1 X160.136 Y126.572 E.03686
G1 X159.016 Y126.931 E.03686
G1 X157.88 Y127.232 E.03687
G1 X156.796 Y127.463 E.03473
G1 X155.861 Y127.619 E.02972
G1 X154.693 Y127.761 E.03691
G1 X153.52 Y127.842 E.03686
G1 X152.344 Y127.864 E.03686
G1 X151.17 Y127.827 E.03686
G1 X149.998 Y127.731 E.03687
G1 X148.833 Y127.575 E.03686
G1 X147.677 Y127.361 E.03686
G1 X146.531 Y127.088 E.03692
G1 X145.687 Y126.847 E.02753
G1 X144.57 Y126.474 E.03692
G1 X143.475 Y126.046 E.03686
G1 X142.403 Y125.562 E.03687
G1 X141.358 Y125.026 E.03686
G1 X140.34 Y124.437 E.03686
G1 X139.354 Y123.797 E.03686
G1 X138.401 Y123.109 E.03686
G1 X137.483 Y122.372 E.03692
G1 X136.823 Y121.792 E.02753
G1 X135.973 Y120.977 E.03692
G1 X135.167 Y120.121 E.03686
G1 X134.405 Y119.224 E.03691
G1 X133.866 Y118.531 E.02754
G1 X133.185 Y117.57 E.03692
G1 X132.555 Y116.578 E.03686
G1 X131.976 Y115.554 E.03686
G1 X131.449 Y114.504 E.03686
G1 X130.976 Y113.427 E.03686
G1 X130.558 Y112.328 E.03687
G1 X130.216 Y111.275 E.03473
G1 X129.962 Y110.361 E.02973
G1 X129.701 Y109.214 E.0369
G1 X129.497 Y108.056 E.03687
G1 X129.353 Y106.889 E.03686
G1 X129.267 Y105.717 E.03686
G1 X129.241 Y104.541 E.03686
G1 X129.275 Y103.366 E.03686
G1 X129.368 Y102.192 E.03692
G1 X129.476 Y101.321 E.02753
G1 X129.672 Y100.16 E.03692
G1 X129.926 Y99.012 E.03686
G1 X130.238 Y97.879 E.03686
G1 X130.607 Y96.762 E.03686
G1 X131.032 Y95.666 E.03686
G1 X131.512 Y94.593 E.03686
G1 X132.045 Y93.545 E.03686
G1 X132.631 Y92.526 E.03686
G1 X133.267 Y91.538 E.03686
G1 X133.953 Y90.582 E.03688
G1 X134.643 Y89.715 E.03473
G1 X135.265 Y89 E.02973
G1 X136.077 Y88.148 E.0369
G1 X136.93 Y87.34 E.03686
G1 X137.823 Y86.575 E.03686
G1 X138.754 Y85.857 E.03687
G1 X139.664 Y85.224 E.03473
G1 X140.465 Y84.717 E.02972
G1 X141.487 Y84.134 E.0369
G1 X142.536 Y83.604 E.03686
G1 X143.611 Y83.127 E.03687
G1 X144.708 Y82.706 E.03685
G1 X145.826 Y82.34 E.03686
G1 X146.96 Y82.032 E.03686
G1 X148.109 Y81.781 E.03686
G1 X149.269 Y81.589 E.03686
G1 X150.437 Y81.455 E.03686
G1 X151.61 Y81.381 E.03687
G1 X152.718 Y81.366 E.03473
G1 X153.665 Y81.394 E.02972
G1 X154.839 Y81.483 E.03691
G1 X156.005 Y81.631 E.03686
G1 X157.162 Y81.838 E.03686
G1 X158.308 Y82.104 E.03686
G1 X159.438 Y82.426 E.03686
G1 X160.551 Y82.806 E.03686
G1 X161.643 Y83.241 E.03686
G1 X162.712 Y83.731 E.03686
G1 X163.754 Y84.274 E.03686
G1 X164.606 Y84.774 E.03096
M204 S1000
G1 X164.848 Y84.48 F10800
M204 S800
;TYPE:External perimeter
G1 F1200
G1 X165.966 Y85.206 E.04179
G1 X166.691 Y85.73 E.02805
G1 X167.628 Y86.472 E.03748
G1 X168.526 Y87.261 E.03746
G1 X169.382 Y88.093 E.03746
G1 X170.196 Y88.968 E.03746
G1 X170.921 Y89.829 E.03528
G1 X171.509 Y90.594 E.03025
G1 X172.194 Y91.573 E.03747
G1 X172.828 Y92.586 E.03746
G1 X173.41 Y93.629 E.03746
G1 X173.938 Y94.701 E.03746
G1 X174.412 Y95.798 E.03746
G1 X174.83 Y96.917 E.03746
G1 X175.19 Y98.056 E.03745
G1 X175.493 Y99.212 E.03746
G1 X175.724 Y100.313 E.03528
G1 X175.88 Y101.265 E.03025
G1 X176 Y102.281 E.03208
G1 X176.102 Y103.816 E.04825
G1 X176.118 Y104.839 E.03205
G1 X176.076 Y106.033 E.03746
G1 X175.982 Y107.154 E.03528
G1 X175.859 Y108.111 E.03025
G1 X175.652 Y109.288 E.03748
G1 X175.386 Y110.453 E.03746
G1 X175.062 Y111.603 E.03746
G1 X174.68 Y112.735 E.03746
G1 X174.241 Y113.846 E.03746
G1 X173.747 Y114.933 E.03746
G1 X173.198 Y115.995 E.03746
G1 X172.596 Y117.027 E.03748
G1 X172.111 Y117.78 E.02805
G1 X171.42 Y118.755 E.03748
G1 X170.682 Y119.694 E.03746
G1 X169.896 Y120.594 E.03746
G1 X169.066 Y121.453 E.03745
G1 X168.194 Y122.27 E.03746
G1 X167.281 Y123.041 E.03746
G1 X166.331 Y123.765 E.03746
G1 X165.403 Y124.402 E.03528
G1 X164.585 Y124.913 E.03025
G1 X163.543 Y125.498 E.03747
G1 X162.473 Y126.03 E.03746
G1 X161.378 Y126.507 E.03746
G1 X160.26 Y126.929 E.03746
G1 X159.122 Y127.293 E.03746
G1 X157.967 Y127.599 E.03746
G1 X156.867 Y127.833 E.03528
G1 X155.915 Y127.993 E.03025
G1 X154.728 Y128.136 E.03748
G1 X153.537 Y128.219 E.03745
G1 X152.342 Y128.242 E.03746
G1 X151.148 Y128.204 E.03745
G1 X149.957 Y128.106 E.03746
G1 X148.773 Y127.948 E.03745
G1 X147.599 Y127.73 E.03746
G1 X146.436 Y127.453 E.03748
G1 X145.575 Y127.207 E.02805
G1 X144.442 Y126.829 E.03748
G1 X143.329 Y126.393 E.03746
M73 P0 R73
G1 X142.24 Y125.902 E.03746
G1 X141.177 Y125.357 E.03745
G1 X140.143 Y124.758 E.03746
G1 X139.141 Y124.109 E.03746
G1 X138.172 Y123.409 E.03746
G1 X137.24 Y122.661 E.03748
G1 X136.568 Y122.07 E.02805
G1 X135.705 Y121.242 E.03749
G1 X134.886 Y120.373 E.03746
G1 X134.112 Y119.462 E.03747
G1 X133.563 Y118.756 E.02806
G1 X132.872 Y117.78 E.03748
G1 X132.232 Y116.772 E.03746
G1 X131.643 Y115.732 E.03746
G1 X131.108 Y114.664 E.03746
G1 X130.627 Y113.57 E.03746
G1 X130.202 Y112.453 E.03746
G1 X129.855 Y111.383 E.03528
G1 X129.597 Y110.453 E.03026
G1 X129.331 Y109.288 E.03747
G1 X129.124 Y108.111 E.03746
G1 X128.977 Y106.926 E.03746
G1 X128.891 Y105.734 E.03745
G1 X128.864 Y104.54 E.03746
G1 X128.898 Y103.346 E.03746
G1 X128.992 Y102.154 E.03748
G1 X129.102 Y101.266 E.02806
G1 X129.302 Y100.088 E.03748
G1 X129.56 Y98.921 E.03746
G1 X129.877 Y97.769 E.03746
G1 X130.252 Y96.635 E.03746
G1 X130.684 Y95.521 E.03746
G1 X131.172 Y94.43 E.03746
G1 X131.714 Y93.366 E.03746
G1 X132.309 Y92.33 E.03746
G1 X132.955 Y91.325 E.03745
G1 X133.652 Y90.355 E.03747
G1 X134.353 Y89.474 E.03528
G1 X134.986 Y88.746 E.03026
G1 X135.811 Y87.881 E.03747
G1 X136.678 Y87.059 E.03746
G1 X137.585 Y86.283 E.03745
G1 X138.531 Y85.552 E.03747
G1 X139.455 Y84.91 E.03528
G1 X140.27 Y84.393 E.03025
G1 X141.308 Y83.801 E.03747
G1 X142.375 Y83.263 E.03746
G1 X143.467 Y82.779 E.03746
G1 X144.582 Y82.35 E.03745
G1 X145.718 Y81.979 E.03746
G1 X146.871 Y81.666 E.03746
G1 X148.038 Y81.411 E.03746
G1 X149.216 Y81.215 E.03746
G1 X150.403 Y81.08 E.03746
G1 X151.596 Y81.004 E.03746
G1 X152.721 Y80.989 E.03528
G1 X153.685 Y81.017 E.03025
G1 X154.877 Y81.108 E.03748
G1 X156.062 Y81.259 E.03746
G1 X157.238 Y81.469 E.03746
G1 X158.402 Y81.738 E.03746
G1 X159.551 Y82.066 E.03746
G1 X160.682 Y82.452 E.03746
G1 X161.791 Y82.894 E.03746
G1 X162.877 Y83.392 E.03746
G1 X163.937 Y83.944 E.03746
G1 X164.797 Y84.449 E.03126
M204 S1000
G1 X164.837 Y84.879 F10800
;WIPE_START
G1 F8640
G1 X165.966 Y85.206 E-.3216
G1 X166.691 Y85.73 E-.2066
G1 X167.478 Y86.354 E-.2318
;WIPE_END
G1 E-.04 F2100
G1 Z.6 F720
G1 X161.729 Y99.868 F10800
G1 Z.2 F720
G1 E.8 F2100
M204 S800
;TYPE:Perimeter
G1 F1200
G1 X162.092 Y100.652 E.02709
G1 X162.335 Y101.318 E.02223
G1 X162.564 Y102.08 E.02494
G1 X162.694 Y102.664 E.01877
G1 X162.823 Y103.544 E.02789
G1 X162.861 Y104.249 E.02211
G1 X162.845 Y105.303 E.03307
G1 X162.753 Y106.163 E.02711
G1 X162.521 Y107.299 E.03635
G1 X162.318 Y107.979 E.02225
G1 X162.108 Y108.54 E.01877
G1 X161.776 Y109.263 E.02493
G1 X161.445 Y109.88 E.02198
G1 X161.126 Y110.387 E.01878
G1 X160.777 Y110.865 E.01854
G1 X160.208 Y111.568 E.02836
G1 X159.794 Y112.001 E.01878
G1 X159.35 Y112.404 E.01882
G1 X158.658 Y112.973 E.02809
G1 X158.166 Y113.314 E.01877
G1 X157.401 Y113.768 E.02789
G1 X156.858 Y114.039 E.01903
G1 X156.308 Y114.275 E.01877
G1 X155.467 Y114.566 E.02789
G1 X154.823 Y114.729 E.02082
G1 X153.999 Y114.892 E.02634
G1 X153.412 Y114.961 E.01854
G1 X152.516 Y115.001 E.02811
G1 X151.909 Y114.985 E.01904
G1 X151.313 Y114.934 E.01878
G1 X150.434 Y114.795 E.02789
G1 X149.722 Y114.62 E.02301
G1 X148.857 Y114.339 E.02851
G1 X148.154 Y114.053 E.02378
G1 X147.618 Y113.787 E.01878
G1 X146.974 Y113.409 E.0234
G1 X146.351 Y112.992 E.02351
G1 X145.878 Y112.624 E.01878
G1 X145.491 Y112.277 E.01631
G1 X144.797 Y111.592 E.03059
G1 X144.408 Y111.137 E.01877
G1 X143.879 Y110.421 E.02789
G1 X143.568 Y109.915 E.01861
G1 X143.131 Y109.117 E.02854
G1 X142.89 Y108.577 E.01854
G1 X142.682 Y108.004 E.0191
G1 X142.423 Y107.134 E.02847
G1 X142.237 Y106.27 E.0277
G1 X142.16 Y105.684 E.01854
G1 X142.121 Y105.038 E.02031
G1 X142.13 Y103.897 E.03576
G1 X142.231 Y102.999 E.02832
G1 X142.343 Y102.403 E.01903
G1 X142.487 Y101.822 E.01878
G1 X142.763 Y100.976 E.02789
G1 X143.114 Y100.15 E.02815
G1 X143.39 Y99.609 E.01903
G1 X143.666 Y99.14 E.01705
G1 X144.026 Y98.596 E.02049
G1 X144.387 Y98.118 E.01877
G1 X144.859 Y97.579 E.02245
G1 X145.404 Y97.021 E.02446
G1 X145.848 Y96.63 E.01854
G1 X146.449 Y96.173 E.02369
G1 X147.21 Y95.677 E.02848
G1 X147.855 Y95.32 E.02312
G1 X148.398 Y95.068 E.01877
G1 X148.955 Y94.848 E.01877
G1 X149.524 Y94.661 E.01877
G1 X150.386 Y94.444 E.02789
G1 X151.176 Y94.315 E.0251
G1 X151.877 Y94.246 E.02207
G1 X152.468 Y94.228 E.01854
G1 X153.051 Y94.251 E.01829
G1 X154.201 Y94.372 E.03625
G1 X154.849 Y94.499 E.02073
G1 X155.421 Y94.65 E.01854
G1 X156.23 Y94.926 E.0268
G1 X157.091 Y95.302 E.02947
G1 X157.611 Y95.578 E.01844
G1 X158.139 Y95.897 E.01936
G1 X158.632 Y96.237 E.01877
G1 X159.099 Y96.6 E.01854
G1 X159.589 Y97.041 E.02068
G1 X160.186 Y97.638 E.02646
G1 X160.575 Y98.093 E.01878
G1 X161.103 Y98.808 E.02789
G1 X161.428 Y99.321 E.01903
G1 X161.702 Y99.815 E.0177
M204 S1000
G1 X161.362 Y99.98 F10800
M204 S800
;TYPE:External perimeter
G1 F1200
G1 X161.75 Y100.81 E.02872
G1 X161.98 Y101.446 E.0212
G1 X162.201 Y102.182 E.02409
G1 X162.325 Y102.745 E.01809
G1 X162.45 Y103.599 E.02704
G1 X162.484 Y104.268 E.021
G1 X162.468 Y105.284 E.03188
G1 X162.38 Y106.109 E.02601
G1 X162.154 Y107.213 E.03533
G1 X161.958 Y107.867 E.0214
G1 X161.755 Y108.407 E.01809
G1 X161.434 Y109.105 E.02408
G1 X161.115 Y109.698 E.02113
G1 X160.807 Y110.186 E.01809
G1 X160.474 Y110.641 E.01769
G1 X159.921 Y111.323 E.02751
G1 X159.522 Y111.74 E.01809
G1 X159.097 Y112.124 E.01796
G1 X158.426 Y112.676 E.02723
G1 X157.952 Y113.004 E.01809
G1 X157.209 Y113.443 E.02704
G1 X156.69 Y113.701 E.01818
G1 X156.16 Y113.928 E.01809
G1 X155.345 Y114.209 E.02704
G1 X154.732 Y114.363 E.0198
G1 X153.934 Y114.52 E.02549
G1 X153.369 Y114.586 E.01786
G1 X152.5 Y114.625 E.02727
G1 X151.92 Y114.608 E.01818
G1 X151.345 Y114.559 E.01809
G1 X150.494 Y114.423 E.02704
G1 X149.813 Y114.254 E.02199
G1 X148.979 Y113.983 E.02749
G1 X148.302 Y113.706 E.02293
G1 X147.785 Y113.449 E.0181
G1 X147.166 Y113.084 E.02255
G1 X146.566 Y112.682 E.02266
G1 X146.111 Y112.327 E.01809
G1 X145.471 Y111.749 E.02703
G1 X145.069 Y111.331 E.01818
G1 X144.694 Y110.892 E.01809
G1 X144.183 Y110.198 E.02704
G1 X143.89 Y109.719 E.01759
G1 X143.466 Y108.944 E.02769
G1 X143.235 Y108.424 E.01786
G1 X143.037 Y107.876 E.01825
G1 X142.787 Y107.037 E.02745
G1 X142.608 Y106.2 E.02684
G1 X142.534 Y105.635 E.01786
G1 X142.497 Y105.016 E.01947
G1 X142.507 Y103.908 E.03473
G1 X142.606 Y103.043 E.0273
G1 X142.713 Y102.473 E.01818
