; generated by PrusaSlicer 2.5.0+win64 on 2023-02-10 at 09:09:57 UTC


;
;
; 

; external perimeters extrusion width = 0.50mm
; perimeters extrusion width = 0.50mm
; infill extrusion width = 0.50mm
; solid infill extrusion width = 0.50mm
; top infill extrusion width = 0.50mm
; first layer extrusion width = 0.50mm

; external perimeters extrusion width = 0.50mm
; perimeters extrusion width = 0.50mm
; infill extrusion width = 0.50mm
; solid infill extrusion width = 0.50mm
; top infill extrusion width = 0.50mm
; first layer extrusion width = 0.50mm

; external perimeters extrusion width = 0.50mm
; perimeters extrusion width = 0.50mm
; infill extrusion width = 0.50mm
; solid infill extrusion width = 0.50mm
; top infill extrusion width = 0.50mm
; first layer extrusion width = 0.50mm

; external perimeters extrusion width = 0.50mm
; perimeters extrusion width = 0.50mm
; infill extrusion width = 0.50mm
; solid infill extrusion width = 0.50mm
; top infill extrusion width = 0.50mm
; first layer extrusion width = 0.50mm

M73 P0 R5
M73 Q0 S5
M201 X1000 Y1000 Z200 E5000 ; sets maximum accelerations, mm/sec^2
M203 X200 Y200 Z12 E120 ; sets maximum feedrates, mm / sec
M204 P1250 R1250 T1250 ; sets acceleration (P, T) and retract acceleration (R), mm/sec^2
M205 X8.00 Y8.00 Z0.40 E4.50 ; sets the jerk limits, mm/sec
M205 S0 T0 ; sets the minimum extruding and travel feed rate, mm/sec
M107
;TYPE:Custom
M862.3 P "MK3S" ; printer model check
M862.1 P0.4 ; nozzle diameter check
M115 U3.11.0 ; tell printer latest fw version
G90 ; use absolute coordinates
M83 ; extruder relative mode
M104 S215 ; set extruder temp
M140 S60 ; set bed temp
M190 S60 ; wait for bed temp
M109 S215 ; wait for extruder temp
G28 W ; home all without mesh bed level
G80 ; mesh bed leveling

G1 Z0.2 F720
G1 Y-3 F1000 ; go outside print area
G92 E0
G1 X60 E9 F1000 ; intro line
G1 X100 E12.5 F1000 ; intro line

G92 E0
M221 S95

; Don't change E values below. Excessive value can damage the printer.
M907 E430 ; set extruder motor current
G21 ; set units to millimeters
G90 ; use absolute coordinates
M83 ; use relative distances for extrusion
M900 K0.05 ; Filament gcode LA 1.5
M900 K30 ; Filament gcode LA 1.0
M107
;LAYER_CHANGE
;Z:0.2
;HEIGHT:0.2
;BEFORE_LAYER_CHANGE
G92 E0.0
;0.2


M73 P1 R4
M73 Q1 S5
G1 E-.8 F2100
M73 P2 R4
M73 Q2 S4
G1 Z.4 F720
;AFTER_LAYER_CHANGE
;0.2
G1 X116.007 Y74.677 F10800
G1 Z.2 F720
G1 E.8 F2100
M204 S800
;TYPE:Skirt/Brim
;WIDTH:0.5
G1 F1200
G1 X116.715 Y73.807 E.04264
G1 X117.655 Y72.86 E.0507
G1 X119.387 Y71.549 E.08256
G1 X120.553 Y70.901 E.0507
G1 X121.583 Y70.455 E.04264
G1 X122.853 Y70.048 E.0507
G1 X123.95 Y69.813 E.04264
G1 X125.672 Y69.646 E.06576
G1 X151.561 Y69.049 E.98419
G1 X153.708 Y69.28 E.08207
M73 Q3 S4
G1 X155.73 Y69.859 E.07994
G1 X157.626 Y70.77 E.07994
M73 P3 R4
G1 X159.341 Y71.988 E.07994
G1 X160.828 Y73.476 E.07994
G1 X162.042 Y75.193 E.07994
G1 X162.951 Y77.09 E.07994
G1 X163.527 Y79.113 E.07994
G1 X163.718 Y80.503 E.05333
G1 X163.751 Y81.906 E.05333
G1 X162.69 Y105.578 E.90058
G1 X162.403 Y107.308 E.06664
G1 X161.9 Y108.915 E.06402
G1 X161.152 Y110.501 E.06664
G1 X160.357 Y111.74 E.05596
G1 X159.514 Y112.775 E.0507
G1 X158.515 Y113.759 E.05333
G1 X157.41 Y114.625 E.05333
G1 X156.216 Y115.361 E.05333
G1 X155.206 Y115.85 E.04264
G1 X153.888 Y116.33 E.05333
G1 X152.523 Y116.659 E.05333
G1 X151.2 Y116.828 E.0507
G1 X124.439 Y117.445 E1.01736
M73 Q4 S4
G1 X122.587 Y117.221 E.07091
M73 P4 R4
G1 X120.735 Y116.705 E.07305
G1 X119.134 Y115.99 E.06664
G1 X117.593 Y115.016 E.06927
G1 X116.514 Y114.12 E.05333
G1 X115.542 Y113.108 E.05333
G1 X114.69 Y111.993 E.05333
G1 X113.969 Y110.789 E.05333
G1 X113.388 Y109.511 E.05333
G1 X112.955 Y108.177 E.05333
G1 X112.674 Y106.802 E.05333
G1 X112.552 Y105.474 E.0507
G1 X113.628 Y80.75 E.94054
G1 X113.923 Y79.092 E.06402
M73 P5 R4
M73 Q5 S4
G1 X114.445 Y77.477 E.0645
G1 X115.097 Y76.094 E.05809
G1 X115.975 Y74.727 E.06174
M204 S1000
; printing object M10 washer 0.5mm .stl id:2 copy 0
;WIPE_START
G1 F8640
G1 X116.715 Y73.807 E-.2728
G1 X117.655 Y72.86 E-.30804
G1 X118.274 Y72.392 E-.17916
;WIPE_END
G1 E-.04 F2100
G1 Z.6 F720
G1 X134.149 Y79.219 F10800
G1 Z.2 F720
G1 E.8 F2100
M204 S800
;TYPE:Perimeter
;WIDTH:0.499999
G1 F1200
G1 X134.494 Y80.482 E.04977
G1 X134.6 Y81.196 E.02743
G1 X134.638 Y81.703 E.01932
G1 X134.645 Y82.188 E.01843
G1 X134.604 Y82.949 E.02897
G1 X134.491 Y83.718 E.02953
G1 X134.363 Y84.294 E.02245
G1 X134.22 Y84.782 E.01933
G1 X133.957 Y85.48 E.02836
G1 X133.744 Y85.942 E.01932
G1 X133.43 Y86.506 E.02454
G1 X133.118 Y87.001 E.02224
G1 X132.625 Y87.647 E.03087
G1 X132.074 Y88.247 E.03096
G1 X131.696 Y88.599 E.01964
G1 X131.297 Y88.925 E.0196
G1 X130.338 Y89.571 E.04395
G1 X129.891 Y89.813 E.01931
G1 X129.245 Y90.104 E.02692
G1 X128.761 Y90.284 E.01961
G1 X128.267 Y90.432 E.0196
G1 X127.425 Y90.611 E.03273
G1 X126.816 Y90.695 E.02335
G1 X126.243 Y90.728 E.02183
G1 X125.736 Y90.723 E.01927
G1 X124.709 Y90.634 E.03918
G1 X124.209 Y90.543 E.01932
G1 X123.487 Y90.356 E.02835
G1 X123.005 Y90.192 E.01932
G1 X122.168 Y89.83 E.03469
G1 X121.719 Y89.591 E.01931
G1 X121.288 Y89.318 E.01939
G1 X120.727 Y88.927 E.02599
G1 X120.334 Y88.604 E.01932
G1 X119.832 Y88.127 E.02633
G1 X119.491 Y87.747 E.01939
G1 X119.037 Y87.188 E.02738
G1 X118.749 Y86.769 E.01933
G1 X118.392 Y86.157 E.02693
G1 X118.162 Y85.696 E.0196
G1 X117.961 Y85.219 E.01964
G1 X117.754 Y84.57 E.0259
G1 X117.496 Y83.504 E.04169
G1 X117.41 Y82.842 E.02538
G1 X117.381 Y82.322 E.0198
G1 X117.386 Y81.815 E.01928
G1 X117.431 Y81.142 E.02562
G1 X117.542 Y80.434 E.02724
G1 X117.695 Y79.779 E.02555
G1 X118.151 Y78.533 E.05044
G1 X118.458 Y77.918 E.02613
M73 Q6 S4
G1 X118.713 Y77.487 E.01904
G1 X118.998 Y77.067 E.01928
G1 X119.423 Y76.518 E.02638
G1 X119.997 Y75.905 E.03193
G1 X120.402 Y75.534 E.02086
G1 X121.378 Y74.817 E.04604
M73 P6 R4
G1 X121.792 Y74.565 E.01842
G1 X122.242 Y74.329 E.01931
G1 X122.808 Y74.085 E.02341
G1 X123.35 Y73.884 E.02197
G1 X123.838 Y73.741 E.01932
G1 X124.559 Y73.587 E.02804
G1 X125.203 Y73.504 E.02467
G1 X125.745 Y73.468 E.02062
G1 X127.058 Y73.53 E.04999
G1 X127.938 Y73.684 E.03393
G1 X128.602 Y73.862 E.02612
G1 X129.555 Y74.231 E.03887
G1 X130.391 Y74.656 E.03563
G1 X130.822 Y74.927 E.01932
G1 X131.423 Y75.368 E.02836
G1 X131.809 Y75.699 E.01932
G1 X132.452 Y76.347 E.03469
G1 X132.78 Y76.735 E.01931
G1 X133.195 Y77.309 E.02692
G1 X133.47 Y77.746 E.01961
G1 X133.715 Y78.199 E.0196
G1 X134.125 Y79.163 E.03982
M204 S1000
G1 X134.565 Y79.023 F10800
M204 S800
G1 F1200
G1 X134.942 Y80.389 E.05384
G1 X135.054 Y81.144 E.02902
G1 X135.095 Y81.693 E.02091
G1 X135.104 Y82.156 E.01762
G1 X135.066 Y82.935 E.02962
G1 X135.005 Y83.438 E.01928
G1 X134.916 Y83.943 E.01947
G1 X134.798 Y84.441 E.01947
G1 X134.653 Y84.928 E.01928
G1 X134.38 Y85.656 E.02958
G1 X134.168 Y86.117 E.01928
G1 X133.931 Y86.566 E.01928
G1 X133.523 Y87.223 E.02939
G1 X133.06 Y87.842 E.02939
G1 X132.729 Y88.227 E.01928
G1 X132.373 Y88.595 E.01947
G1 X131.997 Y88.943 E.01947
G1 X131.606 Y89.266 E.01928
G1 X130.973 Y89.718 E.02958
G1 X130.54 Y89.983 E.01928
G1 X130.093 Y90.223 E.01928
G1 X129.383 Y90.543 E.02958
G1 X128.907 Y90.718 E.01928
G1 X128.422 Y90.866 E.01928
G1 X127.668 Y91.038 E.02939
G1 X126.902 Y91.147 E.02939
G1 X126.396 Y91.183 E.01928
G1 X125.889 Y91.19 E.01928
G1 X125.112 Y91.146 E.02958
G1 X124.609 Y91.082 E.01928
G1 X124.11 Y90.99 E.01928
G1 X123.356 Y90.794 E.02958
G1 X122.875 Y90.633 E.01928
G1 X122.4 Y90.443 E.01947
G1 X121.936 Y90.226 E.01947
G1 X121.489 Y89.986 E.01928
G1 X120.831 Y89.57 E.02958
G1 X120.422 Y89.269 E.01928
G1 X120.031 Y88.946 E.01928
G1 X119.471 Y88.413 E.02939
G1 X118.958 Y87.835 E.02939
G1 X118.648 Y87.432 E.01928
G1 X118.363 Y87.013 E.01928
G1 X117.997 Y86.387 E.02754
G1 X117.765 Y85.925 E.01967
G1 X117.563 Y85.454 E.01947
G1 X117.377 Y84.946 E.02055
G1 X117.059 Y83.682 E.04956
G1 X116.957 Y82.925 E.02902
G1 X116.925 Y82.418 E.01928
G1 X116.922 Y81.911 E.01928
G1 X116.967 Y81.188 E.02753
G1 X117.033 Y80.674 E.0197
G1 X117.127 Y80.171 E.01947
G1 X117.257 Y79.646 E.02054
G1 X117.698 Y78.419 E.04956
G1 X118.036 Y77.734 E.02902
G1 X118.291 Y77.296 E.01928
G1 X118.571 Y76.873 E.01928
G1 X119.013 Y76.298 E.02753
G1 X119.354 Y75.908 E.0197
G1 X119.713 Y75.543 E.01947
G1 X120.113 Y75.179 E.02055
G1 X121.107 Y74.449 E.04689
M73 Q7 S4
G1 X121.596 Y74.15 E.02175
G1 X122.046 Y73.916 E.01928
G1 X122.76 Y73.607 E.02958
G1 X123.239 Y73.439 E.01928
G1 X123.726 Y73.298 E.01928
G1 X124.482 Y73.136 E.02939
M73 P7 R4
G1 X125.196 Y73.045 E.02735
G1 X125.741 Y73.01 E.02076
G1 X127.044 Y73.065 E.04956
G1 X127.799 Y73.183 E.02902
G1 X128.293 Y73.296 E.01928
G1 X128.78 Y73.437 E.01928
G1 X129.506 Y73.704 E.02939
G1 X130.207 Y74.031 E.02939
G1 X130.651 Y74.278 E.01928
G1 X131.079 Y74.549 E.01928
G1 X131.706 Y75.01 E.02958
G1 X132.093 Y75.338 E.01928
G1 X132.464 Y75.691 E.01947
G1 X132.815 Y76.065 E.01948
G1 X133.141 Y76.454 E.01928
G1 X133.597 Y77.084 E.02958
G1 X133.865 Y77.515 E.01928
G1 X134.108 Y77.96 E.01928
G1 X134.41 Y78.619 E.02753
G1 X134.544 Y78.967 E.01419
M204 S1000
G1 X134.993 Y78.86 F10800
M204 S800
;TYPE:External perimeter
G1 F1200
G1 X135.145 Y79.378 E.02052
G1 X135.414 Y80.458 E.04231
G1 X135.514 Y81.162 E.02705
G1 X135.552 Y81.683 E.01985
G1 X135.562 Y82.163 E.01823
G1 X135.522 Y82.973 E.03084
G1 X135.458 Y83.506 E.02038
G1 X135.363 Y84.036 E.02045
G1 X135.239 Y84.559 E.02045
G1 X135.087 Y85.073 E.02038
G1 X134.802 Y85.832 E.0308
G1 X134.578 Y86.32 E.02038
G1 X134.328 Y86.794 E.02038
G1 X133.901 Y87.48 E.03073
G1 X133.417 Y88.129 E.03074
G1 X133.067 Y88.535 E.02038
G1 X132.693 Y88.922 E.02045
G1 X132.298 Y89.287 E.02045
G1 X131.885 Y89.629 E.02038
G1 X131.225 Y90.1 E.03081
G1 X130.768 Y90.38 E.02038
G1 X130.295 Y90.634 E.02038
G1 X129.556 Y90.966 E.0308
G1 X129.053 Y91.151 E.02039
G1 X128.54 Y91.308 E.02038
G1 X127.751 Y91.488 E.03074
G1 X126.951 Y91.602 E.03074
G1 X126.416 Y91.64 E.02038
G1 X125.879 Y91.647 E.02038
G1 X125.07 Y91.602 E.0308
G1 X124.538 Y91.534 E.02038
G1 X124.011 Y91.436 E.02038
G1 X123.226 Y91.233 E.0308
G1 X122.718 Y91.062 E.02038
G1 X122.218 Y90.862 E.02045
G1 X121.731 Y90.635 E.02045
G1 X121.258 Y90.381 E.02038
G1 X120.573 Y89.948 E.0308
G1 X120.141 Y89.63 E.02038
G1 X119.727 Y89.289 E.02038
G1 X119.142 Y88.731 E.03074
G1 X118.605 Y88.126 E.03074
G1 X118.278 Y87.701 E.02039
G1 X117.976 Y87.258 E.02038
G1 X117.567 Y86.558 E.0308
G1 X117.33 Y86.077 E.02038
G1 X117.12 Y85.581 E.02045
G1 X116.94 Y85.079 E.02027
G1 X116.61 Y83.768 E.0514
G1 X116.502 Y82.97 E.03061
G1 X116.468 Y82.435 E.02038
G1 X116.464 Y81.898 E.02038
G1 X116.516 Y81.089 E.0308
G1 X116.587 Y80.558 E.02038
G1 X116.689 Y80.029 E.02045
G1 X116.819 Y79.512 E.02027
G1 X117.277 Y78.24 E.0514
G1 X117.633 Y77.517 E.03061
G1 X117.903 Y77.054 E.02038
G1 X118.199 Y76.607 E.02038
G1 X118.693 Y75.964 E.03081
G1 X119.049 Y75.563 E.02039
G1 X119.428 Y75.181 E.02045
G1 X119.824 Y74.824 E.02027
G1 X120.915 Y74.022 E.05146
G1 X121.374 Y73.75 E.02026
M73 Q8 S4
G1 X121.85 Y73.503 E.02038
G1 X122.593 Y73.181 E.0308
G1 X123.099 Y73.003 E.02038
G1 X123.615 Y72.854 E.02038
G1 X124.405 Y72.685 E.03074
G1 X125.208 Y72.582 E.03074
M73 P8 R4
G1 X125.738 Y72.552 E.0202
G1 X127.089 Y72.61 E.0514
G1 X127.816 Y72.723 E.02797
G1 X128.353 Y72.841 E.0209
G1 X128.856 Y72.983 E.01984
G1 X129.389 Y73.174 E.02151
G1 X129.942 Y73.403 E.02276
G1 X130.476 Y73.658 E.0225
G1 X130.931 Y73.914 E.01985
G1 X131.489 Y74.283 E.02541
G1 X132.043 Y74.696 E.02628
G1 X132.439 Y75.037 E.01986
G1 X132.827 Y75.41 E.02045
G1 X133.193 Y75.804 E.02044
G1 X133.542 Y76.229 E.02091
G1 X134.014 Y76.889 E.03081
G1 X134.287 Y77.333 E.01984
G1 X134.546 Y77.819 E.02091
G1 X134.969 Y78.804 E.04077
M204 S1000
G1 X134.731 Y79.162 F10800
;WIPE_START
G1 F8640
G1 X135.145 Y79.378 E-.13844
G1 X135.414 Y80.458 E-.25703
G1 X135.514 Y81.162 E-.16433
G1 X135.552 Y81.683 E-.12059
G1 X135.559 Y82.028 E-.07961
;WIPE_END
G1 E-.04 F2100
G1 Z.6 F720
G1 X121.073 Y86.329 F10800
G1 Z.2 F720
G1 E.8 F2100
M204 S800
;TYPE:Perimeter
G1 F1200
G1 X120.99 Y86.24 E.00463
G1 X120.388 Y85.376 E.04002
G1 X119.856 Y84.216 E.0485
G1 X119.638 Y83.435 E.03083
G1 X119.498 Y82.106 E.05077
G1 X119.622 Y80.834 E.04857
G1 X119.956 Y79.711 E.04455
G1 X120.593 Y78.483 E.05256
G1 X121.403 Y77.495 E.04857
G1 X121.781 Y77.156 E.0193
G1 X122.052 Y76.93 E.01338
G1 X122.753 Y76.461 E.03205
G1 X123.458 Y76.107 E.02998
G1 X124.054 Y75.891 E.02411
G1 X124.952 Y75.685 E.03502
G1 X125.41 Y75.62 E.01755
G1 X126.411 Y75.601 E.03808
G1 X127.217 Y75.698 E.03083
G1 X128.511 Y76.083 E.05134
G1 X129.535 Y76.624 E.04402
G1 X130.125 Y77.051 E.02766
G1 X130.628 Y77.528 E.02634
G1 X131.034 Y77.957 E.02246
G1 X131.636 Y78.82 E.04002
G1 X132.038 Y79.685 E.03624
G1 X132.226 Y80.15 E.01906
G1 X132.386 Y80.762 E.02403
G1 X132.491 Y81.461 E.02687
G1 X132.51 Y82.135 E.02563
G1 X132.5 Y82.668 E.02028
G1 X132.412 Y83.303 E.02434
G1 X132.176 Y84.129 E.03266
G1 X132.013 Y84.63 E.02004
G1 X131.727 Y85.221 E.02496
G1 X131.083 Y86.185 E.04404
G1 X130.531 Y86.76 E.0303
G1 X130.154 Y87.12 E.01983
G1 X129.29 Y87.723 E.04002
G1 X128.376 Y88.146 E.03826
M73 Q9 S4
G1 X127.761 Y88.365 E.02484
G1 X127.232 Y88.496 E.02071
G1 X126.124 Y88.607 E.04232
G1 X125.357 Y88.554 E.02921
G1 X124.675 Y88.472 E.02609
M73 P9 R4
G1 X124.06 Y88.312 E.02416
G1 X123.415 Y88.055 E.0264
G1 X122.794 Y87.752 E.02624
G1 X122.338 Y87.476 E.02028
G1 X121.834 Y87.094 E.02403
G1 X121.114 Y86.373 E.03873
M204 S1000
G1 X121.41 Y86.026 F10800
M204 S800
G1 F1200
G1 X120.763 Y85.115 E.04246
G1 X120.275 Y84.033 E.04511
G1 X120.08 Y83.319 E.02811
G1 X120.003 Y82.624 E.02659
G1 X119.955 Y82.103 E.01989
G1 X120.017 Y81.435 E.02549
G1 X120.071 Y80.921 E.01966
G1 X120.393 Y79.843 E.04274
G1 X120.974 Y78.735 E.04755
G1 X121.759 Y77.787 E.04677
G1 X122.231 Y77.368 E.02402
G1 X122.856 Y76.942 E.02872
G1 X123.364 Y76.661 E.02208
G1 X124.205 Y76.322 E.03446
G1 X125.044 Y76.133 E.03267
G1 X125.419 Y76.077 E.0144
G1 X126.42 Y76.058 E.03808
G1 X127.154 Y76.151 E.02811
G1 X128.358 Y76.514 E.0478
G1 X129.409 Y77.084 E.04543
G1 X129.878 Y77.437 E.02233
G1 X130.659 Y78.218 E.04196
G1 X131.261 Y79.082 E.04002
G1 X131.784 Y80.265 E.04918
G1 X131.944 Y80.877 E.02403
G1 X132.038 Y81.524 E.02482
G1 X132.046 Y82.614 E.04144
G1 X131.96 Y83.24 E.02403
G1 X131.739 Y83.996 E.02994
G1 X131.591 Y84.453 E.01825
G1 X131.316 Y85.022 E.02402
G1 X130.724 Y85.899 E.0402
G1 X129.995 Y86.658 E.04002
G1 X129.255 Y87.19 E.03462
G1 X128.808 Y87.458 E.01983
G1 X127.946 Y87.835 E.03573
G1 X127.233 Y88.03 E.02811
G1 X126.079 Y88.152 E.04411
G1 X124.791 Y88.03 E.04918
G1 X124.177 Y87.87 E.0241
G1 X123.59 Y87.633 E.02407
G1 X123.026 Y87.358 E.02386
G1 X122.604 Y87.104 E.01871
G1 X122.11 Y86.73 E.02355
G1 X121.451 Y86.069 E.03545
M204 S1000
G1 X121.74 Y85.717 F10800
M204 S800
;TYPE:External perimeter
G1 F1200
G1 X121.138 Y84.853 E.04002
G1 X120.682 Y83.816 E.04307
G1 X120.522 Y83.202 E.0241
G1 X120.413 Y82.076 E.043
G1 X120.516 Y81.028 E.04002
G1 X120.831 Y79.976 E.04172
G1 X121.369 Y78.969 E.04341
G1 X122.037 Y78.155 E.04002
G1 X122.535 Y77.709 E.02538
G1 X123.11 Y77.322 E.02634
G1 X123.563 Y77.072 E.01969
G1 X124.356 Y76.754 E.03247
G1 X125.135 Y76.581 E.03032
G1 X125.428 Y76.534 E.01126
G1 X126.429 Y76.515 E.03808
G1 X127.091 Y76.604 E.02539
M73 Q10 S4
G1 X128.176 Y76.934 E.04308
G1 X129.104 Y77.431 E.04002
G1 X129.575 Y77.781 E.02232
M73 P10 R4
G1 X130.315 Y78.523 E.03979
G1 X130.886 Y79.343 E.03801
G1 X131.342 Y80.381 E.04307
G1 X131.502 Y80.993 E.02403
G1 X131.585 Y81.586 E.02278
G1 X131.593 Y82.551 E.03668
G1 X131.507 Y83.178 E.02403
G1 X131.302 Y83.864 E.02722
G1 X131.18 Y84.254 E.01553
G1 X130.904 Y84.822 E.02402
G1 X130.395 Y85.582 E.03477
G1 X129.665 Y86.341 E.04002
G1 X128.994 Y86.815 E.03123
G1 X128.625 Y87.04 E.01642
G1 X127.763 Y87.416 E.03573
G1 X127.118 Y87.588 E.02539
G1 X126.034 Y87.697 E.04139
G1 X124.906 Y87.588 E.04307
G1 X124.294 Y87.428 E.02405
G1 X123.765 Y87.211 E.02175
G1 X123.257 Y86.964 E.02147
G1 X122.552 Y86.491 E.03224
G1 X121.782 Y85.76 E.04036
M204 S1000
G1 X121.346 Y85.788 F10800
;WIPE_START
G1 F8640
