; generated by PrusaSlicer 2.5.0+win64 on 2023-02-08 at 14:27:41 UTC


;
;
; 

; external perimeters extrusion width = 0.50mm
; perimeters extrusion width = 0.50mm
; infill extrusion width = 0.50mm
; solid infill extrusion width = 0.50mm
; top infill extrusion width = 0.50mm
; support material extrusion width = 0.35mm
; first layer extrusion width = 0.50mm

; external perimeters extrusion width = 0.50mm
; perimeters extrusion width = 0.50mm
; infill extrusion width = 0.50mm
; solid infill extrusion width = 0.50mm
; top infill extrusion width = 0.50mm
; support material extrusion width = 0.35mm
; first layer extrusion width = 0.50mm

; external perimeters extrusion width = 0.50mm
; perimeters extrusion width = 0.50mm
; infill extrusion width = 0.50mm
; solid infill extrusion width = 0.50mm
; top infill extrusion width = 0.50mm
; support material extrusion width = 0.35mm
; first layer extrusion width = 0.50mm

; external perimeters extrusion width = 0.50mm
; perimeters extrusion width = 0.50mm
; infill extrusion width = 0.50mm
; solid infill extrusion width = 0.50mm
; top infill extrusion width = 0.50mm
; support material extrusion width = 0.35mm
; first layer extrusion width = 0.50mm

; external perimeters extrusion width = 0.50mm
; perimeters extrusion width = 0.50mm
; infill extrusion width = 0.50mm
; solid infill extrusion width = 0.50mm
; top infill extrusion width = 0.50mm
; support material extrusion width = 0.35mm
; first layer extrusion width = 0.50mm

; external perimeters extrusion width = 0.50mm
; perimeters extrusion width = 0.50mm
; infill extrusion width = 0.50mm
; solid infill extrusion width = 0.50mm
; top infill extrusion width = 0.50mm
; support material extrusion width = 0.35mm
; first layer extrusion width = 0.50mm

; external perimeters extrusion width = 0.50mm
; perimeters extrusion width = 0.50mm
; infill extrusion width = 0.50mm
; solid infill extrusion width = 0.50mm
; top infill extrusion width = 0.50mm
; support material extrusion width = 0.35mm
; first layer extrusion width = 0.50mm

; external perimeters extrusion width = 0.50mm
; perimeters extrusion width = 0.50mm
; infill extrusion width = 0.50mm
; solid infill extrusion width = 0.50mm
; top infill extrusion width = 0.50mm
; support material extrusion width = 0.35mm
; first layer extrusion width = 0.50mm

M73 P0 R9
M73 Q0 S9
M201 X1000 Y1000 Z200 E5000 ; sets maximum accelerations, mm/sec^2
M203 X200 Y200 Z12 E120 ; sets maximum feedrates, mm / sec
M204 P1250 R1250 T1250 ; sets acceleration (P, T) and retract acceleration (R), mm/sec^2
M205 X8.00 Y8.00 Z0.40 E4.50 ; sets the jerk limits, mm/sec
M205 S0 T0 ; sets the minimum extruding and travel feed rate, mm/sec
M107
;TYPE:Custom
M862.3 P "MK3S" ; printer model check
M862.1 P0.4 ; nozzle diameter check
M115 U3.11.0 ; tell printer latest fw version
G90 ; use absolute coordinates
M83 ; extruder relative mode
M104 S215 ; set extruder temp
M140 S60 ; set bed temp
M190 S60 ; wait for bed temp
M109 S215 ; wait for extruder temp
G28 W ; home all without mesh bed level
G80 ; mesh bed leveling

G1 Z0.2 F720
G1 Y-3 F1000 ; go outside print area
G92 E0
G1 X60 E9 F1000 ; intro line
G1 X100 E12.5 F1000 ; intro line

G92 E0
M221 S95

; Don't change E values below. Excessive value can damage the printer.
M907 E430 ; set extruder motor current
G21 ; set units to millimeters
G90 ; use absolute coordinates
M83 ; use relative distances for extrusion
M900 K0.05 ; Filament gcode LA 1.5
M900 K30 ; Filament gcode LA 1.0
M107
;LAYER_CHANGE
;Z:0.2
;HEIGHT:0.2
;BEFORE_LAYER_CHANGE
G92 E0.0
;0.2


G1 E-.8 F2100
M73 P1 R9
M73 Q1 S9
G1 Z.4 F720
;AFTER_LAYER_CHANGE
;0.2
G1 X81.291 Y79.761 F10800
G1 Z.2 F720
G1 E.8 F2100
M204 S800
;TYPE:Skirt/Brim
;WIDTH:0.5
G1 F1200
G1 X82.139 Y78.964 E.04423
G1 X83.041 Y78.294 E.04271
G1 X84.063 Y77.704 E.04485
G1 X85.08 Y77.264 E.0421
G1 X86.165 Y76.933 E.04312
G1 X87.169 Y76.743 E.03883
G1 X88.234 Y76.654 E.04061
G1 X108.289 Y76.074 E.76257
G1 X145.379 Y75.847 E1.40965
G1 X147.168 Y76.006 E.06826
G1 X148.944 Y76.502 E.0701
G1 X150.572 Y77.301 E.06893
G1 X152.045 Y78.397 E.06976
G1 X153.273 Y79.72 E.06859
G1 X154.271 Y81.301 E.0711
G1 X154.942 Y82.991 E.06909
G1 X155.293 Y84.761 E.06859
G1 X155.346 Y85.988 E.04666
G1 X154.827 Y104.749 E.71333
G1 X154.614 Y106.495 E.06682
M73 P2 R9
M73 Q2 S9
G1 X154.293 Y107.656 E.04579
G1 X153.893 Y108.644 E.04051
G1 X153.396 Y109.573 E.04005
G1 X152.757 Y110.507 E.04299
G1 X152.022 Y111.356 E.04271
G1 X151.164 Y112.142 E.04423
G1 X150.254 Y112.802 E.04271
G1 X149.272 Y113.356 E.04283
G1 X148.304 Y113.771 E.04005
G1 X147.382 Y114.059 E.03668
G1 X145.497 Y114.36 E.07255
G1 X125.235 Y114.954 E.77045
G1 X86.782 Y114.827 E1.46146
G1 X85.428 Y114.66 E.05185
G1 X84.143 Y114.32 E.05051
G1 X82.891 Y113.801 E.05151
G1 X81.844 Y113.199 E.04591
G1 X80.759 Y112.372 E.05185
G1 X79.829 Y111.441 E.05
G1 X79.036 Y110.404 E.04962
G1 X78.4 Y109.303 E.04832
G1 X77.946 Y108.232 E.04424
G1 X77.618 Y107.11 E.04442
G1 X77.416 Y105.877 E.04747
G1 X77.369 Y104.684 E.04538
G1 X78.587 Y85.925 E.71446
G1 X78.727 Y84.81 E.04271
G1 X79.004 Y83.68 E.04423
G1 X79.41 Y82.589 E.04423
M73 Q3 S9
G1 X79.921 Y81.588 E.04271
G1 X80.565 Y80.619 E.04423
G1 X81.252 Y79.807 E.04043
M204 S1000
; printing object M6 washer  6x15 x 1.stl id:4 copy 0
;WIPE_START
M73 P3 R9
G1 F8640
G1 X82.139 Y78.964 E-.2825
G1 X83.041 Y78.294 E-.2595
G1 X83.859 Y77.822 E-.218
;WIPE_END
G1 E-.04 F2100
G1 Z.6 F720
G1 X81.257 Y107.326 F10800
G1 Z.2 F720
G1 E.8 F2100
M204 S800
;TYPE:Perimeter
;WIDTH:0.499999
G1 F1200
G1 X81.041 Y106.685 E.02567
G1 X80.883 Y106.015 E.02619
G1 X80.806 Y105.402 E.02348
G1 X80.784 Y104.828 E.02183
G1 X80.838 Y104.097 E.02786
G1 X80.939 Y103.473 E.02401
G1 X81.121 Y102.823 E.02567
G1 X81.3 Y102.338 E.01964
G1 X81.652 Y101.64 E.02971
G1 X81.923 Y101.203 E.01954
G1 X82.415 Y100.571 E.03045
G1 X82.758 Y100.205 E.01906
G1 X83.359 Y99.69 E.03007
G1 X83.773 Y99.399 E.01926
G1 X84.475 Y99.007 E.03055
G1 X84.942 Y98.798 E.01944
G1 X85.71 Y98.557 E.0306
G1 X86.208 Y98.444 E.01941
G1 X86.743 Y98.372 E.02052
G1 X87.442 Y98.35 E.02657
G1 X88.102 Y98.393 E.02512
G1 X88.689 Y98.49 E.02262
G1 X89.333 Y98.664 E.02538
G1 X89.983 Y98.913 E.02645
G1 X90.652 Y99.257 E.02857
G1 X91.147 Y99.58 E.02246
G1 X91.618 Y99.954 E.02286
G1 X92.053 Y100.37 E.02288
G1 X92.492 Y100.883 E.02569
G1 X92.8 Y101.313 E.02009
G1 X93.183 Y101.995 E.02974
G1 X93.421 Y102.522 E.02196
G1 X93.642 Y103.218 E.02777
G1 X93.758 Y103.724 E.01973
G1 X93.846 Y104.424 E.02681
G1 X93.861 Y105.018 E.02256
G1 X93.788 Y105.814 E.03041
G1 X93.691 Y106.371 E.02145
G1 X93.532 Y106.939 E.02243
G1 X93.314 Y107.503 E.023
G1 X92.971 Y108.181 E.02887
G1 X92.651 Y108.678 E.02246
G1 X92.28 Y109.151 E.02286
G1 X91.863 Y109.59 E.023
G1 X91.287 Y110.086 E.02888
G1 X90.802 Y110.423 E.02246
G1 X90.272 Y110.721 E.0231
G1 X89.729 Y110.966 E.02264
G1 X89.067 Y111.185 E.0265
G1 X88.565 Y111.304 E.01961
G1 X87.766 Y111.407 E.03061
G1 X87.225 Y111.422 E.02057
G1 X86.467 Y111.368 E.02889
G1 X85.886 Y111.264 E.02245
G1 X85.306 Y111.105 E.02286
G1 X84.742 Y110.893 E.02289
G1 X84.201 Y110.631 E.02286
G1 X83.686 Y110.319 E.02288
G1 X83.166 Y109.928 E.02471
G1 X82.638 Y109.447 E.02716
G1 X82.244 Y109.004 E.02252
G1 X81.888 Y108.518 E.02291
G1 X81.502 Y107.863 E.02889
G1 X81.282 Y107.38 E.02017
M204 S1000
G1 X80.827 Y107.48 F10800
M204 S800
;TYPE:External perimeter
G1 F1200
G1 X80.547 Y106.589 E.03551
G1 X80.43 Y106.078 E.01993
G1 X80.349 Y105.423 E.02508
G1 X80.328 Y104.807 E.02342
G1 X80.386 Y104.029 E.02965
G1 X80.496 Y103.359 E.0258
G1 X80.691 Y102.668 E.02727
G1 X80.886 Y102.145 E.02123
G1 X81.259 Y101.408 E.03138
G1 X81.555 Y100.932 E.02132
G1 X82.076 Y100.264 E.0322
G1 X82.449 Y99.868 E.02066
G1 X83.082 Y99.327 E.03166
G1 X83.533 Y99.01 E.02093
G1 X84.276 Y98.596 E.03233
G1 X84.785 Y98.369 E.02118
G1 X85.598 Y98.114 E.0324
G1 X86.143 Y97.991 E.02121
G1 X86.958 Y97.904 E.03116
G1 X87.467 Y97.894 E.01936
G1 X88.172 Y97.941 E.02686
G1 X88.803 Y98.048 E.02429
G1 X89.7 Y98.313 E.03558
G1 X90.189 Y98.505 E.01994
G1 X90.898 Y98.872 E.03037
G1 X91.428 Y99.219 E.02406
G1 X91.931 Y99.62 E.02446
G1 X92.395 Y100.066 E.02447
G1 X92.861 Y100.613 E.02729
G1 X93.193 Y101.079 E.02176
G1 X93.598 Y101.803 E.03152
G1 X93.852 Y102.372 E.0237
G1 X94.086 Y103.111 E.02944
G1 X94.21 Y103.663 E.0215
G1 X94.303 Y104.408 E.02855
G1 X94.318 Y105.044 E.02416
G1 X94.24 Y105.888 E.03221
G1 X94.133 Y106.49 E.02325
G1 X93.91 Y107.232 E.02943
G1 X93.724 Y107.706 E.01938
G1 X93.298 Y108.519 E.03487
G1 X93.013 Y108.957 E.01984
G1 X92.615 Y109.462 E.02446
G1 X92.164 Y109.934 E.0248
G1 X91.551 Y110.459 E.03067
G1 X91.03 Y110.818 E.02406
G1 X90.464 Y111.137 E.02469
G1 X89.881 Y111.397 E.02424
G1 X89.179 Y111.628 E.0281
G1 X88.631 Y111.756 E.02141
G1 X87.785 Y111.864 E.03241
G1 X87.197 Y111.879 E.02236
G1 X86.391 Y111.818 E.03069
G1 X85.769 Y111.706 E.02405
G1 X85.036 Y111.493 E.02899
G1 X84.546 Y111.306 E.01995
G1 X83.968 Y111.024 E.02446
G1 X83.417 Y110.689 E.02448
G1 X82.696 Y110.121 E.0349
G1 X82.3 Y109.754 E.02055
G1 X81.879 Y109.278 E.02412
G1 X81.496 Y108.753 E.0247
G1 X81.088 Y108.057 E.03068
G1 X80.851 Y107.535 E.02177
M204 S1000
G1 X81.079 Y107.17 F10800
;WIPE_START
G1 F8640
G1 X80.547 Y106.589 E-.22949
G1 X80.43 Y106.078 E-.1211
G1 X80.349 Y105.423 E-.15238
G1 X80.328 Y104.807 E-.14231
G1 X80.365 Y104.311 E-.11471
;WIPE_END
G1 E-.04 F2100
G1 Z.6 F720
G1 X91.277 Y104.037 F10800
G1 Z.2 F720
G1 E.8 F2100
M204 S800
;TYPE:Perimeter
G1 F1200
G1 X91.363 Y104.624 E.02253
G1 X91.353 Y105.342 E.02729
G1 X91.185 Y106.121 E.0303
G1 X90.86 Y106.867 E.03093
G1 X90.393 Y107.534 E.03093
M73 Q4 S9
G1 X89.802 Y108.093 E.03093
G1 X89.117 Y108.521 E.0307
G1 X88.439 Y108.776 E.02752
G1 X88.215 Y108.84 E.00886
G1 X87.545 Y108.933 E.02572
G1 X86.754 Y108.899 E.03009
G1 X86.122 Y108.759 E.0246
M73 P4 R9
G1 X85.386 Y108.447 E.0304
G1 X84.751 Y108.014 E.02919
G1 X84.148 Y107.406 E.03255
G1 X83.708 Y106.719 E.03101
G1 X83.439 Y106.027 E.02823
G1 X83.282 Y105.185 E.03254
G1 X83.299 Y104.473 E.02708
G1 X83.355 Y104.096 E.01447
G1 X83.494 Y103.553 E.02132
G1 X83.759 Y102.976 E.02412
G1 X83.91 Y102.698 E.01202
G1 X84.321 Y102.16 E.02572
G1 X84.751 Y101.768 E.02211
G1 X85.038 Y101.536 E.01404
G1 X85.627 Y101.203 E.02572
G1 X86.111 Y101.031 E.0195
G1 X86.53 Y100.909 E.01659
G1 X87.181 Y100.834 E.02494
G1 X87.828 Y100.861 E.0246
G1 X88.596 Y101.037 E.02992
G1 X89.35 Y101.374 E.0314
G1 X90.01 Y101.849 E.03093
G1 X90.513 Y102.391 E.0281
G1 X90.92 Y103.033 E.02887
G1 X91.062 Y103.33 E.01255
G1 X91.269 Y103.978 E.02582
M204 S1000
G1 X90.836 Y104.105 F10800
M204 S800
;TYPE:External perimeter
G1 F1200
G1 X90.921 Y104.771 E.0255
G1 X90.897 Y105.319 E.02085
G1 X90.739 Y106.018 E.02725
G1 X90.444 Y106.678 E.02746
G1 X90.023 Y107.265 E.02746
G1 X89.494 Y107.756 E.02745
G1 X88.882 Y108.129 E.02722
G1 X88.287 Y108.345 E.02404
G1 X87.534 Y108.473 E.02905
G1 X86.782 Y108.443 E.02861
G1 X86.229 Y108.314 E.02158
G1 X85.57 Y108.028 E.02729
G1 X85.015 Y107.641 E.02572
G1 X84.481 Y107.093 E.02908
G1 X84.097 Y106.479 E.02754
G1 X83.868 Y105.869 E.02476
G1 X83.734 Y105.116 E.02906
G1 X83.755 Y104.495 E.0236
G1 X83.916 Y103.749 E.02903
G1 X84.273 Y102.976 E.03237
G1 X84.684 Y102.438 E.02572
G1 X85.226 Y101.96 E.02746
G1 X85.852 Y101.6 E.02746
G1 X86.538 Y101.373 E.02746
G1 X87.234 Y101.288 E.02665
G1 X87.801 Y101.318 E.02158
G1 X88.487 Y101.481 E.02681
G1 X89.155 Y101.787 E.02792
G1 X89.737 Y102.215 E.02746
G1 X90.172 Y102.696 E.02463
G1 X90.525 Y103.263 E.02539
G1 X90.819 Y104.048 E.03186
M204 S1000
G1 X91.219 Y104.221 F10800
;WIPE_START
G1 F8640
G1 X90.921 Y104.771 E-.16859
G1 X90.897 Y105.319 E-.12668
G1 X90.739 Y106.018 E-.16557
G1 X90.444 Y106.678 E-.16681
G1 X90.11 Y107.144 E-.13235
;WIPE_END
G1 E-.04 F2100
G1 Z.6 F720
G1 X90.568 Y99.366 F10800
G1 Z.2 F720
G1 E.8 F2100
M204 S800
;TYPE:Solid infill
;WIDTH:0.501977
G1 F1200
G1 X91.778 Y100.576 E.0653
G1 X92.147 Y100.993 E.02126
G1 X92.483 Y101.451 E.02169
G1 X92.799 Y101.982 E.02358
G1 X93.028 Y102.474 E.02073
G1 X89.729 Y99.176 E.17804
G1 X89.159 Y98.965 E.0232
G1 X88.769 Y98.865 E.01539
G1 X93.342 Y103.439 E.24689
G1 X93.412 Y103.725 E.01123
G1 X93.479 Y104.225 E.01927
G1 X87.977 Y98.723 E.29701
G1 X87.299 Y98.694 E.02592
G1 X93.52 Y104.915 E.33583
G1 X93.487 Y105.531 E.02356
G1 X91.488 Y103.532 E.10792
G1 X91.61 Y103.888 E.01437
G1 X91.671 Y104.364 E.0183
G1 X93.397 Y106.089 E.09316
G1 X93.373 Y106.235 E.00565
G1 X93.271 Y106.613 E.01492
G1 X91.707 Y105.049 E.08441
G1 X91.684 Y105.47 E.01611
G1 X91.645 Y105.636 E.00651
G1 X93.107 Y107.098 E.07891
G1 X93.028 Y107.309 E.0086
G1 X92.909 Y107.549 E.01024
G1 X91.52 Y106.161 E.07495
G1 X91.482 Y106.324 E.00638
G1 X91.342 Y106.631 E.01291
G1 X92.692 Y107.981 E.07288
G1 X92.44 Y108.379 E.01796
G1 X91.138 Y107.077 E.07028
G1 X90.866 Y107.454 E.01775
G1 X92.162 Y108.75 E.06996
G1 X91.861 Y109.098 E.01757
G1 X90.593 Y107.83 E.06845
G1 X90.252 Y108.139 E.01754
G1 X91.535 Y109.422 E.06924
G1 X91.189 Y109.725 E.01756
M73 Q5 S9
G1 X89.907 Y108.443 E.06919
G1 X89.5 Y108.685 E.01808
G1 X90.815 Y110 E.07096
M73 P5 R9
G1 X90.416 Y110.25 E.01798
G1 X89.076 Y108.91 E.0723
G1 X88.596 Y109.08 E.01942
G1 X89.99 Y110.474 E.07526
G1 X89.654 Y110.629 E.01413
G1 X89.537 Y110.67 E.00473
G1 X88.069 Y109.201 E.07927
G1 X87.5 Y109.281 E.02194
G1 X89.053 Y110.835 E.08385
G1 X88.531 Y110.962 E.0205
G1 X86.81 Y109.241 E.09294
G1 X86.626 Y109.23 E.00701
G1 X85.994 Y109.074 E.02485
G1 X88.146 Y111.226 E.11615
M204 S1000
;WIPE_START
G1 F8640
G1 X85.994 Y109.074 E-.70262
G1 X86.235 Y109.134 E-.05738
;WIPE_END
G1 E-.04 F2100
G1 Z.6 F720
G1 X89.036 Y101.08 F10800
G1 Z.2 F720
G1 E.8 F2100
M204 S800
G1 F1200
G1 X86.678 Y98.722 E.12729
G1 X86.115 Y98.808 E.02174
G1 X87.829 Y100.522 E.09252
G1 X87.152 Y100.494 E.02587
G1 X85.597 Y98.939 E.08395
G1 X85.11 Y99.102 E.01959
G1 X86.574 Y100.565 E.07902
G1 X86.36 Y100.592 E.00825
G1 X86.053 Y100.694 E.01232
G1 X84.659 Y99.299 E.07529
G1 X84.23 Y99.52 E.0184
G1 X85.566 Y100.856 E.07215
G1 X85.147 Y101.086 E.01825
G1 X83.829 Y99.768 E.07118
G1 X83.801 Y99.785 E.00127
G1 X83.458 Y100.046 E.01644
G1 X84.739 Y101.327 E.06915
G1 X84.393 Y101.631 E.01756
G1 X83.11 Y100.348 E.06927
G1 X82.928 Y100.515 E.00944
G1 X82.785 Y100.672 E.0081
G1 X84.059 Y101.945 E.06873
G1 X83.778 Y102.314 E.01769
G1 X82.484 Y101.02 E.06986
G1 X82.208 Y101.393 E.01772
G1 X83.516 Y102.701 E.07057
G1 X83.304 Y103.138 E.01856
G1 X81.96 Y101.794 E.07258
G1 X81.735 Y102.218 E.01833
G1 X83.129 Y103.613 E.07527
G1 X82.997 Y104.13 E.02037
G1 X81.539 Y102.672 E.0787
G1 X81.375 Y103.157 E.01954
G1 X82.947 Y104.729 E.08488
G1 X82.928 Y105.102 E.01427
G1 X82.974 Y105.405 E.01168
G1 X81.248 Y103.679 E.09317
G1 X81.163 Y104.243 E.02178
G1 X83.5 Y106.58 E.12616
M204 S1000
;WIPE_START
G1 F8640
G1 X81.172 Y104.253 E-.76
;WIPE_END
G1 E-.04 F2100
G1 Z.6 F720
G1 X80.929 Y104.659 F10800
G1 Z.2 F720
G1 E.8 F2100
M204 S800
G1 F1200
G1 X87.351 Y111.081 E.34667
G1 X86.665 Y111.043 E.02625
G1 X81.163 Y105.542 E.29698
G1 X81.229 Y106.014 E.01819
G1 X81.308 Y106.336 E.01267
G1 X85.881 Y110.908 E.24681
G1 X85.462 Y110.798 E.01651
M73 Q6 S9
G1 X84.922 Y110.599 E.02196
G1 X81.612 Y107.289 E.17868
G1 X81.832 Y107.76 E.01984
M73 P6 R9
G1 X82.206 Y108.382 E.02767
G1 X82.545 Y108.833 E.02154
G1 X82.915 Y109.241 E.02104
G1 X84.064 Y110.39 E.06201
M204 S1000
; stop printing object M6 washer  6x15 x 1.stl id:4 copy 0
; printing object M6 washer  6x15 x 1.stl id:6 copy 0
;WIPE_START
G1 F8640
G1 X82.915 Y109.241 E-.37514
G1 X82.545 Y108.833 E-.12726
G1 X82.206 Y108.382 E-.1303
G1 X81.922 Y107.909 E-.1273
;WIPE_END
G1 E-.04 F2100
G1 Z.6 F720
G1 X82.454 Y89.048 F10800
G1 Z.2 F720
G1 E.8 F2100
M204 S800
;TYPE:Perimeter
;WIDTH:0.499999
G1 F1200
G1 X82.239 Y88.408 E.02567
G1 X82.08 Y87.737 E.02619
G1 X82.003 Y87.124 E.02348
G1 X81.982 Y86.55 E.02183
G1 X82.035 Y85.819 E.02786
G1 X82.136 Y85.195 E.02401
G1 X82.318 Y84.545 E.02567
G1 X82.498 Y84.061 E.01964
G1 X82.849 Y83.363 E.02971
G1 X83.12 Y82.925 E.01954
G1 X83.612 Y82.293 E.03045
G1 X83.955 Y81.928 E.01906
G1 X84.556 Y81.413 E.03007
