; generated by PrusaSlicer 2.5.0+win64 on 2023-02-02 at 08:13:18 UTC


;
;
; 

; external perimeters extrusion width = 0.50mm
; perimeters extrusion width = 0.50mm
; infill extrusion width = 0.50mm
; solid infill extrusion width = 0.50mm
; top infill extrusion width = 0.50mm
; support material extrusion width = 0.35mm
; first layer extrusion width = 0.50mm

; external perimeters extrusion width = 0.50mm
; perimeters extrusion width = 0.50mm
; infill extrusion width = 0.50mm
; solid infill extrusion width = 0.50mm
; top infill extrusion width = 0.50mm
; support material extrusion width = 0.35mm
; first layer extrusion width = 0.50mm

; external perimeters extrusion width = 0.50mm
; perimeters extrusion width = 0.50mm
; infill extrusion width = 0.50mm
; solid infill extrusion width = 0.50mm
; top infill extrusion width = 0.50mm
; support material extrusion width = 0.35mm
; first layer extrusion width = 0.50mm

M73 P0 R62
M73 Q0 S63
M201 X1000 Y1000 Z200 E5000 ; sets maximum accelerations, mm/sec^2
M203 X200 Y200 Z12 E120 ; sets maximum feedrates, mm / sec
M204 P1250 R1250 T1250 ; sets acceleration (P, T) and retract acceleration (R), mm/sec^2
M205 X8.00 Y8.00 Z0.40 E4.50 ; sets the jerk limits, mm/sec
M205 S0 T0 ; sets the minimum extruding and travel feed rate, mm/sec
M107
;TYPE:Custom
M862.3 P "MK3S" ; printer model check
M862.1 P0.4 ; nozzle diameter check
M115 U3.11.0 ; tell printer latest fw version
G90 ; use absolute coordinates
M83 ; extruder relative mode
M104 S215 ; set extruder temp
M140 S60 ; set bed temp
M190 S60 ; wait for bed temp
M109 S215 ; wait for extruder temp
G28 W ; home all without mesh bed level
G80 ; mesh bed leveling

G1 Z0.2 F720
G1 Y-3 F1000 ; go outside print area
G92 E0
G1 X60 E9 F1000 ; intro line
G1 X100 E12.5 F1000 ; intro line

G92 E0
M221 S95

; Don't change E values below. Excessive value can damage the printer.
M907 E430 ; set extruder motor current
G21 ; set units to millimeters
G90 ; use absolute coordinates
M83 ; use relative distances for extrusion
M900 K0.05 ; Filament gcode LA 1.5
M900 K30 ; Filament gcode LA 1.0
M107
;LAYER_CHANGE
;Z:0.2
;HEIGHT:0.2
;BEFORE_LAYER_CHANGE
G92 E0.0
;0.2


G1 E-.8 F2100
G1 Z.4 F720
;AFTER_LAYER_CHANGE
;0.2
G1 X59.391 Y91.285 F10800
G1 Z.2 F720
G1 E.8 F2100
M204 S800
;TYPE:Skirt/Brim
;WIDTH:0.5
G1 F1200
G1 X61.109 Y90.184 E.07758
G1 X107.907 Y83.515 E1.7966
G1 X141.746 Y83.49 E1.28608
G1 X143.077 Y83.882 E.05274
G1 X144.077 Y85.17 E.06198
G1 X146.384 Y92.091 E.27728
G1 X146.51 Y92.868 E.02992
G1 X146.51 Y124.053 E1.18522
G1 X146.333 Y150.088 E.98954
G1 X145.932 Y151.417 E.05274
G1 X144.875 Y152.316 E.05274
G1 X143.876 Y152.529 E.03883
G1 X110.384 Y152.529 E1.2729
G1 X109.182 Y152.215 E.04723
G1 X60.253 Y124.759 E2.13234
G1 X59.284 Y123.766 E.05274
G1 X58.999 Y122.617 E.04502
G1 X58.999 Y92.617 E1.14019
G1 X59.374 Y91.343 E.05046
M204 S1000
; printing object 2 Floor Drag Chain Holder.stl id:0 copy 0
;WIPE_START
G1 F8640
G1 X61.109 Y90.184 E-.48186
G1 X62.302 Y90.014 E-.27814
;WIPE_END
G1 E-.04 F2100
G1 Z.6 F720
G1 X72.392 Y121.252 F10800
G1 Z.2 F720
G1 E.8 F2100
M204 S800
;TYPE:Perimeter
;WIDTH:0.499999
G1 F1200
G1 X62.82 Y121.252 E.36378
G1 X62.82 Y93.981 E1.0365
G1 X72.392 Y93.981 E.36378
G1 X72.392 Y121.192 E1.03421
M204 S1000
G1 X72.849 Y121.709 F10800
M204 S800
G1 F1200
G1 X62.363 Y121.709 E.39853
G1 X62.363 Y93.524 E1.07124
G1 X72.849 Y93.524 E.39853
G1 X72.849 Y121.649 E1.06896
M204 S1000
G1 X73.306 Y122.167 F10800
M204 S800
;TYPE:External perimeter
G1 F1200
G1 X61.906 Y122.167 E.43327
G1 X61.906 Y93.067 E1.10598
G1 X73.306 Y93.067 E.43327
G1 X73.306 Y122.107 E1.1037
M204 S1000
G1 X72.937 Y122.011 F10800
;WIPE_START
G1 F8640
G1 X70.014 Y122.124 E-.76
;WIPE_END
G1 E-.04 F2100
G1 Z.6 F720
G1 X64.362 Y101.839 F10800
G1 Z.2 F720
G1 E.8 F2100
M204 S800
;TYPE:Perimeter
G1 F1200
G1 X64.274 Y101.731 E.00528
G1 X63.99 Y101.173 E.0238
G1 X63.843 Y100.666 E.02009
G1 X63.792 Y100.118 E.02089
G1 X63.856 Y99.521 E.02285
G1 X64.042 Y98.932 E.02345
G1 X64.352 Y98.389 E.02378
G1 X64.74 Y97.946 E.02238
G1 X65.106 Y97.658 E.01769
G1 X65.65 Y97.37 E.0234
G1 X66.175 Y97.21 E.02087
G1 X66.75 Y97.152 E.02194
G1 X67.448 Y97.236 E.02671
G1 X67.901 Y97.386 E.01814
G1 X68.441 Y97.682 E.02342
G1 X68.915 Y98.091 E.02377
G1 X69.275 Y98.558 E.02241
G1 X69.486 Y98.972 E.01769
G1 X69.664 Y99.562 E.02341
G1 X69.72 Y100.084 E.01996
G1 X69.669 Y100.665 E.02217
G1 X69.521 Y101.173 E.02008
G1 X69.321 Y101.598 E.01788
G1 X68.984 Y102.066 E.02189
G1 X68.499 Y102.509 E.025
G1 X67.958 Y102.822 E.02376
G1 X67.362 Y103.014 E.02379
G1 X66.739 Y103.077 E.02381
G1 X66.119 Y103.008 E.02369
G1 X65.534 Y102.813 E.02343
G1 X65.015 Y102.513 E.0228
G1 X64.662 Y102.21 E.01768
G1 X64.4 Y101.886 E.01585
M204 S1000
G1 X64.718 Y101.562 F10800
M204 S800
G1 F1200
G1 X64.673 Y101.507 E.00268
G1 X64.427 Y101.038 E.02014
G1 X64.286 Y100.535 E.01987
G1 X64.251 Y100.063 E.01799
G1 X64.297 Y99.641 E.01613
G1 X64.449 Y99.142 E.01981
G1 X64.705 Y98.679 E.02012
G1 X65.036 Y98.294 E.01927
G1 X65.336 Y98.053 E.01466
G1 X65.793 Y97.804 E.01976
G1 X66.3 Y97.654 E.02008
G1 X66.82 Y97.613 E.01983
G1 X67.32 Y97.675 E.01918
G1 X67.697 Y97.796 E.01504
G1 X68.157 Y98.041 E.01979
G1 X68.562 Y98.381 E.02011
G1 X68.876 Y98.78 E.01929
G1 X69.054 Y99.122 E.01466
G1 X69.21 Y99.618 E.01977
G1 X69.26 Y100.145 E.0201
G1 X69.219 Y100.586 E.01686
G1 X69.038 Y101.151 E.02254
G1 X68.851 Y101.488 E.01465
G1 X68.541 Y101.876 E.01886
G1 X68.254 Y102.123 E.01439
G1 X67.8 Y102.393 E.0201
G1 X67.298 Y102.562 E.02013
G1 X66.771 Y102.621 E.02015
G1 X66.246 Y102.569 E.02006
G1 X65.75 Y102.41 E.01979
G1 X65.3 Y102.156 E.01964
G1 X65.005 Y101.907 E.01466
G1 X64.756 Y101.608 E.0148
M204 S1000
G1 X65.039 Y101.225 F10800
M204 S800
;TYPE:External perimeter
G1 F1200
G1 X64.864 Y100.903 E.01393
G1 X64.741 Y100.49 E.01637
G1 X64.706 Y100.1 E.0149
G1 X64.738 Y99.761 E.01294
G1 X64.855 Y99.352 E.01617
G1 X65.058 Y98.969 E.01646
G1 X65.331 Y98.643 E.01616
G1 X65.567 Y98.448 E.01163
G1 X65.936 Y98.239 E.01613
G1 X66.348 Y98.108 E.01645
G1 X66.773 Y98.068 E.01622
G1 X67.193 Y98.114 E.01607
G1 X67.494 Y98.205 E.01196
G1 X67.873 Y98.399 E.01615
G1 X68.209 Y98.672 E.01645
G1 X68.476 Y99.003 E.01618
G1 X68.622 Y99.272 E.01163
G1 X68.757 Y99.675 E.01614
G1 X68.805 Y100.105 E.01644
G1 X68.768 Y100.508 E.01538
G1 X68.633 Y100.941 E.01725
G1 X68.488 Y101.21 E.01162
G1 X68.232 Y101.538 E.01583
G1 X68.01 Y101.737 E.01133
G1 X67.642 Y101.964 E.01644
G1 X67.234 Y102.109 E.01646
G1 X66.803 Y102.165 E.01649
G1 X66.373 Y102.13 E.01642
G1 X65.966 Y102.007 E.01615
G1 X65.585 Y101.799 E.01648
G1 X65.348 Y101.605 E.01163
G1 X65.068 Y101.277 E.01639
M204 S1000
G1 X64.674 Y101.248 F10800
;WIPE_START
G1 F8640
G1 X64.864 Y100.903 E-.09846
G1 X64.741 Y100.49 E-.09944
G1 X64.706 Y100.1 E-.09052
G1 X64.738 Y99.761 E-.07859
G1 X64.855 Y99.352 E-.09823
G1 X65.058 Y98.969 E-.10002
G1 X65.331 Y98.643 E-.0982
G1 X65.567 Y98.448 E-.07066
G1 X65.664 Y98.393 E-.02589
;WIPE_END
G1 E-.04 F2100
G1 Z.6 F720
G1 X65.342 Y112.529 F10800
G1 Z.2 F720
G1 E.8 F2100
M204 S800
;TYPE:Perimeter
G1 F1200
G1 X65.46 Y112.455 E.00531
G1 X66.047 Y112.242 E.02371
G1 X66.627 Y112.157 E.02228
G1 X67.086 Y112.175 E.01745
G1 X67.697 Y112.309 E.02378
G1 X68.265 Y112.57 E.02376
G1 X68.741 Y112.917 E.02239
G1 X69.058 Y113.256 E.01764
G1 X69.394 Y113.774 E.02347
G1 X69.618 Y114.359 E.02381
G1 X69.713 Y114.956 E.02296
G1 X69.689 Y115.538 E.02216
G1 X69.579 Y116.008 E.01833
G1 X69.329 Y116.581 E.02379
G1 X68.964 Y117.089 E.02377
G1 X68.499 Y117.509 E.0238
G1 X67.996 Y117.807 E.02224
G1 X67.565 Y117.964 E.01743
G1 X66.949 Y118.071 E.02376
G1 X66.564 Y118.071 E.01463
G1 X66.098 Y118.005 E.0179
G1 X65.552 Y117.821 E.02188
G1 X65.012 Y117.509 E.02371
M73 P1 R62
G1 X64.547 Y117.088 E.02385
G1 X64.188 Y116.59 E.02333
M73 Q1 S63
G1 X63.923 Y115.976 E.02541
G1 X63.805 Y115.361 E.02379
G1 X63.82 Y114.736 E.02377
G1 X63.966 Y114.127 E.02379
G1 X64.213 Y113.596 E.02228
G1 X64.481 Y113.222 E.01746
G1 X64.929 Y112.787 E.02376
G1 X65.291 Y112.56 E.01622
M204 S1000
G1 X65.574 Y112.916 F10800
M204 S800
G1 F1200
G1 X65.633 Y112.878 E.00269
G1 X66.127 Y112.692 E.02006
G1 X66.627 Y112.614 E.01922
G1 X67.005 Y112.624 E.01439
G1 X67.523 Y112.733 E.02011
G1 X68.007 Y112.947 E.0201
G1 X68.419 Y113.242 E.01928
G1 X68.685 Y113.52 E.01461
G1 X68.974 Y113.954 E.01982
G1 X69.169 Y114.447 E.02016
G1 X69.256 Y114.956 E.0196
G1 X69.239 Y115.459 E.01915
G1 X69.153 Y115.842 E.01491
G1 X68.947 Y116.33 E.02012
G1 X68.643 Y116.763 E.02011
G1 X68.255 Y117.123 E.02014
G1 X67.823 Y117.384 E.01918
G1 X67.469 Y117.517 E.01438
G1 X66.949 Y117.614 E.02009
G1 X66.564 Y117.614 E.01463
G1 X66.064 Y117.523 E.01931
G1 X65.582 Y117.329 E.01976
G1 X65.143 Y117.033 E.02013
G1 X64.776 Y116.651 E.02012
G1 X64.512 Y116.233 E.01879
G1 X64.368 Y115.872 E.01476
G1 X64.262 Y115.353 E.02012
G1 X64.268 Y114.824 E.0201
G1 X64.386 Y114.308 E.02013
G1 X64.595 Y113.847 E.01921
G1 X64.812 Y113.537 E.0144
G1 X65.187 Y113.164 E.02009
G1 X65.523 Y112.948 E.01518
M204 S1000
G1 X65.936 Y113.25 F10800
M204 S800
;TYPE:External perimeter
G1 F1200
G1 X66.208 Y113.142 E.01111
G1 X66.627 Y113.071 E.01617
G1 X66.925 Y113.074 E.01133
G1 X67.35 Y113.156 E.01646
G1 X67.749 Y113.324 E.01645
G1 X68.098 Y113.568 E.01618
G1 X68.312 Y113.784 E.01158
G1 X68.554 Y114.134 E.01618
G1 X68.721 Y114.535 E.01651
G1 X68.799 Y114.96 E.0164
G1 X68.788 Y115.385 E.01616
G1 X68.727 Y115.676 E.01132
G1 X68.565 Y116.078 E.01647
G1 X68.323 Y116.437 E.01645
G1 X68.01 Y116.737 E.01648
G1 X67.65 Y116.961 E.01613
G1 X67.373 Y117.071 E.01132
G1 X66.949 Y117.157 E.01644
G1 X66.564 Y117.157 E.01463
G1 X66.223 Y117.095 E.01318
G1 X65.826 Y116.943 E.01613
G1 X65.463 Y116.707 E.01646
G1 X65.158 Y116.399 E.01649
G1 X64.932 Y116.051 E.01577
G1 X64.813 Y115.768 E.01165
G1 X64.719 Y115.345 E.01646
G1 X64.717 Y114.912 E.01645
G1 X64.806 Y114.488 E.01647
G1 X64.977 Y114.099 E.01615
G1 X65.144 Y113.852 E.01135
G1 X65.445 Y113.542 E.01643
G1 X65.806 Y113.301 E.0165
G1 X65.88 Y113.272 E.00301
M204 S1000
G1 X65.963 Y112.959 F10800
;WIPE_START
G1 F8640
G1 X66.208 Y113.142 E-.08136
G1 X66.627 Y113.071 E-.09821
G1 X66.925 Y113.074 E-.06883
G1 X67.35 Y113.156 E-.09998
G1 X67.749 Y113.324 E-.09993
G1 X68.098 Y113.568 E-.09827
G1 X68.312 Y113.784 E-.07034
G1 X68.554 Y114.134 E-.09827
G1 X68.629 Y114.314 E-.04481
;WIPE_END
G1 E-.04 F2100
G1 Z.6 F720
G1 X72.255 Y95.047 F10800
G1 Z.2 F720
G1 E.8 F2100
M204 S800
;TYPE:Solid infill
;WIDTH:0.502366
G1 F1200
G1 X71.531 Y94.323 E.03908
G1 X70.882 Y94.323 E.02482
G1 X72.049 Y95.491 E.06307
G1 X72.049 Y96.141 E.02482
G1 X70.232 Y94.323 E.09817
G1 X69.582 Y94.323 E.02482
G1 X72.049 Y96.79 E.13328
G1 X72.049 Y97.44 E.02482
G1 X68.932 Y94.323 E.16838
G1 X68.283 Y94.323 E.02482
M73 Q1 S62
G1 X72.049 Y98.09 E.20349
G1 X72.049 Y98.74 E.02482
G1 X67.633 Y94.323 E.23859
G1 X66.983 Y94.323 E.02482
G1 X72.049 Y99.389 E.2737
G1 X72.049 Y100.039 E.02482
G1 X66.333 Y94.323 E.3088
G1 X65.683 Y94.323 E.02482
G1 X72.049 Y100.689 E.34391
G1 X72.049 Y101.339 E.02482
G1 X69.937 Y99.226 E.11413
G1 X69.808 Y98.855 E.01499
G1 X69.705 Y98.625 E.00964
G1 X69.429 Y98.176 E.02014
G1 X69.176 Y97.869 E.01522
G1 X68.976 Y97.67 E.01077
G1 X68.649 Y97.41 E.01594
G1 X68.396 Y97.25 E.01146
G1 X68.048 Y97.077 E.01484
G1 X67.809 Y96.984 E.00982
G1 X67.657 Y96.947 E.00597
G1 X65.034 Y94.323 E.14173
G1 X64.384 Y94.323 E.02482
G1 X66.877 Y96.817 E.1347
G1 X66.597 Y96.817 E.01071
G1 X66.266 Y96.855 E.01273
G1 X63.734 Y94.323 E.13678
G1 X63.163 Y94.323 E.02183
G1 X63.163 Y94.402 E.00299
G1 X65.745 Y96.984 E.13949
G1 X65.54 Y97.045 E.00816
G1 X65.276 Y97.165 E.01108
G1 X63.163 Y95.052 E.11416
G1 X63.163 Y95.701 E.02482
G1 X64.869 Y97.407 E.09217
G1 X64.723 Y97.51 E.00681
G1 X64.515 Y97.703 E.01085
G1 X63.163 Y96.351 E.07304
G1 X63.163 Y97.001 E.02482
G1 X64.198 Y98.036 E.05593
G1 X63.926 Y98.414 E.01779
G1 X63.163 Y97.651 E.04125
G1 X63.163 Y98.3 E.02482
G1 X63.709 Y98.847 E.02952
G1 X63.626 Y99.06 E.00875
G1 X63.551 Y99.338 E.01099
G1 X63.163 Y98.95 E.02095
G1 X63.163 Y99.6 E.02482
G1 X63.469 Y99.906 E.01656
G1 X63.455 Y100.255 E.01334
G1 X63.489 Y100.576 E.01232
G1 X62.957 Y100.044 E.02874
M204 S1000
;WIPE_START
G1 F8640
G1 X63.489 Y100.576 E-.17373
G1 X63.455 Y100.255 E-.07448
G1 X63.469 Y99.906 E-.08061
G1 X63.163 Y99.6 E-.1001
G1 X63.163 Y98.95 E-.15003
G1 X63.551 Y99.338 E-.12661
G1 X63.613 Y99.11 E-.05444
;WIPE_END
G1 E-.04 F2100
G1 Z.6 F720
G1 X72.255 Y102.194 F10800
G1 Z.2 F720
G1 E.8 F2100
M204 S800
G1 F1200
G1 X70.054 Y99.993 E.1189
G1 X70.063 Y100.083 E.00346
G1 X70.017 Y100.607 E.02006
G1 X72.049 Y102.638 E.10976
G1 X72.049 Y103.288 E.02482
G1 X69.891 Y101.13 E.11661
G1 X69.848 Y101.278 E.0059
G1 X69.706 Y101.594 E.01325
G1 X72.049 Y103.938 E.12661
G1 X72.049 Y104.587 E.02482
G1 X69.464 Y102.003 E.13963
G1 X69.175 Y102.363 E.01766
G1 X72.049 Y105.237 E.15526
G1 X72.049 Y105.887 E.02482
G1 X68.835 Y102.673 E.17366
G1 X68.689 Y102.795 E.00726
G1 X68.455 Y102.943 E.01057
G1 X72.049 Y106.537 E.19416
G1 X72.049 Y107.186 E.02482
G1 X68.025 Y103.163 E.2174
G1 X67.535 Y103.323 E.01968
G1 X72.049 Y107.836 E.24385
G1 X72.049 Y108.486 E.02482
G1 X66.977 Y103.414 E.27403
G1 X66.3 Y103.387 E.02588
G1 X72.049 Y109.136 E.31059
G1 X72.049 Y109.785 E.02482
G1 X65.384 Y103.12 E.3601
G1 X65.02 Y102.926 E.01575
G1 X64.591 Y102.614 E.02028
G1 X64.408 Y102.44 E.00963
G1 X64.152 Y102.149 E.01481
G1 X63.979 Y101.904 E.01146
G1 X63.756 Y101.492 E.01789
G1 X63.163 Y100.899 E.03204
G1 X63.163 Y101.549 E.02482
G1 X72.049 Y110.435 E.48009
G1 X72.049 Y111.085 E.02482
G1 X63.163 Y102.199 E.48009
G1 X63.163 Y102.849 E.02482
G1 X72.049 Y111.735 E.48009
G1 X72.049 Y112.384 E.02482
G1 X63.163 Y103.498 E.48009
G1 X63.163 Y104.148 E.02482
G1 X72.049 Y113.034 E.48009
G1 X72.049 Y113.684 E.02482
G1 X63.163 Y104.798 E.48009
G1 X63.163 Y105.448 E.02482
G1 X72.049 Y114.334 E.48009
G1 X72.049 Y114.984 E.02482
G1 X63.163 Y106.097 E.48009
G1 X63.163 Y106.747 E.02482
G1 X72.049 Y115.633 E.48009
G1 X72.049 Y116.283 E.02482
M73 P1 R61
G1 X69.908 Y114.142 E.11565
G1 X69.707 Y113.633 E.02092
G1 X69.56 Y113.371 E.0115
G1 X69.335 Y113.053 E.01485
G1 X69.172 Y112.861 E.00963
G1 X68.783 Y112.508 E.02007
G1 X68.454 Y112.283 E.01523
G1 X68.188 Y112.14 E.01153
G1 X67.729 Y111.963 E.01879
G1 X63.163 Y107.397 E.24671
G1 X63.163 Y108.047 E.02482
G1 X66.934 Y111.818 E.20376
G1 X66.623 Y111.814 E.0119
G1 X66.313 Y111.847 E.01191
G1 X63.163 Y108.696 E.17019
G1 X63.163 Y109.346 E.02482
G1 X65.781 Y111.964 E.14143
G1 X65.313 Y112.146 E.01917
G1 X63.163 Y109.996 E.11616
G1 X63.163 Y110.646 E.02482
G1 X64.905 Y112.388 E.09413
G1 X64.538 Y112.671 E.0177
G1 X63.163 Y111.295 E.07432
G1 X63.163 Y111.945 E.02482
G1 X64.219 Y113.002 E.05708
G1 X64.071 Y113.189 E.00914
G1 X63.953 Y113.385 E.00873
G1 X63.163 Y112.595 E.04269
G1 X63.163 Y113.245 E.02482
G1 X63.729 Y113.81 E.03057
G1 X63.648 Y113.997 E.00777
G1 X63.558 Y114.29 E.01169
G1 X63.163 Y113.894 E.02136
G1 X63.163 Y114.544 E.02482
G1 X63.466 Y114.847 E.01637
G1 X63.455 Y114.953 E.00407
G1 X63.48 Y115.511 E.02133
G1 X62.957 Y114.988 E.02825
M204 S1000
;WIPE_START
G1 F8640
G1 X63.48 Y115.511 E-.17077
G1 X63.455 Y114.953 E-.12895
G1 X63.466 Y114.847 E-.02463
G1 X63.163 Y114.544 E-.09893
G1 X63.163 Y113.894 E-.15003
G1 X63.558 Y114.29 E-.12913
G1 X63.632 Y114.052 E-.05757
;WIPE_END
G1 E-.04 F2100
G1 Z.6 F720
G1 X69.826 Y114.71 F10800
G1 Z.2 F720
G1 E.8 F2100
M204 S800
G1 F1200
G1 X72.049 Y116.933 E.1201
G1 X72.049 Y117.583 E.02482
G1 X70.021 Y115.555 E.10955
G1 X69.971 Y115.883 E.01267
G1 X69.91 Y116.094 E.00838
G1 X72.049 Y118.232 E.11555
G1 X72.049 Y118.882 E.02482
G1 X69.725 Y116.558 E.12556
G1 X69.618 Y116.765 E.00889
G1 X69.485 Y116.968 E.00928
G1 X72.049 Y119.532 E.13854
G1 X72.049 Y120.182 E.02482
G1 X69.202 Y117.335 E.15379
G1 X68.872 Y117.654 E.01755
G1 X72.049 Y120.831 E.17164
G1 X72.049 Y120.91 E.00299
G1 X71.477 Y120.91 E.02183
G1 X68.489 Y117.921 E.16144
G1 X68.352 Y118.009 E.00622
G1 X68.061 Y118.142 E.01224
G1 X70.828 Y120.91 E.1495
G1 X70.178 Y120.91 E.02482
G1 X67.58 Y118.312 E.14036
