; generated by PrusaSlicer 2.5.0+win64 on 2023-02-02 at 09:42:26 UTC


;
;
; 

; external perimeters extrusion width = 0.50mm
; perimeters extrusion width = 0.50mm
; infill extrusion width = 0.50mm
; solid infill extrusion width = 0.50mm
; top infill extrusion width = 0.50mm
; support material extrusion width = 0.35mm
; first layer extrusion width = 0.50mm

M73 P0 R33
M73 Q0 S33
M201 X1000 Y1000 Z200 E5000 ; sets maximum accelerations, mm/sec^2
M203 X200 Y200 Z12 E120 ; sets maximum feedrates, mm / sec
M204 P1250 R1250 T1250 ; sets acceleration (P, T) and retract acceleration (R), mm/sec^2
M205 X8.00 Y8.00 Z0.40 E4.50 ; sets the jerk limits, mm/sec
M205 S0 T0 ; sets the minimum extruding and travel feed rate, mm/sec
M107
;TYPE:Custom
M862.3 P "MK3S" ; printer model check
M862.1 P0.4 ; nozzle diameter check
M115 U3.11.0 ; tell printer latest fw version
G90 ; use absolute coordinates
M83 ; extruder relative mode
M104 S215 ; set extruder temp
M140 S60 ; set bed temp
M190 S60 ; wait for bed temp
M109 S215 ; wait for extruder temp
G28 W ; home all without mesh bed level
G80 ; mesh bed leveling

G1 Z0.2 F720
G1 Y-3 F1000 ; go outside print area
G92 E0
G1 X60 E9 F1000 ; intro line
G1 X100 E12.5 F1000 ; intro line

G92 E0
M221 S95

; Don't change E values below. Excessive value can damage the printer.
M907 E430 ; set extruder motor current
G21 ; set units to millimeters
G90 ; use absolute coordinates
M83 ; use relative distances for extrusion
M900 K0.05 ; Filament gcode LA 1.5
M900 K30 ; Filament gcode LA 1.0
M107
;LAYER_CHANGE
;Z:0.2
;HEIGHT:0.2
;BEFORE_LAYER_CHANGE
G92 E0.0
;0.2


G1 E-.8 F2100
G1 Z.4 F720
;AFTER_LAYER_CHANGE
;0.2
G1 X115.479 Y88.538 F10800
G1 Z.2 F720
G1 E.8 F2100
M204 S800
;TYPE:Skirt/Brim
;WIDTH:0.5
G1 F1200
G1 X116.552 Y87.471 E.05753
G1 X118 Y87.086 E.05693
G1 X132 Y87.086 E.53209
G1 X133.462 Y87.479 E.05753
G1 X134.529 Y88.552 E.05753
G1 X134.914 Y90 E.05693
G1 X134.914 Y120 E1.14019
G1 X134.521 Y121.462 E.05753
G1 X133.448 Y122.529 E.05753
G1 X132 Y122.914 E.05693
G1 X118 Y122.914 E.53209
G1 X116.538 Y122.521 E.05753
G1 X115.471 Y121.448 E.05753
G1 X115.086 Y120 E.05693
G1 X115.086 Y90 E1.14019
G1 X115.463 Y88.596 E.05525
M204 S1000
G1 X115.917 Y88.73 F10800
M204 S800
G1 F1200
G1 X115.935 Y88.669 E.00241
G1 X116.985 Y87.762 E.05274
G1 X118 Y87.543 E.03945
G1 X132 Y87.543 E.53209
G1 X133.331 Y87.935 E.05274
G1 X134.238 Y88.985 E.05274
G1 X134.457 Y90 E.03945
G1 X134.457 Y120 E1.14019
G1 X134.065 Y121.331 E.05274
G1 X133.015 Y122.238 E.05274
G1 X132 Y122.457 E.03945
G1 X118 Y122.457 E.53209
G1 X116.669 Y122.065 E.05274
G1 X115.762 Y121.015 E.05274
G1 X115.543 Y120 E.03945
G1 X115.543 Y90 E1.14019
G1 X115.9 Y88.787 E.04805
M204 S1000
; printing object 2 Floor Drag Chain Holder.stl id:0 copy 0
;WIPE_START
G1 F8640
G1 X115.935 Y88.669 E-.0285
G1 X116.985 Y87.762 E-.32042
G1 X118 Y87.543 E-.23969
G1 X118.742 Y87.543 E-.17139
;WIPE_END
G1 E-.04 F2100
G1 Z.6 F720
G1 X130.636 Y118.636 F10800
G1 Z.2 F720
G1 E.8 F2100
M204 S800
;TYPE:Perimeter
;WIDTH:0.499999
G1 F1200
G1 X119.364 Y118.636 E.42839
G1 X119.364 Y91.364 E1.0365
G1 X130.636 Y91.364 E.42839
M73 P1 R33
M73 Q1 S33
G1 X130.636 Y118.576 E1.03421
M204 S1000
G1 X131.093 Y119.093 F10800
M204 S800
G1 F1200
G1 X118.907 Y119.093 E.46314
G1 X118.907 Y90.907 E1.07124
G1 X131.093 Y90.907 E.46314
G1 X131.093 Y119.033 E1.06896
M204 S1000
G1 X131.55 Y119.55 F10800
M204 S800
;TYPE:External perimeter
G1 F1200
G1 X118.45 Y119.55 E.49788
G1 X118.45 Y90.45 E1.10598
G1 X131.55 Y90.45 E.49788
G1 X131.55 Y119.49 E1.1037
M204 S1000
G1 X131.179 Y119.401 F10800
;WIPE_START
G1 F8640
G1 X128.259 Y119.505 E-.76
;WIPE_END
G1 E-.04 F2100
G1 Z.6 F720
G1 X122.089 Y99.611 F10800
G1 Z.2 F720
G1 E.8 F2100
M204 S800
;TYPE:Perimeter
G1 F1200
G1 X121.807 Y99.31 E.01565
G1 X121.48 Y98.779 E.02374
G1 X121.271 Y98.189 E.02377
G1 X121.191 Y97.613 E.02211
G1 X121.214 Y97.112 E.01907
G1 X121.349 Y96.54 E.02234
G1 X121.613 Y95.974 E.02373
G1 X121.99 Y95.475 E.02375
G1 X122.459 Y95.067 E.02363
G1 X123.044 Y94.754 E.02523
G1 X123.57 Y94.593 E.02087
G1 X124.144 Y94.536 E.02194
G1 X124.842 Y94.62 E.02671
G1 X125.295 Y94.77 E.01814
G1 X125.835 Y95.066 E.02342
G1 X126.291 Y95.453 E.02274
G1 X126.669 Y95.941 E.02344
G1 X126.88 Y96.356 E.01769
G1 X127.058 Y96.946 E.02341
G1 X127.114 Y97.468 E.01996
G1 X127.063 Y98.049 E.02217
G1 X126.916 Y98.556 E.02008
G1 X126.715 Y98.982 E.01787
G1 X126.378 Y99.449 E.0219
G1 X125.92 Y99.873 E.02374
G1 X125.382 Y100.192 E.02377
G1 X124.789 Y100.391 E.02376
G1 X124.28 Y100.461 E.01951
G1 X123.749 Y100.433 E.02021
G1 X123.151 Y100.287 E.02342
G1 X122.583 Y100.011 E.024
G1 X122.201 Y99.731 E.01801
G1 X122.13 Y99.655 E.00395
M204 S1000
G1 X122.445 Y99.329 F10800
M204 S800
G1 F1200
G1 X122.067 Y98.891 E.02198
G1 X121.821 Y98.422 E.02014
G1 X121.68 Y97.918 E.01987
G1 X121.645 Y97.446 E.01799
G1 X121.691 Y97.024 E.01613
G1 X121.843 Y96.526 E.01981
G1 X122.099 Y96.062 E.02012
G1 X122.43 Y95.678 E.01927
G1 X122.731 Y95.437 E.01466
G1 X123.187 Y95.188 E.01976
G1 X123.694 Y95.037 E.02008
G1 X124.214 Y94.996 E.01983
G1 X124.715 Y95.059 E.01918
G1 X125.092 Y95.179 E.01504
G1 X125.551 Y95.424 E.01979
G1 X125.945 Y95.752 E.01949
G1 X126.27 Y96.164 E.01992
G1 X126.448 Y96.506 E.01466
G1 X126.605 Y97.002 E.01977
G1 X126.654 Y97.528 E.0201
G1 X126.592 Y98.054 E.02012
G1 X126.432 Y98.535 E.01927
G1 X126.245 Y98.872 E.01465
G1 X125.916 Y99.276 E.01978
G1 X125.504 Y99.607 E.02013
G1 X125.031 Y99.845 E.02011
G1 X124.543 Y99.975 E.01921
G1 X124.165 Y100.004 E.0144
G1 X123.64 Y99.952 E.02004
G1 X123.144 Y99.793 E.01979
G1 X122.694 Y99.54 E.01964
G1 X122.49 Y99.368 E.01012
M204 S1000
G1 X122.701 Y98.941 F10800
M204 S800
;TYPE:External perimeter
G1 F1200
G1 X122.466 Y98.667 E.01375
G1 X122.258 Y98.287 E.01648
G1 X122.135 Y97.874 E.01637
G1 X122.101 Y97.483 E.0149
G1 X122.132 Y97.144 E.01294
G1 X122.249 Y96.735 E.01617
G1 X122.452 Y96.353 E.01646
G1 X122.725 Y96.027 E.01616
G1 X122.961 Y95.832 E.01163
G1 X123.33 Y95.622 E.01613
G1 X123.743 Y95.492 E.01645
G1 X124.167 Y95.451 E.01622
G1 X124.587 Y95.498 E.01607
G1 X124.889 Y95.589 E.01196
G1 X125.267 Y95.782 E.01615
G1 X125.603 Y96.055 E.01645
G1 X125.871 Y96.386 E.01618
G1 X126.017 Y96.655 E.01163
G1 X126.151 Y97.058 E.01614
G1 X126.199 Y97.488 E.01644
G1 X126.156 Y97.919 E.01646
G1 X126.027 Y98.324 E.01616
G1 X125.883 Y98.594 E.01162
G1 X125.62 Y98.928 E.01615
G1 X125.287 Y99.205 E.01647
G1 X124.903 Y99.406 E.01645
G1 X124.494 Y99.521 E.01615
G1 X124.197 Y99.549 E.01135
G1 X123.767 Y99.513 E.01641
G1 X123.36 Y99.39 E.01615
G1 X122.979 Y99.182 E.01648
G1 X122.741 Y98.987 E.01173
M204 S1000
G1 X122.353 Y99.039 F10800
;WIPE_START
G1 F8640
G1 X122.466 Y98.667 E-.09737
G1 X122.258 Y98.287 E-.10011
G1 X122.135 Y97.874 E-.09944
G1 X122.101 Y97.483 E-.09052
G1 X122.132 Y97.144 E-.07859
G1 X122.249 Y96.735 E-.09823
G1 X122.452 Y96.353 E-.10002
G1 X122.718 Y96.035 E-.09573
;WIPE_END
G1 E-.04 F2100
G1 Z.6 F720
G1 X122.736 Y109.912 F10800
G1 Z.2 F720
G1 E.8 F2100
M204 S800
;TYPE:Perimeter
G1 F1200
G1 X122.854 Y109.838 E.0053
G1 X123.441 Y109.626 E.02371
G1 X123.998 Y109.54 E.02142
G1 X124.48 Y109.558 E.01832
G1 X125.091 Y109.693 E.02378
G1 X125.659 Y109.953 E.02376
G1 X126.135 Y110.301 E.02238
G1 X126.452 Y110.639 E.01763
G1 X126.788 Y111.157 E.02348
G1 X127.012 Y111.743 E.02381
G1 X127.107 Y112.339 E.02296
G1 X127.083 Y112.922 E.02215
G1 X126.973 Y113.391 E.01833
G1 X126.723 Y113.965 E.02379
G1 X126.381 Y114.449 E.02254
G1 X125.893 Y114.893 E.02504
G1 X125.39 Y115.191 E.02224
G1 X124.959 Y115.348 E.01743
G1 X124.343 Y115.454 E.02376
G1 X123.754 Y115.436 E.02241
G1 X123.299 Y115.336 E.01769
G1 X122.731 Y115.098 E.02339
G1 X122.217 Y114.742 E.0238
G1 X121.789 Y114.286 E.02375
G1 X121.487 Y113.798 E.0218
G1 X121.317 Y113.359 E.01789
G1 X121.2 Y112.745 E.02379
G1 X121.214 Y112.12 E.02377
G1 X121.36 Y111.511 E.02379
G1 X121.607 Y110.979 E.02228
G1 X121.875 Y110.606 E.01746
G1 X122.323 Y110.17 E.02376
G1 X122.685 Y109.944 E.01623
M204 S1000
G1 X122.968 Y110.299 F10800
M204 S800
G1 F1200
G1 X123.027 Y110.261 E.00269
G1 X123.521 Y110.076 E.02006
G1 X124.021 Y109.997 E.01922
G1 X124.4 Y110.008 E.01439
G1 X124.918 Y110.116 E.02011
G1 X125.401 Y110.33 E.0201
G1 X125.814 Y110.626 E.01928
G1 X126.079 Y110.903 E.0146
G1 X126.368 Y111.338 E.01983
G1 X126.563 Y111.831 E.02016
G1 X126.65 Y112.339 E.0196
G1 X126.633 Y112.843 E.01915
G1 X126.547 Y113.225 E.01492
G1 X126.341 Y113.713 E.02012
G1 X126.051 Y114.132 E.01937
G1 X125.649 Y114.507 E.02088
G1 X125.217 Y114.768 E.01918
G1 X124.863 Y114.901 E.01438
G1 X124.343 Y114.997 E.02009
G1 X123.835 Y114.986 E.01929
G1 X123.458 Y114.907 E.01466
G1 X122.976 Y114.712 E.01976
G1 X122.537 Y114.416 E.02013
G1 X122.17 Y114.034 E.02012
G1 X121.907 Y113.616 E.01878
G1 X121.762 Y113.255 E.01477
G1 X121.657 Y112.737 E.02012
G1 X121.663 Y112.208 E.0201
G1 X121.78 Y111.691 E.02013
G1 X121.989 Y111.231 E.01921
G1 X122.206 Y110.92 E.0144
G1 X122.581 Y110.548 E.02009
G1 X122.917 Y110.332 E.01518
M204 S1000
G1 X123.328 Y110.634 F10800
M204 S800
;TYPE:External perimeter
G1 F1200
G1 X123.602 Y110.526 E.01119
G1 X124.213 Y110.454 E.02337
G1 X124.745 Y110.539 E.02047
G1 X125.143 Y110.708 E.01645
G1 X125.492 Y110.951 E.01617
G1 X125.706 Y111.167 E.01157
G1 X125.948 Y111.518 E.01618
G1 X126.115 Y111.919 E.01651
G1 X126.193 Y112.339 E.01625
G1 X126.182 Y112.768 E.01631
G1 X126.121 Y113.06 E.01132
G1 X125.959 Y113.462 E.01647
G1 X125.717 Y113.82 E.01645
G1 X125.404 Y114.12 E.01648
G1 X125.044 Y114.345 E.01613
G1 X124.767 Y114.454 E.01132
G1 X124.343 Y114.54 E.01644
G1 X123.917 Y114.536 E.01618
G1 X123.617 Y114.478 E.01163
G1 X123.221 Y114.326 E.01612
G1 X122.858 Y114.09 E.01646
G1 X122.552 Y113.782 E.01649
G1 X122.326 Y113.434 E.01576
G1 X122.207 Y113.151 E.01166
G1 X122.114 Y112.728 E.01646
G1 X122.111 Y112.296 E.01645
G1 X122.2 Y111.872 E.01647
G1 X122.371 Y111.482 E.01615
G1 X122.538 Y111.235 E.01135
G1 X122.839 Y110.925 E.01643
G1 X123.2 Y110.684 E.0165
G1 X123.272 Y110.656 E.00293
M204 S1000
G1 X123.356 Y110.341 F10800
;WIPE_START
G1 F8640
G1 X123.602 Y110.526 E-.08183
G1 X124.213 Y110.454 E-.14199
G1 X124.745 Y110.539 E-.12437
G1 X125.143 Y110.708 E-.09993
G1 X125.492 Y110.951 E-.09827
G1 X125.706 Y111.167 E-.07029
G1 X125.948 Y111.518 E-.09832
G1 X126.023 Y111.698 E-.045
;WIPE_END
G1 E-.04 F2100
G1 Z.6 F720
G1 X129.559 Y91.501 F10800
G1 Z.2 F720
G1 E.8 F2100
M204 S800
;TYPE:Solid infill
;WIDTH:0.507249
G1 F1200
G1 X130.293 Y92.235 E.04006
G1 X130.293 Y92.892 E.02535
G1 X129.108 Y91.707 E.06468
G1 X128.452 Y91.707 E.02535
G1 X130.293 Y93.548 E.10054
G1 X130.293 Y94.205 E.02535
G1 X127.795 Y91.707 E.13639
G1 X127.138 Y91.707 E.02535
G1 X130.293 Y94.862 E.17225
G1 X130.293 Y95.518 E.02535
G1 X126.482 Y91.707 E.2081
G1 X125.825 Y91.707 E.02535
G1 X130.293 Y96.175 E.24396
G1 X130.293 Y96.832 E.02535
G1 X125.168 Y91.707 E.27981
G1 X124.512 Y91.707 E.02535
G1 X130.293 Y97.488 E.31567
G1 X130.293 Y98.145 E.02535
G1 X123.855 Y91.707 E.35152
G1 X123.198 Y91.707 E.02535
M73 P1 R32
G1 X130.293 Y98.802 E.38738
G1 X130.293 Y99.458 E.02535
M73 P2 R32
M73 Q2 S33
G1 X127.271 Y96.436 E.16501
G1 X127.1 Y96.009 E.01778
G1 X126.823 Y95.56 E.02036
G1 X126.548 Y95.226 E.01669
G1 X126.354 Y95.04 E.0104
G1 X126.044 Y94.794 E.01529
G1 X125.79 Y94.633 E.01158
G1 X125.442 Y94.46 E.01499
G1 X125.202 Y94.367 E.00996
G1 X122.542 Y91.707 E.14524
G1 X121.885 Y91.707 E.02535
G1 X124.388 Y94.21 E.13668
G1 X123.991 Y94.201 E.01535
G1 X123.75 Y94.228 E.00937
G1 X121.228 Y91.707 E.13767
G1 X120.572 Y91.707 E.02535
G1 X123.205 Y94.34 E.14377
G1 X122.932 Y94.43 E.01111
G1 X122.729 Y94.521 E.00857
G1 X119.915 Y91.707 E.15365
G1 X119.707 Y91.707 E.00804
G1 X119.707 Y92.155 E.01731
G1 X122.309 Y94.758 E.14209
G1 X122.117 Y94.895 E.00912
G1 X121.947 Y95.052 E.00894
G1 X119.707 Y92.812 E.12229
G1 X119.707 Y93.469 E.02535
G1 X121.622 Y95.384 E.10455
G1 X121.344 Y95.762 E.01814
G1 X119.707 Y94.125 E.08937
G1 X119.707 Y94.782 E.02535
G1 X121.118 Y96.193 E.07704
G1 X121.02 Y96.444 E.01038
G1 X120.954 Y96.686 E.0097
G1 X119.707 Y95.439 E.06811
G1 X119.707 Y96.095 E.02535
G1 X120.86 Y97.249 E.06298
G1 X120.843 Y97.503 E.00984
G1 X120.882 Y97.927 E.01644
G1 X119.501 Y96.546 E.0754
M204 S1000
;WIPE_START
G1 F8640
G1 X120.882 Y97.927 E-.45091
G1 X120.843 Y97.503 E-.09835
G1 X120.86 Y97.249 E-.05885
G1 X120.395 Y96.784 E-.15188
;WIPE_END
G1 E-.04 F2100
G1 Z.6 F720
G1 X127.204 Y97.026 F10800
G1 Z.2 F720
G1 E.8 F2100
M204 S800
G1 F1200
G1 X130.293 Y100.115 E.16864
G1 X130.293 Y100.772 E.02535
G1 X127.42 Y97.898 E.1569
G1 X127.401 Y98.109 E.00819
G1 X127.306 Y98.441 E.01331
G1 X130.293 Y101.428 E.16312
G1 X130.293 Y102.085 E.02535
G1 X127.124 Y98.916 E.17304
G1 X127.018 Y99.142 E.00965
G1 X126.892 Y99.34 E.00907
G1 X130.293 Y102.742 E.1857
G1 X130.293 Y103.398 E.02535
G1 X126.603 Y99.708 E.20147
G1 X126.266 Y100.028 E.01793
G1 X130.293 Y104.055 E.21986
G1 X130.293 Y104.711 E.02535
G1 X125.889 Y100.308 E.24045
G1 X125.456 Y100.531 E.01883
G1 X130.293 Y105.368 E.26413
G1 X130.293 Y106.025 E.02535
G1 X124.964 Y100.696 E.29096
G1 X124.826 Y100.736 E.00556
G1 X124.402 Y100.791 E.0165
G1 X130.293 Y106.681 E.32165
G1 X130.293 Y107.338 E.02535
G1 X123.478 Y100.523 E.37211
M204 S1000
;WIPE_START
G1 F8640
G1 X125.805 Y102.85 E-.76
;WIPE_END
G1 E-.04 F2100
G1 Z.6 F720
G1 X119.501 Y97.203 F10800
G1 Z.2 F720
G1 E.8 F2100
M204 S800
G1 F1200
G1 X121.132 Y98.833 E.08903
G1 X121.373 Y99.288 E.01985
G1 X121.546 Y99.533 E.01158
G1 X121.804 Y99.825 E.01507
G1 X122.197 Y100.167 E.02009
G1 X122.416 Y100.311 E.01014
G1 X122.819 Y100.52 E.01751
G1 X130.293 Y107.995 E.40812
G1 X130.293 Y108.651 E.02535
G1 X119.707 Y98.065 E.57802
G1 X119.707 Y98.722 E.02535
M73 Q2 S32
G1 X130.293 Y109.308 E.57802
G1 X130.293 Y109.965 E.02535
G1 X119.707 Y99.379 E.57802
G1 X119.707 Y100.035 E.02535
G1 X130.293 Y110.621 E.57802
G1 X130.293 Y111.278 E.02535
G1 X119.707 Y100.692 E.57802
G1 X119.707 Y101.349 E.02535
G1 X130.293 Y111.935 E.57802
G1 X130.293 Y112.591 E.02535
G1 X119.707 Y102.005 E.57802
G1 X119.707 Y102.662 E.02535
G1 X130.293 Y113.248 E.57802
G1 X130.293 Y113.905 E.02535
G1 X119.707 Y103.319 E.57802
G1 X119.707 Y103.975 E.02535
G1 X125.056 Y109.324 E.29206
G1 X125.582 Y109.524 E.02173
G1 X125.848 Y109.667 E.01165
G1 X126.175 Y109.89 E.01529
G1 X126.374 Y110.055 E.00997
G1 X126.728 Y110.435 E.02004
G1 X126.954 Y110.754 E.01512
G1 X127.101 Y111.017 E.01162
G1 X127.258 Y111.383 E.01538
G1 X127.323 Y111.591 E.00841
G1 X130.293 Y114.561 E.1622
G1 X130.293 Y115.218 E.02535
G1 X127.449 Y112.374 E.15531
G1 X127.417 Y112.999 E.02416
G1 X130.293 Y115.875 E.15704
G1 X130.293 Y116.531 E.02535
G1 X127.288 Y113.527 E.16406
G1 X127.094 Y113.989 E.01937
G1 X130.293 Y117.188 E.17465
G1 X130.293 Y117.845 E.02535
G1 X126.847 Y114.399 E.18815
G1 X126.553 Y114.761 E.01802
G1 X130.085 Y118.293 E.19286
G1 X129.428 Y118.293 E.02535
G1 X126.211 Y115.076 E.17563
G1 X125.822 Y115.344 E.01823
G1 X128.771 Y118.293 E.16104
G1 X128.115 Y118.293 E.02535
G1 X125.38 Y115.558 E.14932
G1 X125.038 Y115.681 E.01402
G1 X124.88 Y115.715 E.00625
G1 X127.458 Y118.293 E.14076
G1 X126.801 Y118.293 E.02535
G1 X124.305 Y115.797 E.13629
G1 X123.953 Y115.797 E.01361
G1 X123.605 Y115.754 E.01352
G1 X126.35 Y118.499 E.14989
M204 S1000
;WIPE_START
G1 F8640
G1 X124.023 Y116.171 E-.76
;WIPE_END
G1 E-.04 F2100
G1 Z.6 F720
G1 X124.498 Y109.423 F10800
G1 Z.2 F720
M73 Q3 S32
G1 E.8 F2100
M204 S800
M73 P3 R32
G1 F1200
G1 X119.707 Y104.632 E.26159
G1 X119.707 Y105.289 E.02535
G1 X123.664 Y109.246 E.21606
G1 X123.376 Y109.289 E.01123
G1 X123.124 Y109.362 E.01016
G1 X119.707 Y105.945 E.18657
G1 X119.707 Y106.602 E.02535
G1 X122.66 Y109.555 E.16124
G1 X122.454 Y109.666 E.00904
G1 X122.252 Y109.804 E.00943
G1 X119.707 Y107.259 E.13897
G1 X119.707 Y107.915 E.02535
G1 X121.887 Y110.095 E.11902
G1 X121.575 Y110.44 E.01795
G1 X119.707 Y108.572 E.10197
G1 X119.707 Y109.229 E.02535
G1 X121.303 Y110.824 E.08713
G1 X121.091 Y111.269 E.01902
G1 X119.707 Y109.885 E.07555
G1 X119.707 Y110.542 E.02535
G1 X120.934 Y111.769 E.06698
G1 X120.877 Y112.059 E.01142
