; generated by PrusaSlicer 2.5.0+win64 on 2023-02-02 at 09:46:49 UTC


;
;
; 

; external perimeters extrusion width = 0.50mm
; perimeters extrusion width = 0.50mm
; infill extrusion width = 0.50mm
; solid infill extrusion width = 0.50mm
; top infill extrusion width = 0.50mm
; support material extrusion width = 0.35mm
; first layer extrusion width = 0.50mm

M73 P0 R96
M73 Q0 S96
M201 X1000 Y1000 Z200 E5000 ; sets maximum accelerations, mm/sec^2
M203 X200 Y200 Z12 E120 ; sets maximum feedrates, mm / sec
M204 P1250 R1250 T1250 ; sets acceleration (P, T) and retract acceleration (R), mm/sec^2
M205 X8.00 Y8.00 Z0.40 E4.50 ; sets the jerk limits, mm/sec
M205 S0 T0 ; sets the minimum extruding and travel feed rate, mm/sec
M107
;TYPE:Custom
M862.3 P "MK3S" ; printer model check
M862.1 P0.4 ; nozzle diameter check
M115 U3.11.0 ; tell printer latest fw version
G90 ; use absolute coordinates
M83 ; extruder relative mode
M104 S215 ; set extruder temp
M140 S60 ; set bed temp
M190 S60 ; wait for bed temp
M109 S215 ; wait for extruder temp
G28 W ; home all without mesh bed level
G80 ; mesh bed leveling

G1 Z0.2 F720
G1 Y-3 F1000 ; go outside print area
G92 E0
G1 X60 E9 F1000 ; intro line
G1 X100 E12.5 F1000 ; intro line

G92 E0
M221 S95

; Don't change E values below. Excessive value can damage the printer.
M907 E430 ; set extruder motor current
G21 ; set units to millimeters
G90 ; use absolute coordinates
M83 ; use relative distances for extrusion
M900 K0.05 ; Filament gcode LA 1.5
M900 K30 ; Filament gcode LA 1.0
M107
;LAYER_CHANGE
;Z:0.2
;HEIGHT:0.2
;BEFORE_LAYER_CHANGE
G92 E0.0
;0.2


G1 E-.8 F2100
G1 Z.4 F720
;AFTER_LAYER_CHANGE
;0.2
G1 X94.432 Y64.283 F10800
G1 Z.2 F720
G1 E.8 F2100
M204 S800
;TYPE:Skirt/Brim
;WIDTH:0.5
G1 F1200
G1 X95.285 Y63.188 E.05274
G1 X96.719 Y62.726 E.05727
G1 X109.904 Y62.769 E.50113
G1 X132.957 Y67.136 E.89175
G1 X133.808 Y67.47 E.03472
G1 X156.308 Y81.612 E1.01003
G1 X157.226 Y82.652 E.05274
G1 X157.457 Y83.692 E.04049
G1 X157.457 Y140.45 E2.15716
G1 X157.065 Y141.781 E.05274
G1 X156.015 Y142.688 E.05274
G1 X155 Y142.907 E.03945
G1 X132.5 Y142.907 E.85514
G1 X131.169 Y142.515 E.05274
G1 X130.634 Y142.048 E.02698
G1 X94.853 Y100.274 E2.0905
G1 X94.55 Y99.831 E.02038
G1 X92.832 Y96.606 E.13889
G1 X92.543 Y95.45 E.04527
G1 X92.543 Y69.55 E.98436
G1 X92.714 Y68.65 E.03481
M73 P0 R95
G1 X94.41 Y64.339 E.17607
M204 S1000
; printing object 3 floor drag chain holder.stl id:0 copy 0
;WIPE_START
G1 F8640
G1 X95.285 Y63.188 E-.33373
G1 X96.719 Y62.726 E-.34791
G1 X97.058 Y62.727 E-.07835
;WIPE_END
G1 E-.04 F2100
G1 Z.6 F720
G1 X109.447 Y69 F10800
G1 Z.2 F720
G1 E.8 F2100
M204 S800
;TYPE:Support material
G1 F1200
G1 X96.719 Y69 E.48375
G1 X96.719 Y65.183 E.14506
G1 X109.447 Y65.183 E.48375
G1 X109.447 Y68.931 E.14245
M204 S1000
G1 X108.748 Y68.794 F10800
M204 S800
G1 F1200
G1 X108.748 Y65.595 E.12161
G1 X108.24 Y65.595 E.0193
G1 X108.24 Y68.589 E.11379
G1 X107.733 Y68.589 E.0193
G1 X107.733 Y65.595 E.11379
G1 X107.225 Y65.595 E.0193
G1 X107.225 Y68.589 E.11379
G1 X106.717 Y68.589 E.0193
G1 X106.717 Y65.595 E.11379
G1 X106.209 Y65.595 E.0193
G1 X106.209 Y68.589 E.11379
G1 X105.701 Y68.589 E.0193
G1 X105.701 Y65.595 E.11379
G1 X105.193 Y65.595 E.0193
G1 X105.193 Y68.589 E.11379
G1 X104.685 Y68.589 E.0193
G1 X104.685 Y65.595 E.11379
G1 X104.177 Y65.595 E.0193
G1 X104.177 Y68.589 E.11379
G1 X103.67 Y68.589 E.0193
G1 X103.67 Y65.595 E.11379
G1 X103.162 Y65.595 E.0193
G1 X103.162 Y68.589 E.11379
G1 X102.654 Y68.589 E.0193
G1 X102.654 Y65.595 E.11379
G1 X102.146 Y65.595 E.0193
G1 X102.146 Y68.589 E.11379
G1 X101.638 Y68.589 E.0193
G1 X101.638 Y65.595 E.11379
G1 X101.13 Y65.595 E.0193
G1 X101.13 Y68.589 E.11379
G1 X100.622 Y68.589 E.0193
G1 X100.622 Y65.595 E.11379
G1 X100.115 Y65.595 E.0193
G1 X100.115 Y68.589 E.11379
G1 X99.607 Y68.589 E.0193
G1 X99.607 Y65.595 E.11379
G1 X99.099 Y65.595 E.0193
G1 X99.099 Y68.589 E.11379
G1 X98.591 Y68.589 E.0193
G1 X98.591 Y65.595 E.11379
G1 X98.083 Y65.595 E.0193
G1 X98.083 Y68.589 E.11379
G1 X97.575 Y68.589 E.0193
G1 X97.575 Y65.389 E.12161
M204 S1000
;WIPE_START
G1 F8640
G1 X97.575 Y68.589 E-.73881
G1 X97.667 Y68.589 E-.02119
;WIPE_END
G1 E-.04 F2100
G1 Z.6 F720
G1 X109.447 Y98.675 F10800
G1 Z.2 F720
G1 E.8 F2100
M204 S800
G1 F1200
G1 X96.719 Y98.675 E.48375
G1 X96.719 Y96 E.10167
G1 X109.447 Y96 E.48375
G1 X109.447 Y98.607 E.09907
M204 S1000
G1 X108.748 Y98.469 F10800
M204 S800
G1 F1200
G1 X108.748 Y96.411 E.07822
G1 X108.24 Y96.411 E.0193
G1 X108.24 Y98.264 E.0704
G1 X107.733 Y98.264 E.0193
G1 X107.733 Y96.411 E.0704
G1 X107.225 Y96.411 E.0193
G1 X107.225 Y98.264 E.0704
G1 X106.717 Y98.264 E.0193
G1 X106.717 Y96.411 E.0704
G1 X106.209 Y96.411 E.0193
G1 X106.209 Y98.264 E.0704
G1 X105.701 Y98.264 E.0193
G1 X105.701 Y96.411 E.0704
G1 X105.193 Y96.411 E.0193
G1 X105.193 Y98.264 E.0704
G1 X104.685 Y98.264 E.0193
G1 X104.685 Y96.411 E.0704
G1 X104.177 Y96.411 E.0193
G1 X104.177 Y98.264 E.0704
G1 X103.67 Y98.264 E.0193
G1 X103.67 Y96.411 E.0704
G1 X103.162 Y96.411 E.0193
G1 X103.162 Y98.264 E.0704
G1 X102.654 Y98.264 E.0193
G1 X102.654 Y96.411 E.0704
G1 X102.146 Y96.411 E.0193
G1 X102.146 Y98.264 E.0704
G1 X101.638 Y98.264 E.0193
G1 X101.638 Y96.411 E.0704
G1 X101.13 Y96.411 E.0193
G1 X101.13 Y98.264 E.0704
G1 X100.622 Y98.264 E.0193
G1 X100.622 Y96.411 E.0704
G1 X100.115 Y96.411 E.0193
G1 X100.115 Y98.264 E.0704
G1 X99.607 Y98.264 E.0193
G1 X99.607 Y96.411 E.0704
G1 X99.099 Y96.411 E.0193
G1 X99.099 Y98.264 E.0704
G1 X98.591 Y98.264 E.0193
G1 X98.591 Y96.411 E.0704
G1 X98.083 Y96.411 E.0193
G1 X98.083 Y98.264 E.0704
G1 X97.575 Y98.264 E.0193
G1 X97.575 Y96.206 E.07822
M204 S1000
;WIPE_START
G1 F8640
G1 X97.575 Y98.264 E-.47522
G1 X98.083 Y98.264 E-.11727
G1 X98.083 Y97.538 E-.16752
;WIPE_END
G1 E-.04 F2100
G1 Z.6 F720
G1 X133.619 Y98.672 F10800
G1 Z.2 F720
G1 E.8 F2100
M204 S800
;TYPE:Perimeter
;WIDTH:0.499999
G1 F1200
G1 X133.529 Y98.55 E.00573
G1 X129.4 Y94.421 E.22197
G1 X129.288 Y94.322 E.00565
G1 X128.96 Y94.147 E.01412
G1 X128.592 Y94.086 E.01421
G1 X96.364 Y94.086 E1.22485
G1 X96.364 Y70.914 E.88067
G1 X132.107 Y70.914 E1.35845
G1 X153.636 Y84.446 E.96644
M73 Q0 S95
G1 X153.636 Y139.086 E2.07666
G1 X133.864 Y139.086 E.75145
G1 X133.864 Y99.358 E1.5099
G1 X133.853 Y99.198 E.0061
G1 X133.733 Y98.828 E.0148
G1 X133.654 Y98.72 E.00507
M204 S1000
G1 X133.258 Y98.954 F10800
M204 S800
G1 F1200
G1 X133.206 Y98.873 E.00364
G1 X129.077 Y94.744 E.22197
G1 X128.895 Y94.614 E.00848
G1 X128.592 Y94.543 E.01185
G1 X95.907 Y94.543 E1.24222
G1 X95.907 Y70.457 E.91541
G1 X132.239 Y70.457 E1.38083
G1 X154.093 Y84.193 E.98105
G1 X154.093 Y139.543 E2.10363
G1 X133.407 Y139.543 E.78619
G1 X133.407 Y99.358 E1.52727
G1 X133.366 Y99.124 E.00903
G1 X133.29 Y99.005 E.00538
M204 S1000
G1 X132.863 Y99.177 F10800
M204 S800
;TYPE:External perimeter
G1 F1200
G1 X128.753 Y95.067 E.22091
G1 X128.595 Y95 E.00654
G1 X95.45 Y95 E1.25971
G1 X95.45 Y70 E.95016
M73 P1 R95
M73 Q1 S95
G1 X132.37 Y70 E1.4032
G1 X154.55 Y83.941 E.99565
G1 X154.55 Y140 E2.1306
G1 X132.95 Y140 E.82094
G1 X132.95 Y99.358 E1.54464
G1 X132.895 Y99.226 E.00543
M204 S1000
G1 X133.063 Y98.83 F10800
;WIPE_START
G1 F8640
G1 X130.573 Y96.894 E-.76
;WIPE_END
G1 E-.04 F2100
G1 Z.6 F720
G1 X143.072 Y130.961 F10800
G1 Z.2 F720
G1 E.8 F2100
M204 S800
;TYPE:Perimeter
G1 F1200
G1 X142.77 Y130.886 E.01184
G1 X142.228 Y130.632 E.02274
G1 X141.803 Y130.318 E.02009
G1 X141.386 Y129.87 E.02326
G1 X141.079 Y129.374 E.02219
G1 X140.879 Y128.825 E.0222
G1 X140.798 Y128.316 E.0196
G1 X140.815 Y127.7 E.02339
G1 X140.914 Y127.232 E.01819
G1 X141.138 Y126.695 E.02212
G1 X141.486 Y126.181 E.0236
G1 X141.938 Y125.747 E.02379
G1 X142.459 Y125.424 E.02328
G1 X143.056 Y125.211 E.02412
G1 X143.609 Y125.128 E.02123
G1 X144.213 Y125.161 E.02302
G1 X144.708 Y125.287 E.01942
G1 X145.278 Y125.553 E.02391
G1 X145.774 Y125.928 E.02359
G1 X146.178 Y126.394 E.02346
G1 X146.421 Y126.808 E.01823
G1 X146.618 Y127.353 E.02205
G1 X146.707 Y127.95 E.02292
G1 X146.681 Y128.526 E.02193
G1 X146.561 Y129.018 E.01925
G1 X146.312 Y129.573 E.02311
G1 X145.945 Y130.075 E.02366
G1 X145.48 Y130.491 E.02367
G1 X144.909 Y130.814 E.02494
G1 X144.427 Y130.974 E.0193
G1 X143.853 Y131.051 E.02202
G1 X143.297 Y131.016 E.02117
G1 X143.131 Y130.975 E.00651
M204 S1000
G1 X143.176 Y130.512 F10800
M204 S800
G1 F1200
G1 X142.856 Y130.428 E.01258
G1 X142.388 Y130.19 E.01995
G1 X141.976 Y129.856 E.02015
G1 X141.663 Y129.474 E.01878
G1 X141.465 Y129.111 E.01572
G1 X141.305 Y128.631 E.01925
G1 X141.246 Y128.108 E.01999
G1 X141.29 Y127.61 E.01898
G1 X141.398 Y127.228 E.0151
G1 X141.627 Y126.76 E.01979
G1 X141.952 Y126.345 E.02003
G1 X142.358 Y126.007 E.02008
G1 X142.816 Y125.765 E.01968
G1 X143.317 Y125.62 E.01985
G1 X143.708 Y125.584 E.01491
G1 X144.216 Y125.628 E.01936
G1 X144.725 Y125.782 E.02022
G1 X145.069 Y125.959 E.01471
G1 X145.483 Y126.281 E.01994
G1 X145.82 Y126.679 E.01984
G1 X146.066 Y127.137 E.01974
G1 X146.213 Y127.633 E.01967
G1 X146.245 Y128.268 E.02415
G1 X146.144 Y128.802 E.02067
G1 X146.032 Y129.108 E.01238
G1 X145.785 Y129.542 E.01898
G1 X145.434 Y129.937 E.02009
G1 X144.969 Y130.274 E.02183
G1 X144.425 Y130.498 E.02236
G1 X143.908 Y130.586 E.01991
G1 X143.388 Y130.568 E.01977
G1 X143.234 Y130.527 E.00607
M204 S1000
G1 X143.229 Y130.056 F10800
M204 S800
;TYPE:External perimeter
G1 F1200
G1 X142.945 Y129.965 E.01132
G1 X142.571 Y129.755 E.01633
G1 X142.247 Y129.47 E.01637
G1 X141.95 Y129.061 E.01921
G1 X141.763 Y128.592 E.0192
G1 X141.702 Y128.139 E.01738
G1 X141.734 Y127.722 E.01589
G1 X141.814 Y127.417 E.012
G1 X141.995 Y127.031 E.01618
G1 X142.255 Y126.688 E.01638
G1 X142.582 Y126.405 E.01646
G1 X142.952 Y126.201 E.01605
G1 X143.371 Y126.074 E.01663
G1 X143.682 Y126.041 E.0119
G1 X144.096 Y126.069 E.01576
G1 X144.515 Y126.188 E.01654
G1 X144.859 Y126.365 E.01471
G1 X145.226 Y126.668 E.0181
G1 X145.485 Y126.998 E.01597
G1 X145.632 Y127.278 E.012
G1 X145.758 Y127.683 E.0161
G1 X145.789 Y128.235 E.02103
G1 X145.676 Y128.788 E.02143
G1 X145.427 Y129.258 E.02022
G1 X145.143 Y129.584 E.01643
G1 X144.747 Y129.874 E.01868
G1 X144.276 Y130.066 E.01933
G1 X143.781 Y130.138 E.01899
G1 X143.286 Y130.075 E.01898
M204 S1000
G1 X143.029 Y130.277 F10800
;WIPE_START
G1 F8640
G1 X142.945 Y129.965 E-.0826
G1 X142.571 Y129.755 E-.09924
G1 X142.247 Y129.47 E-.09945
G1 X141.95 Y129.061 E-.11672
G1 X141.763 Y128.592 E-.11663
G1 X141.702 Y128.139 E-.10559
G1 X141.734 Y127.722 E-.09653
G1 X141.781 Y127.541 E-.04325
;WIPE_END
G1 E-.04 F2100
G1 Z.6 F720
G1 X148.387 Y137.752 F10800
G1 Z.2 F720
G1 E.8 F2100
M204 S800
;TYPE:Perimeter
G1 F1200
G1 X148.265 Y137.742 E.00468
G1 X147.661 Y137.574 E.02382
G1 X147.11 Y137.286 E.0236
G1 X146.629 Y136.887 E.02378
G1 X146.269 Y136.439 E.02184
G1 X145.992 Y135.882 E.02363
G1 X145.852 Y135.428 E.01806
G1 X145.789 Y134.81 E.02362
G1 X145.847 Y134.232 E.02208
G1 X145.982 Y133.772 E.01821
G1 X146.25 Y133.235 E.02282
G1 X146.601 Y132.78 E.02184
G1 X147.006 Y132.425 E.02048
G1 X147.459 Y132.157 E.01998
G1 X148.056 Y131.944 E.02412
G1 X148.621 Y131.86 E.02171
G1 X149.198 Y131.891 E.02196
G1 X149.708 Y132.02 E.02
G1 X150.278 Y132.286 E.02391
G1 X150.774 Y132.661 E.02359
G1 X151.178 Y133.127 E.02346
G1 X151.421 Y133.541 E.01823
G1 X151.618 Y134.086 E.02205
G1 X151.707 Y134.683 E.02292
G1 X151.676 Y135.292 E.02317
G1 X151.478 Y135.972 E.02693
G1 X151.184 Y136.507 E.0232
G1 X150.776 Y136.98 E.02376
G1 X150.309 Y137.34 E.0224
G1 X149.887 Y137.555 E.01798
G1 X149.363 Y137.72 E.02089
G1 X148.792 Y137.785 E.02184
G1 X148.447 Y137.757 E.01317
M204 S1000
G1 X148.43 Y137.301 F10800
M204 S800
G1 F1200
G1 X147.856 Y137.161 E.02246
G1 X147.388 Y136.923 E.01994
G1 X146.976 Y136.589 E.02015
G1 X146.663 Y136.207 E.01878
G1 X146.421 Y135.725 E.02051
G1 X146.305 Y135.364 E.01442
G1 X146.246 Y134.841 E.01999
G1 X146.29 Y134.343 E.01898
G1 X146.398 Y133.961 E.0151
G1 X146.621 Y133.501 E.01944
G1 X146.952 Y133.078 E.02039
G1 X147.358 Y132.74 E.02008
G1 X147.816 Y132.498 E.01968
G1 X148.317 Y132.353 E.01985
G1 X148.708 Y132.317 E.01491
G1 X149.216 Y132.361 E.01936
G1 X149.725 Y132.514 E.02022
G1 X150.189 Y132.772 E.02017
G1 X150.584 Y133.116 E.0199
G1 X150.888 Y133.515 E.01907
G1 X151.066 Y133.87 E.01509
G1 X151.213 Y134.366 E.01967
G1 X151.255 Y134.855 E.01867
G1 X151.214 Y135.267 E.01572
G1 X151.069 Y135.768 E.01984
G1 X150.826 Y136.223 E.01958
G1 X150.485 Y136.628 E.02011
G1 X150.087 Y136.941 E.01925
G1 X149.738 Y137.123 E.01495
G1 X149.252 Y137.275 E.01935
G1 X148.758 Y137.327 E.01888
G1 X148.489 Y137.306 E.01025
M204 S1000
G1 X148.305 Y136.81 F10800
M204 S800
;TYPE:External perimeter
G1 F1200
G1 X148.051 Y136.748 E.00993
G1 X147.665 Y136.56 E.0163
G1 X147.323 Y136.292 E.01652
G1 X147.057 Y135.976 E.01572
G1 X146.85 Y135.567 E.01739
G1 X146.757 Y135.299 E.01078
G1 X146.702 Y134.872 E.01637
G1 X146.734 Y134.455 E.01589
G1 X146.814 Y134.15 E.012
G1 X146.995 Y133.764 E.01618
G1 X147.356 Y133.331 E.02145
G1 X147.64 Y133.105 E.01381
G1 X148.016 Y132.914 E.01599
G1 X148.452 Y132.798 E.01716
G1 X148.959 Y132.789 E.01928
G1 X149.47 Y132.903 E.01988
G1 X149.899 Y133.125 E.01836
G1 X150.226 Y133.401 E.01628
G1 X150.486 Y133.731 E.01597
G1 X150.632 Y134.011 E.012
G1 X150.759 Y134.416 E.01611
G1 X150.799 Y134.823 E.01556
G1 X150.772 Y135.152 E.01254
G1 X150.659 Y135.565 E.01626
G1 X150.468 Y135.939 E.01597
G1 X150.195 Y136.275 E.01646
G1 X149.865 Y136.541 E.01611
G1 X149.589 Y136.691 E.01193
G1 X149.195 Y136.822 E.01578
G1 X148.781 Y136.871 E.01584
G1 X148.473 Y136.852 E.01173
G1 X148.363 Y136.825 E.00431
M204 S1000
G1 X148.131 Y137.005 F10800
;WIPE_START
G1 F8640
G1 X148.051 Y136.748 E-.07419
G1 X147.665 Y136.56 E-.09901
G1 X147.323 Y136.292 E-.10039
G1 X147.057 Y135.976 E-.0955
G1 X146.85 Y135.567 E-.10564
G1 X146.757 Y135.299 E-.06552
G1 X146.702 Y134.872 E-.09948
G1 X146.734 Y134.455 E-.09653
G1 X146.76 Y134.356 E-.02374
;WIPE_END
G1 E-.04 F2100
G1 Z.6 F720
G1 X135.949 Y133.885 F10800
G1 Z.2 F720
G1 E.8 F2100
M204 S800
;TYPE:Perimeter
G1 F1200
G1 X135.982 Y133.772 E.00448
G1 X136.259 Y133.222 E.02342
G1 X136.649 Y132.736 E.02369
G1 X137.133 Y132.342 E.02371
G1 X137.679 Y132.062 E.02332
G1 X138.198 Y131.909 E.02054
G1 X138.734 Y131.861 E.02045
G1 X139.309 Y131.913 E.02197
G1 X139.828 Y132.06 E.02049
G1 X140.278 Y132.286 E.01916
G1 X140.774 Y132.661 E.02359
G1 X141.178 Y133.127 E.02346
G1 X141.46 Y133.622 E.02165
G1 X141.645 Y134.186 E.02255
G1 X141.707 Y134.683 E.01904
G1 X141.672 Y135.316 E.0241
G1 X141.524 Y135.865 E.0216
G1 X141.184 Y136.507 E.02762
G1 X140.776 Y136.98 E.02376
G1 X140.309 Y137.34 E.0224
G1 X139.887 Y137.555 E.01798
G1 X139.363 Y137.72 E.02089
G1 X138.792 Y137.785 E.02185
G1 X138.265 Y137.742 E.02013
G1 X137.661 Y137.574 E.02382
G1 X137.11 Y137.286 E.0236
G1 X136.629 Y136.887 E.02379
G1 X136.269 Y136.439 E.02184
G1 X136.041 Y136.016 E.01823
G1 X135.858 Y135.464 E.02211
G1 X135.787 Y134.887 E.02209
G1 X135.847 Y134.232 E.02502
G1 X135.932 Y133.943 E.01145
M204 S1000
G1 X136.382 Y134.019 F10800
M204 S800
G1 F1200
G1 X136.627 Y133.493 E.02207
G1 X136.952 Y133.078 E.02003
G1 X137.358 Y132.74 E.02009
G1 X137.816 Y132.498 E.01968
G1 X138.317 Y132.353 E.01985
G1 X138.712 Y132.318 E.01507
G1 X139.216 Y132.361 E.0192
G1 X139.725 Y132.514 E.02022
G1 X140.17 Y132.756 E.01925
G1 X140.584 Y133.116 E.02083
G1 X140.888 Y133.515 E.01907
G1 X141.123 Y134.042 E.02193
G1 X141.213 Y134.366 E.01278
G1 X141.255 Y134.855 E.01867
G1 X141.214 Y135.267 E.01572
G1 X141.069 Y135.768 E.01984
G1 X140.826 Y136.223 E.01958
G1 X140.485 Y136.628 E.02011
G1 X140.087 Y136.941 E.01926
G1 X139.738 Y137.123 E.01495
G1 X139.252 Y137.275 E.01935
G1 X138.758 Y137.327 E.01888
G1 X138.369 Y137.297 E.01486
G1 X137.856 Y137.161 E.02017
G1 X137.388 Y136.923 E.01995
G1 X136.976 Y136.589 E.02015
G1 X136.663 Y136.207 E.01878
G1 X136.471 Y135.859 E.01512
G1 X136.308 Y135.385 E.01902
G1 X136.244 Y134.887 E.01908
G1 X136.29 Y134.343 E.02075
G1 X136.365 Y134.077 E.01051
M204 S1000
G1 X136.87 Y134.03 F10800
M204 S800
;TYPE:External perimeter
G1 F1200
G1 X136.995 Y133.764 E.01115
G1 X137.255 Y133.421 E.01638
