; generated by PrusaSlicer 2.5.0+win64 on 2023-02-02 at 08:11:57 UTC


;
;
; 

; external perimeters extrusion width = 0.50mm
; perimeters extrusion width = 0.50mm
; infill extrusion width = 0.50mm
; solid infill extrusion width = 0.50mm
; top infill extrusion width = 0.50mm
; first layer extrusion width = 0.50mm

M73 P0 R58
M73 Q0 S58
M201 X1000 Y1000 Z200 E5000 ; sets maximum accelerations, mm/sec^2
M203 X200 Y200 Z12 E120 ; sets maximum feedrates, mm / sec
M204 P1250 R1250 T1250 ; sets acceleration (P, T) and retract acceleration (R), mm/sec^2
M205 X8.00 Y8.00 Z0.40 E4.50 ; sets the jerk limits, mm/sec
M205 S0 T0 ; sets the minimum extruding and travel feed rate, mm/sec
M107
;TYPE:Custom
M862.3 P "MK3S" ; printer model check
M862.1 P0.4 ; nozzle diameter check
M115 U3.11.0 ; tell printer latest fw version
G90 ; use absolute coordinates
M83 ; extruder relative mode
M104 S215 ; set extruder temp
M140 S60 ; set bed temp
M190 S60 ; wait for bed temp
M109 S215 ; wait for extruder temp
G28 W ; home all without mesh bed level
G80 ; mesh bed leveling

G1 Z0.2 F720
G1 Y-3 F1000 ; go outside print area
G92 E0
G1 X60 E9 F1000 ; intro line
G1 X100 E12.5 F1000 ; intro line

G92 E0
M221 S95

; Don't change E values below. Excessive value can damage the printer.
M907 E430 ; set extruder motor current
G21 ; set units to millimeters
G90 ; use absolute coordinates
M83 ; use relative distances for extrusion
M900 K0.05 ; Filament gcode LA 1.5
M900 K30 ; Filament gcode LA 1.0
M107
;LAYER_CHANGE
;Z:0.2
;HEIGHT:0.2
;BEFORE_LAYER_CHANGE
G92 E0.0
;0.2


G1 E-.8 F2100
G1 Z.4 F720
;AFTER_LAYER_CHANGE
;0.2
G1 X93.935 Y68.219 F10800
G1 Z.2 F720
G1 E.8 F2100
M204 S800
;TYPE:Skirt/Brim
;WIDTH:0.5
G1 F1200
G1 X94.985 Y67.312 E.05274
G1 X96 Y67.093 E.03945
G1 X131.5 Y67.093 E1.34922
G1 X132.808 Y67.47 E.05172
G1 X155.308 Y81.612 E1.01003
G1 X156.226 Y82.652 E.05274
G1 X156.457 Y83.692 E.04049
G1 X156.457 Y140.45 E2.15716
G1 X156.065 Y141.781 E.05274
G1 X155.015 Y142.688 E.05274
G1 X154 Y142.907 E.03945
G1 X131.5 Y142.907 E.85514
G1 X130.169 Y142.515 E.05274
G1 X129.571 Y141.972 E.03071
G1 X94.071 Y96.972 E2.17841
G1 X93.543 Y95.45 E.06122
G1 X93.543 Y69.55 E.98436
G1 X93.918 Y68.276 E.05046
M204 S1000
; printing object 3 floor drag chain holder.stl id:0 copy 0
;WIPE_START
G1 F8640
G1 X94.985 Y67.312 E-.33215
G1 X96 Y67.093 E-.23969
G1 X96.815 Y67.093 E-.18816
;WIPE_END
G1 E-.04 F2100
G1 Z.6 F720
G1 X128.208 Y94.28 F10800
G1 Z.2 F720
G1 E.8 F2100
M204 S800
;TYPE:Perimeter
;WIDTH:0.499999
G1 F1200
G1 X127.96 Y94.147 E.01067
G1 X127.592 Y94.086 E.01421
G1 X97.364 Y94.086 E1.14884
G1 X97.364 Y70.914 E.88067
G1 X131.107 Y70.914 E1.28244
G1 X152.636 Y84.446 E.96644
G1 X152.636 Y139.086 E2.07666
G1 X132.864 Y139.086 E.75145
M73 P0 R57
G1 X132.853 Y99.198 E1.51598
G1 X132.733 Y98.828 E.0148
G1 X132.529 Y98.55 E.01308
G1 X128.4 Y94.421 E.22197
G1 X128.261 Y94.308 E.00679
M204 S1000
G1 X128.012 Y94.698 F10800
M204 S800
G1 F1200
G1 X127.895 Y94.614 E.00548
G1 X127.592 Y94.543 E.01185
G1 X96.907 Y94.543 E1.16621
G1 X96.907 Y70.457 E.91541
G1 X131.239 Y70.457 E1.30481
G1 X153.093 Y84.193 E.98105
M73 P1 R57
M73 Q1 S58
G1 X153.093 Y139.543 E2.10363
G1 X132.407 Y139.543 E.78619
M73 Q1 S57
G1 X132.407 Y99.358 E1.52727
G1 X132.366 Y99.124 E.00903
G1 X132.206 Y98.873 E.0113
G1 X128.061 Y94.733 E.22268
M204 S1000
G1 X127.773 Y95.087 F10800
M204 S800
;TYPE:External perimeter
G1 F1200
G1 X127.595 Y95 E.00753
G1 X96.45 Y95 E1.1837
G1 X96.45 Y70 E.95016
G1 X131.37 Y70 E1.32719
G1 X153.55 Y83.941 E.99565
G1 X153.55 Y140 E2.1306
G1 X131.95 Y140 E.82094
G1 X131.95 Y99.358 E1.54464
G1 X131.883 Y99.197 E.00665
G1 X127.816 Y95.129 E.21862
M204 S1000
G1 X127.782 Y94.889 F10800
;WIPE_START
G1 F8640
G1 X127.595 Y95 E-.05903
G1 X124.559 Y95 E-.70097
;WIPE_END
G1 E-.04 F2100
G1 Z.6 F720
G1 X145.478 Y126.965 F10800
G1 Z.2 F720
G1 E.8 F2100
M204 S800
;TYPE:Perimeter
G1 F1200
G1 X145.618 Y127.353 E.0157
G1 X145.707 Y127.95 E.02292
G1 X145.681 Y128.526 E.02193
G1 X145.561 Y129.018 E.01925
G1 X145.312 Y129.573 E.02311
G1 X144.945 Y130.075 E.02366
G1 X144.48 Y130.491 E.02367
G1 X143.909 Y130.814 E.02494
G1 X143.427 Y130.974 E.0193
G1 X142.853 Y131.051 E.02202
G1 X142.297 Y131.016 E.02117
G1 X141.77 Y130.886 E.02064
G1 X141.228 Y130.632 E.02274
G1 X140.803 Y130.318 E.02009
G1 X140.386 Y129.87 E.02326
G1 X140.079 Y129.374 E.02219
G1 X139.879 Y128.825 E.0222
G1 X139.798 Y128.316 E.0196
G1 X139.815 Y127.7 E.02339
G1 X139.914 Y127.232 E.01819
G1 X140.137 Y126.697 E.02204
G1 X140.486 Y126.181 E.02367
G1 X141.034 Y125.671 E.02846
G1 X141.57 Y125.369 E.02337
G1 X142.056 Y125.211 E.01943
G1 X142.609 Y125.128 E.02123
G1 X143.213 Y125.161 E.02302
G1 X143.708 Y125.287 E.01942
G1 X144.278 Y125.553 E.02391
G1 X144.774 Y125.928 E.02359
G1 X145.178 Y126.394 E.02346
G1 X145.421 Y126.808 E.01823
G1 X145.457 Y126.908 E.00407
M204 S1000
G1 X145.039 Y127.082 F10800
M204 S800
G1 F1200
G1 X145.213 Y127.633 E.02194
G1 X145.245 Y128.268 E.02415
G1 X145.144 Y128.802 E.02067
G1 X145.032 Y129.108 E.01238
G1 X144.785 Y129.542 E.01898
G1 X144.434 Y129.937 E.02009
G1 X143.969 Y130.274 E.02183
G1 X143.425 Y130.498 E.02236
G1 X142.908 Y130.586 E.01991
G1 X142.388 Y130.568 E.01977
G1 X141.856 Y130.428 E.02093
G1 X141.388 Y130.19 E.01995
G1 X140.976 Y129.856 E.02015
G1 X140.663 Y129.474 E.01878
G1 X140.465 Y129.111 E.01572
G1 X140.305 Y128.631 E.01924
G1 X140.246 Y128.108 E.02
G1 X140.29 Y127.61 E.01898
G1 X140.398 Y127.228 E.01509
G1 X140.626 Y126.762 E.01974
G1 X140.952 Y126.345 E.0201
G1 X141.299 Y126.044 E.01746
G1 X141.75 Y125.789 E.01971
G1 X142.257 Y125.63 E.02018
G1 X142.708 Y125.584 E.01723
G1 X143.216 Y125.628 E.01936
G1 X143.725 Y125.782 E.02022
G1 X144.189 Y126.039 E.02017
G1 X144.584 Y126.383 E.0199
G1 X144.888 Y126.782 E.01907
G1 X145.012 Y127.029 E.01051
M204 S1000
G1 X144.664 Y127.38 F10800
M204 S800
;TYPE:External perimeter
G1 F1200
G1 X144.758 Y127.683 E.01206
G1 X144.789 Y128.235 E.02103
G1 X144.676 Y128.788 E.02143
G1 X144.427 Y129.258 E.02022
G1 X144.143 Y129.584 E.01643
G1 X143.747 Y129.874 E.01868
G1 X143.276 Y130.066 E.01933
G1 X142.781 Y130.138 E.01899
G1 X142.286 Y130.075 E.01895
G1 X141.945 Y129.965 E.01363
G1 X141.571 Y129.755 E.01633
G1 X141.247 Y129.47 E.01637
G1 X140.95 Y129.061 E.01921
G1 X140.763 Y128.592 E.01919
G1 X140.702 Y128.139 E.01738
G1 X140.734 Y127.722 E.01589
G1 X140.814 Y127.417 E.012
G1 X140.994 Y127.033 E.01612
G1 X141.255 Y126.688 E.01644
G1 X141.563 Y126.417 E.01559
G1 X141.952 Y126.201 E.01693
G1 X142.371 Y126.074 E.01663
G1 X142.682 Y126.041 E.0119
G1 X143.096 Y126.069 E.01576
G1 X143.515 Y126.188 E.01654
G1 X143.899 Y126.392 E.01653
G1 X144.226 Y126.668 E.01628
G1 X144.485 Y126.998 E.01597
G1 X144.646 Y127.323 E.01374
M204 S1000
G1 X144.978 Y127.423 F10800
;WIPE_START
G1 F8640
G1 X144.758 Y127.683 E-.08711
G1 X144.789 Y128.235 E-.12776
G1 X144.676 Y128.788 E-.13021
G1 X144.427 Y129.258 E-.12283
G1 X144.143 Y129.584 E-.09982
G1 X143.747 Y129.874 E-.11347
G1 X143.431 Y130.003 E-.0788
;WIPE_END
G1 E-.04 F2100
G1 Z.6 F720
G1 X140.677 Y135.223 F10800
G1 Z.2 F720
G1 E.8 F2100
M204 S800
;TYPE:Perimeter
G1 F1200
G1 X140.672 Y135.316 E.00354
G1 X140.524 Y135.865 E.0216
G1 X140.184 Y136.507 E.02762
G1 X139.776 Y136.98 E.02376
G1 X139.309 Y137.34 E.0224
G1 X138.887 Y137.555 E.01798
G1 X138.363 Y137.72 E.02089
G1 X137.792 Y137.785 E.02185
G1 X137.265 Y137.742 E.02013
G1 X136.661 Y137.574 E.02382
G1 X136.11 Y137.286 E.0236
G1 X135.629 Y136.887 E.02379
G1 X135.269 Y136.439 E.02184
G1 X135.041 Y136.016 E.01823
G1 X134.911 Y135.661 E.0144
G1 X134.798 Y135.049 E.02365
G1 X134.815 Y134.433 E.02339
G1 X134.914 Y133.965 E.01819
G1 X135.138 Y133.428 E.02212
G1 X135.486 Y132.914 E.0236
G1 X135.938 Y132.48 E.02379
G1 X136.459 Y132.157 E.02328
G1 X137.056 Y131.944 E.02412
G1 X137.628 Y131.86 E.02194
G1 X138.204 Y131.892 E.02193
G1 X138.708 Y132.02 E.01979
G1 X139.278 Y132.286 E.02391
G1 X139.774 Y132.661 E.02359
G1 X140.178 Y133.127 E.02346
G1 X140.46 Y133.622 E.02165
G1 X140.645 Y134.186 E.02255
G1 X140.707 Y134.683 E.01904
G1 X140.68 Y135.163 E.01828
M204 S1000
G1 X140.22 Y135.205 F10800
M204 S800
G1 F1200
G1 X140.069 Y135.768 E.02217
G1 X139.826 Y136.223 E.01958
G1 X139.485 Y136.628 E.02011
G1 X139.087 Y136.941 E.01926
G1 X138.738 Y137.123 E.01495
G1 X138.252 Y137.275 E.01935
G1 X137.758 Y137.327 E.01888
G1 X137.369 Y137.297 E.01486
G1 X136.856 Y137.161 E.02017
G1 X136.388 Y136.923 E.01995
G1 X135.976 Y136.589 E.02015
G1 X135.663 Y136.207 E.01878
G1 X135.471 Y135.859 E.01512
G1 X135.34 Y135.503 E.0144
G1 X135.251 Y134.984 E.02001
G1 X135.271 Y134.464 E.01977
G1 X135.398 Y133.961 E.01973
G1 X135.627 Y133.493 E.0198
G1 X135.952 Y133.078 E.02003
G1 X136.358 Y132.74 E.02009
G1 X136.816 Y132.498 E.01968
G1 X137.317 Y132.353 E.01985
G1 X137.712 Y132.318 E.01507
G1 X138.216 Y132.361 E.01919
G1 X138.725 Y132.514 E.02022
G1 X139.17 Y132.756 E.01925
G1 X139.584 Y133.116 E.02083
G1 X139.888 Y133.515 E.01907
G1 X140.123 Y134.042 E.02193
G1 X140.213 Y134.366 E.01278
G1 X140.255 Y134.855 E.01867
G1 X140.226 Y135.145 E.01107
M204 S1000
G1 X139.78 Y135.057 F10800
M204 S800
;TYPE:External perimeter
G1 F1200
G1 X139.772 Y135.152 E.00363
G1 X139.659 Y135.565 E.01626
G1 X139.468 Y135.939 E.01597
G1 X139.195 Y136.275 E.01646
G1 X138.865 Y136.541 E.01611
G1 X138.589 Y136.691 E.01193
G1 X138.195 Y136.822 E.01578
G1 X137.781 Y136.871 E.01584
G1 X137.473 Y136.852 E.01173
G1 X137.051 Y136.748 E.01652
G1 X136.665 Y136.56 E.0163
G1 X136.323 Y136.292 E.01652
G1 X136.057 Y135.976 E.01572
G1 X135.9 Y135.702 E.012
G1 X135.769 Y135.346 E.0144
G1 X135.702 Y134.872 E.01819
G1 X135.734 Y134.455 E.01589
G1 X135.814 Y134.15 E.012
G1 X135.995 Y133.764 E.01618
G1 X136.255 Y133.421 E.01638
G1 X136.582 Y133.137 E.01646
G1 X136.952 Y132.934 E.01604
G1 X137.507 Y132.791 E.02177
G1 X138.049 Y132.794 E.02061
G1 X138.515 Y132.92 E.01833
G1 X138.991 Y133.201 E.02099
G1 X139.299 Y133.492 E.01612
G1 X139.576 Y133.9 E.01875
G1 X139.749 Y134.37 E.01901
G1 X139.799 Y134.823 E.01734
G1 X139.785 Y134.997 E.00664
M204 S1000
G1 X139.86 Y135.108 F10800
;WIPE_START
G1 F8640
G1 X139.772 Y135.152 E-.03588
G1 X139.659 Y135.565 E-.0988
G1 X139.468 Y135.939 E-.09703
G1 X139.195 Y136.275 E-.09998
G1 X138.865 Y136.541 E-.09789
G1 X138.589 Y136.691 E-.07249
G1 X138.195 Y136.822 E-.09588
G1 X137.781 Y136.871 E-.09621
G1 X137.497 Y136.853 E-.06583
;WIPE_END
G1 E-.04 F2100
G1 Z.6 F720
G1 X146.173 Y132.326 F10800
G1 Z.2 F720
G1 E.8 F2100
M204 S800
;TYPE:Perimeter
G1 F1200
G1 X146.459 Y132.157 E.01263
G1 X147.056 Y131.944 E.02412
G1 X147.621 Y131.86 E.02171
G1 X148.198 Y131.891 E.02196
G1 X148.708 Y132.02 E.02
G1 X149.278 Y132.286 E.02391
G1 X149.774 Y132.661 E.02359
G1 X150.178 Y133.127 E.02346
G1 X150.421 Y133.541 E.01823
G1 X150.618 Y134.086 E.02205
G1 X150.714 Y134.807 E.02761
G1 X150.657 Y135.382 E.02198
G1 X150.478 Y135.972 E.02342
G1 X150.184 Y136.507 E.0232
G1 X149.776 Y136.98 E.02376
G1 X149.309 Y137.34 E.0224
G1 X148.887 Y137.555 E.01798
G1 X148.363 Y137.72 E.02089
G1 X147.792 Y137.785 E.02184
G1 X147.265 Y137.742 E.02013
G1 X146.661 Y137.574 E.02382
G1 X146.11 Y137.286 E.0236
G1 X145.629 Y136.887 E.02378
G1 X145.269 Y136.439 E.02184
G1 X144.992 Y135.882 E.02363
G1 X144.852 Y135.428 E.01806
G1 X144.789 Y134.81 E.02362
G1 X144.847 Y134.232 E.02208
G1 X144.982 Y133.772 E.01821
G1 X145.25 Y133.235 E.02282
G1 X145.601 Y132.78 E.02184
G1 X146.006 Y132.425 E.02048
G1 X146.121 Y132.357 E.00507
M204 S1000
G1 X146.419 Y132.707 F10800
M204 S800
G1 F1200
G1 X146.816 Y132.498 E.01705
G1 X147.317 Y132.353 E.01985
G1 X147.708 Y132.317 E.01491
G1 X148.216 Y132.361 E.01936
G1 X148.725 Y132.514 E.02022
G1 X149.189 Y132.772 E.02017
G1 X149.584 Y133.116 E.0199
G1 X149.888 Y133.515 E.01907
G1 X150.066 Y133.87 E.01509
G1 X150.213 Y134.366 E.01967
G1 X150.257 Y134.807 E.01683
G1 X150.214 Y135.267 E.01757
G1 X150.069 Y135.768 E.01984
G1 X149.826 Y136.223 E.01958
G1 X149.485 Y136.628 E.02011
G1 X149.087 Y136.941 E.01925
G1 X148.738 Y137.123 E.01495
G1 X148.252 Y137.275 E.01935
G1 X147.758 Y137.327 E.01888
G1 X147.369 Y137.297 E.01486
G1 X146.856 Y137.161 E.02017
G1 X146.388 Y136.923 E.01994
G1 X145.976 Y136.589 E.02015
G1 X145.663 Y136.207 E.01878
G1 X145.421 Y135.725 E.02051
G1 X145.305 Y135.364 E.01442
G1 X145.246 Y134.841 E.01999
G1 X145.29 Y134.343 E.01898
G1 X145.398 Y133.961 E.0151
G1 X145.621 Y133.501 E.01944
G1 X145.952 Y133.078 E.02039
G1 X146.366 Y132.735 E.02043
M204 S1000
G1 X146.715 Y133.067 F10800
M204 S800
;TYPE:External perimeter
G1 F1200
G1 X147.016 Y132.914 E.0128
G1 X147.452 Y132.798 E.01716
G1 X147.959 Y132.789 E.01928
G1 X148.47 Y132.903 E.01988
G1 X148.899 Y133.125 E.01836
G1 X149.226 Y133.401 E.01628
G1 X149.486 Y133.731 E.01597
G1 X149.632 Y134.011 E.012
G1 X149.759 Y134.416 E.01611
G1 X149.8 Y134.807 E.01495
G1 X149.772 Y135.152 E.01316
G1 X149.659 Y135.565 E.01626
G1 X149.468 Y135.939 E.01597
G1 X149.195 Y136.275 E.01646
G1 X148.865 Y136.541 E.01611
G1 X148.589 Y136.691 E.01193
G1 X148.195 Y136.822 E.01578
G1 X147.781 Y136.871 E.01584
G1 X147.473 Y136.852 E.01173
G1 X147.051 Y136.748 E.01652
G1 X146.665 Y136.56 E.0163
G1 X146.323 Y136.292 E.01652
G1 X146.057 Y135.976 E.01572
G1 X145.85 Y135.567 E.01739
G1 X145.757 Y135.299 E.01078
G1 X145.702 Y134.872 E.01637
G1 X145.734 Y134.455 E.01589
G1 X145.814 Y134.15 E.012
G1 X145.995 Y133.764 E.01618
G1 X146.356 Y133.331 E.02145
G1 X146.662 Y133.094 E.0147
M204 S1000
G1 X146.7 Y132.73 F10800
;WIPE_START
G1 F8640
G1 X147.016 Y132.914 E-.0916
G1 X147.452 Y132.798 E-.10427
G1 X147.959 Y132.789 E-.11716
G1 X148.47 Y132.903 E-.12078
G1 X148.899 Y133.125 E-.11156
G1 X149.226 Y133.401 E-.09891
G1 X149.486 Y133.731 E-.097
G1 X149.523 Y133.803 E-.01873
;WIPE_END
G1 E-.04 F2100
G1 Z.6 F720
G1 X149.973 Y82.934 F10800
G1 Z.2 F720
G1 E.8 F2100
M204 S800
;TYPE:Solid infill
;WIDTH:0.501954
G1 F1200
G1 X152.293 Y85.254 E.12525
G1 X152.293 Y85.904 E.02478
G1 X148.879 Y82.49 E.18428
G1 X147.131 Y81.391 E.07879
G1 X152.293 Y86.553 E.27862
G1 X152.293 Y87.202 E.02478
G1 X145.384 Y80.293 E.37295
G1 X143.636 Y79.194 E.07879
G1 X152.293 Y87.851 E.46729
G1 X152.293 Y88.5 E.02478
G1 X141.889 Y78.096 E.56162
G1 X140.141 Y76.997 E.07879
G1 X152.293 Y89.149 E.65596
G1 X152.293 Y89.799 E.02478
G1 X138.393 Y75.899 E.75029
G1 X136.646 Y74.8 E.07879
M73 P2 R57
M73 Q2 S57
G1 X152.293 Y90.448 E.84463
G1 X152.293 Y91.097 E.02478
G1 X134.898 Y73.702 E.93896
G1 X133.15 Y72.604 E.07879
G1 X152.293 Y91.746 E1.0333
G1 X152.293 Y92.395 E.02478
G1 X131.403 Y71.505 E1.12763
G1 X131.008 Y71.257 E.0178
G1 X130.506 Y71.257 E.01918
G1 X152.293 Y93.044 E1.17606
G1 X152.293 Y93.694 E.02478
G1 X129.856 Y71.257 E1.21111
G1 X129.207 Y71.257 E.02478
G1 X152.293 Y94.343 E1.24615
G1 X152.293 Y94.992 E.02478
G1 X128.558 Y71.257 E1.28119
G1 X127.909 Y71.257 E.02478
G1 X152.293 Y95.641 E1.31623
G1 X152.293 Y96.29 E.02478
G1 X127.26 Y71.257 E1.35127
G1 X126.611 Y71.257 E.02478
G1 X152.293 Y96.939 E1.38631
G1 X152.293 Y97.589 E.02478
M73 P2 R56
G1 X125.961 Y71.257 E1.42136
G1 X125.312 Y71.257 E.02478
G1 X152.293 Y98.238 E1.4564
G1 X152.293 Y98.887 E.02478
G1 X124.663 Y71.257 E1.49144
G1 X124.014 Y71.257 E.02478
G1 X152.293 Y99.536 E1.52648
G1 X152.293 Y100.185 E.02478
G1 X123.365 Y71.257 E1.56152
G1 X122.715 Y71.257 E.02478
G1 X152.293 Y100.835 E1.59656
G1 X152.293 Y101.484 E.02478
M73 Q2 S56
G1 X122.066 Y71.257 E1.6316
G1 X121.417 Y71.257 E.02478
G1 X152.293 Y102.133 E1.66665
G1 X152.293 Y102.782 E.02478
G1 X120.768 Y71.257 E1.70169
G1 X120.119 Y71.257 E.02478
M73 P3 R56
M73 Q3 S56
G1 X152.293 Y103.431 E1.73673
G1 X152.293 Y104.08 E.02478
G1 X119.47 Y71.257 E1.77177
G1 X118.82 Y71.257 E.02478
G1 X152.293 Y104.73 E1.80681
G1 X152.293 Y105.379 E.02478
G1 X118.171 Y71.257 E1.84185
G1 X117.522 Y71.257 E.02478
G1 X152.293 Y106.028 E1.8769
G1 X152.293 Y106.677 E.02478
G1 X116.873 Y71.257 E1.91194
G1 X116.224 Y71.257 E.02478
G1 X152.293 Y107.326 E1.94698
G1 X152.293 Y107.975 E.02478
G1 X115.575 Y71.257 E1.98202
G1 X114.925 Y71.257 E.02478
G1 X152.293 Y108.625 E2.01706
G1 X152.293 Y109.274 E.02478
G1 X114.276 Y71.257 E2.0521
