; generated by PrusaSlicer 2.5.0+win64 on 2023-02-02 at 10:00:57 UTC


;
;
; 

; external perimeters extrusion width = 0.50mm
; perimeters extrusion width = 0.50mm
; infill extrusion width = 0.50mm
; solid infill extrusion width = 0.50mm
; top infill extrusion width = 0.50mm
; first layer extrusion width = 0.50mm

; external perimeters extrusion width = 0.50mm
; perimeters extrusion width = 0.50mm
; infill extrusion width = 0.50mm
; solid infill extrusion width = 0.50mm
; top infill extrusion width = 0.50mm
; first layer extrusion width = 0.50mm

; external perimeters extrusion width = 0.50mm
; perimeters extrusion width = 0.50mm
; infill extrusion width = 0.50mm
; solid infill extrusion width = 0.50mm
; top infill extrusion width = 0.50mm
; first layer extrusion width = 0.50mm

; external perimeters extrusion width = 0.50mm
; perimeters extrusion width = 0.50mm
; infill extrusion width = 0.50mm
; solid infill extrusion width = 0.50mm
; top infill extrusion width = 0.50mm
; first layer extrusion width = 0.50mm

; external perimeters extrusion width = 0.50mm
; perimeters extrusion width = 0.50mm
; infill extrusion width = 0.50mm
; solid infill extrusion width = 0.50mm
; top infill extrusion width = 0.50mm
; first layer extrusion width = 0.50mm

; external perimeters extrusion width = 0.50mm
; perimeters extrusion width = 0.50mm
; infill extrusion width = 0.50mm
; solid infill extrusion width = 0.50mm
; top infill extrusion width = 0.50mm
; first layer extrusion width = 0.50mm

; external perimeters extrusion width = 0.50mm
; perimeters extrusion width = 0.50mm
; infill extrusion width = 0.50mm
; solid infill extrusion width = 0.50mm
; top infill extrusion width = 0.50mm
; first layer extrusion width = 0.50mm

; external perimeters extrusion width = 0.50mm
; perimeters extrusion width = 0.50mm
; infill extrusion width = 0.50mm
; solid infill extrusion width = 0.50mm
; top infill extrusion width = 0.50mm
; first layer extrusion width = 0.50mm

M73 P0 R95
M73 Q0 S97
M201 X1000 Y1000 Z200 E5000 ; sets maximum accelerations, mm/sec^2
M203 X200 Y200 Z12 E120 ; sets maximum feedrates, mm / sec
M204 P1250 R1250 T1250 ; sets acceleration (P, T) and retract acceleration (R), mm/sec^2
M205 X8.00 Y8.00 Z0.40 E4.50 ; sets the jerk limits, mm/sec
M205 S0 T0 ; sets the minimum extruding and travel feed rate, mm/sec
M107
;TYPE:Custom
M862.3 P "MK3S" ; printer model check
M862.1 P0.4 ; nozzle diameter check
M115 U3.11.0 ; tell printer latest fw version
G90 ; use absolute coordinates
M83 ; extruder relative mode
M104 S215 ; set extruder temp
M140 S60 ; set bed temp
M190 S60 ; wait for bed temp
M109 S215 ; wait for extruder temp
G28 W ; home all without mesh bed level
G80 ; mesh bed leveling

G1 Z0.2 F720
G1 Y-3 F1000 ; go outside print area
G92 E0
G1 X60 E9 F1000 ; intro line
G1 X100 E12.5 F1000 ; intro line

G92 E0
M221 S95

; Don't change E values below. Excessive value can damage the printer.
M907 E430 ; set extruder motor current
G21 ; set units to millimeters
G90 ; use absolute coordinates
M83 ; use relative distances for extrusion
M900 K0.05 ; Filament gcode LA 1.5
M900 K30 ; Filament gcode LA 1.0
M107
;LAYER_CHANGE
;Z:0.2
;HEIGHT:0.2
;BEFORE_LAYER_CHANGE
G92 E0.0
;0.2


M73 Q0 S96
G1 E-.8 F2100
G1 Z.4 F720
;AFTER_LAYER_CHANGE
;0.2
G1 X33.555 Y88.742 F10800
G1 Z.2 F720
G1 E.8 F2100
M204 S800
;TYPE:Skirt/Brim
;WIDTH:0.5
G1 F1200
G1 X34.129 Y88.525 E.02329
G1 X97.972 Y88.474 E2.42647
G1 X137.993 Y89.152 E1.52125
G1 X175.258 Y89.882 E1.41657
G1 X176.581 Y90.3 E.05274
G1 X177.573 Y91.665 E.06412
G1 X179.373 Y97.976 E.24944
G1 X179.467 Y98.65 E.02586
G1 X179.467 Y119.123 E.77811
G1 X176.386 Y144.007 E.95298
G1 X175.833 Y145.28 E.05274
G1 X174.678 Y146.05 E.05274
G1 X173.948 Y146.161 E.02807
G1 X149.619 Y146.161 E.92465
G1 X34.445 Y144.804 E4.37767
G1 X33.118 Y144.397 E.05274
G1 X32.224 Y143.335 E.05274
G1 X32.026 Y142.56 E.03041
G1 X29.878 Y117.767 E.94585
G1 X29.878 Y97.293 E.77811
G1 X29.972 Y96.62 E.02586
G1 X31.772 Y90.308 E.24944
G1 X32.514 Y89.135 E.05274
G1 X33.499 Y88.763 E.04004
M204 S1000
; printing object LinkCoverV2.0.stl id:6 copy 0
;WIPE_START
G1 F8640
G1 X34.129 Y88.525 E-.15534
G1 X36.747 Y88.523 E-.60467
;WIPE_END
G1 E-.04 F2100
G1 Z.6 F720
G1 X35.838 Y140.983 F10800
G1 Z.2 F720
G1 E.8 F2100
M204 S800
;TYPE:Perimeter
;WIDTH:0.499999
G1 F1200
G1 X35.838 Y131.811 E.34858
G1 X57.409 Y131.811 E.81986
G1 X57.409 Y140.983 E.34858
G1 X35.898 Y140.983 E.81758
M204 S1000
G1 X35.381 Y141.44 F10800
M204 S800
G1 F1200
G1 X35.381 Y131.354 E.38333
G1 X57.866 Y131.354 E.8546
G1 X57.866 Y141.44 E.38333
G1 X35.441 Y141.44 E.85232
M204 S1000
G1 X34.923 Y141.897 F10800
M204 S800
;TYPE:External perimeter
G1 F1200
G1 X34.923 Y130.897 E.41807
G1 X58.323 Y130.897 E.88935
G1 X58.323 Y141.897 E.41807
G1 X34.983 Y141.897 E.88707
M204 S1000
G1 X35.071 Y141.525 F10800
;WIPE_START
G1 F8640
G1 X34.966 Y138.606 E-.76
;WIPE_END
G1 E-.04 F2100
G1 Z.6 F720
G1 X56.33 Y131.949 F10800
G1 Z.2 F720
G1 E.8 F2100
M204 S800
;TYPE:Solid infill
;WIDTH:0.508478
G1 F1200
G1 X57.067 Y132.685 E.04031
G1 X57.067 Y133.343 E.02549
G1 X55.878 Y132.154 E.06509
G1 X55.219 Y132.154 E.02549
G1 X57.067 Y134.002 E.10114
G1 X57.067 Y134.66 E.02549
G1 X54.561 Y132.154 E.13718
G1 X53.902 Y132.154 E.02549
G1 X57.067 Y135.318 E.17323
G1 X57.067 Y135.977 E.02549
G1 X53.244 Y132.154 E.20927
G1 X52.586 Y132.154 E.02549
G1 X57.067 Y136.635 E.24532
G1 X57.067 Y137.294 E.02549
G1 X51.927 Y132.154 E.28136
G1 X51.269 Y132.154 E.02549
G1 X57.067 Y137.952 E.31741
G1 X57.067 Y138.61 E.02549
G1 X50.61 Y132.154 E.35345
G1 X49.952 Y132.154 E.02549
G1 X57.067 Y139.269 E.38949
G1 X57.067 Y139.927 E.02549
G1 X49.294 Y132.154 E.42554
G1 X48.635 Y132.154 E.02549
G1 X57.067 Y140.586 E.46158
G1 X57.067 Y140.64 E.00212
G1 X56.463 Y140.64 E.02337
G1 X47.977 Y132.154 E.46458
G1 X47.318 Y132.154 E.02549
M73 P0 R94
G1 X55.804 Y140.64 E.46458
G1 X55.146 Y140.64 E.02549
G1 X46.66 Y132.154 E.46458
G1 X46.002 Y132.154 E.02549
G1 X54.488 Y140.64 E.46458
G1 X53.829 Y140.64 E.02549
G1 X45.343 Y132.154 E.46458
G1 X44.685 Y132.154 E.02549
G1 X53.171 Y140.64 E.46458
G1 X52.512 Y140.64 E.02549
G1 X44.026 Y132.154 E.46458
G1 X43.368 Y132.154 E.02549
G1 X51.854 Y140.64 E.46458
G1 X51.196 Y140.64 E.02549
G1 X42.71 Y132.154 E.46458
G1 X42.051 Y132.154 E.02549
G1 X50.537 Y140.64 E.46458
G1 X49.879 Y140.64 E.02549
G1 X41.393 Y132.154 E.46458
G1 X40.734 Y132.154 E.02549
G1 X49.22 Y140.64 E.46458
G1 X48.562 Y140.64 E.02549
G1 X40.076 Y132.154 E.46458
G1 X39.418 Y132.154 E.02549
G1 X47.904 Y140.64 E.46458
G1 X47.245 Y140.64 E.02549
G1 X38.759 Y132.154 E.46458
G1 X38.101 Y132.154 E.02549
G1 X46.587 Y140.64 E.46458
G1 X45.928 Y140.64 E.02549
G1 X37.442 Y132.154 E.46458
G1 X36.784 Y132.154 E.02549
G1 X45.27 Y140.64 E.46458
G1 X44.612 Y140.64 E.02549
G1 X36.18 Y132.209 E.46158
G1 X36.18 Y132.867 E.02549
G1 X43.953 Y140.64 E.42553
G1 X43.295 Y140.64 E.02549
G1 X36.18 Y133.526 E.38949
G1 X36.18 Y134.184 E.02549
G1 X42.636 Y140.64 E.35344
G1 X41.978 Y140.64 E.02549
G1 X36.18 Y134.843 E.3174
G1 X36.18 Y135.501 E.02549
M73 P1 R94
G1 X41.32 Y140.64 E.28135
G1 X40.661 Y140.64 E.02549
M73 Q1 S96
G1 X36.18 Y136.159 E.24531
G1 X36.18 Y136.818 E.02549
G1 X40.003 Y140.64 E.20926
G1 X39.344 Y140.64 E.02549
G1 X36.18 Y137.476 E.17322
G1 X36.18 Y138.135 E.02549
G1 X38.686 Y140.64 E.13717
G1 X38.028 Y140.64 E.02549
G1 X36.18 Y138.793 E.10113
G1 X36.18 Y139.451 E.02549
G1 X37.369 Y140.64 E.06509
G1 X36.711 Y140.64 E.02549
G1 X35.975 Y139.904 E.0403
M204 S1000
; stop printing object LinkCoverV2.0.stl id:6 copy 0
; printing object LinkV2.0.stl id:7 copy 0
;WIPE_START
G1 F8640
G1 X36.711 Y140.64 E-.24038
G1 X37.369 Y140.64 E-.15203
G1 X36.244 Y139.515 E-.36759
;WIPE_END
G1 E-.04 F2100
G1 Z.6 F720
G1 X59.805 Y108.513 F10800
G1 Z.2 F720
G1 E.8 F2100
M204 S800
;TYPE:Perimeter
;WIDTH:0.499999
G1 F1200
G1 X57.848 Y108.52 E.07436
G1 X57.557 Y108.559 E.01117
G1 X57.09 Y108.697 E.01851
G1 X56.685 Y108.946 E.01807
G1 X56.299 Y109.246 E.01859
G1 X55.97 Y109.684 E.02083
G1 X53.408 Y114.11 E.19436
M73 Q1 S95
G1 X40.756 Y114.11 E.48085
G1 X38.201 Y109.685 E.19419
G1 X38.124 Y109.569 E.00529
G1 X37.758 Y109.149 E.02119
G1 X37.472 Y108.915 E.01404
G1 X36.921 Y108.641 E.02339
G1 X36.322 Y108.52 E.02325
G1 X33.718 Y108.51 E.09896
G1 X33.699 Y108.529 E.00101
G1 X33.699 Y98.658 E.37516
G1 X34.356 Y98.658 E.02498
G1 X34.771 Y98.58 E.01605
G1 X35.014 Y98.45 E.01046
G1 X35.249 Y98.228 E.01226
G1 X35.43 Y97.906 E.01405
G1 X35.499 Y97.515 E.0151
G1 X35.499 Y93.658 E.14659
G1 X35.8 Y93.658 E.01142
G1 X36.162 Y94.052 E.02034
G1 X36.468 Y94.271 E.01429
G1 X36.899 Y94.482 E.01823
G1 X37.251 Y94.589 E.01401
G1 X37.704 Y94.638 E.01732
G1 X56.466 Y94.638 E.71305
G1 X57.148 Y94.524 E.02628
G1 X57.493 Y94.394 E.01404
G1 X58.008 Y94.052 E.0235
G1 X58.37 Y93.658 E.02034
G1 X58.671 Y93.658 E.01142
G1 X58.671 Y96.844 E.12108
G1 X58.692 Y97.735 E.03387
G1 X58.799 Y98.041 E.01232
G1 X59.012 Y98.329 E.01361
G1 X59.399 Y98.58 E.01753
G1 X59.814 Y98.658 E.01605
G1 X60.471 Y98.658 E.02498
G1 X60.471 Y108.529 E.37516
G1 X60.452 Y108.51 E.00101
G1 X59.865 Y108.512 E.02232
M204 S1000
G1 X60.559 Y109.072 F10800
M204 S800
G1 F1200
G1 X60.454 Y108.967 E.00562
G1 X57.85 Y108.977 E.09896
G1 X57.367 Y109.083 E.01879
G1 X57.164 Y109.175 E.0085
G1 X56.677 Y109.513 E.02251
G1 X56.365 Y109.913 E.01929
G1 X53.715 Y114.491 E.20102
G1 X53.541 Y114.567 E.00723
G1 X40.662 Y114.567 E.4895
G1 X40.494 Y114.537 E.00647
G1 X40.431 Y114.461 E.00374
G1 X37.805 Y109.914 E.19958
G1 X37.726 Y109.803 E.00517
G1 X37.329 Y109.369 E.02237
G1 X36.896 Y109.115 E.01908
G1 X36.32 Y108.977 E.02251
G1 X33.716 Y108.967 E.09896
G1 X33.242 Y109.439 E.02543
G1 X33.242 Y98.201 E.42715
G1 X34.356 Y98.201 E.04235
G1 X34.605 Y98.154 E.00963
G1 X34.751 Y98.076 E.00627
G1 X34.965 Y97.83 E.0124
G1 X35.042 Y97.515 E.01232
G1 X35.042 Y93.2 E.16398
G1 X36.053 Y93.201 E.03843
G1 X36.256 Y93.499 E.01369
G1 X36.669 Y93.86 E.02086
G1 X37.311 Y94.135 E.02657
G1 X37.704 Y94.181 E.01504
G1 X56.466 Y94.181 E.71305
G1 X57.058 Y94.076 E.02285
G1 X57.542 Y93.839 E.0205
G1 X57.914 Y93.499 E.01916
G1 X58.117 Y93.201 E.01369
G1 X59.128 Y93.2 E.03843
G1 X59.128 Y97.515 E.16398
G1 X59.169 Y97.75 E.00907
G1 X59.332 Y98.003 E.01144
G1 X59.565 Y98.154 E.01052
G1 X59.814 Y98.201 E.00963
G1 X60.928 Y98.201 E.04235
G1 X60.928 Y109.439 E.42715
G1 X60.601 Y109.114 E.01753
M204 S1000
G1 X60.552 Y109.5 F10800
M204 S800
;TYPE:External perimeter
;WIDTH:0.540486
G1 F1200
G1 X60.456 Y109.424 E.00509
;WIDTH:0.499999
G1 X57.852 Y109.434 E.09896
G1 X57.454 Y109.536 E.01562
G1 X57.021 Y109.821 E.01971
G1 X56.761 Y110.142 E.01571
G1 X54.07 Y114.791 E.20415
G1 X53.86 Y114.964 E.01032
G1 X53.592 Y115.024 E.01044
G1 X40.662 Y115.024 E.49144
G1 X40.296 Y114.961 E.01411
G1 X40.055 Y114.725 E.01281
G1 X37.409 Y110.142 E.20111
G1 X37.072 Y109.753 E.01956
G1 X36.782 Y109.572 E.01303
G1 X36.318 Y109.434 E.01838
G1 X33.714 Y109.424 E.09896
;WIDTH:0.540486
G1 X33.618 Y109.5 E.00509
;WIDTH:0.580973
G1 X33.521 Y109.577 E.00551
;WIDTH:0.62146
G1 X33.424 Y109.653 E.00592
G1 X33.424 Y115.944 E.30265
G1 X32.846 Y115.944 E.02783
G1 X32.846 Y109.653 E.30265
G1 X32.825 Y109.266 E.01865
;WIDTH:0.580973
G1 X32.805 Y108.878 E.01735
;WIDTH:0.540486
G1 X32.785 Y108.491 E.01604
;WIDTH:0.499999
G1 X32.785 Y97.743 E.40848
G1 X34.356 Y97.743 E.05973
G1 X34.517 Y97.678 E.00659
G1 X34.585 Y97.515 E.00671
G1 X34.585 Y92.743 E.18136
G1 X36.312 Y92.744 E.06564
G1 X36.545 Y93.132 E.01719
G1 X36.809 Y93.406 E.01446
G1 X37.301 Y93.661 E.02106
G1 X37.704 Y93.724 E.01553
G1 X56.466 Y93.724 E.71305
G1 X56.968 Y93.628 E.01943
G1 X57.314 Y93.443 E.01492
G1 X57.591 Y93.176 E.01462
G1 X57.858 Y92.744 E.0193
G1 X59.585 Y92.743 E.06564
G1 X59.585 Y97.515 E.18136
G1 X59.653 Y97.678 E.00671
G1 X59.814 Y97.743 E.00659
G1 X61.385 Y97.743 E.05973
G1 X61.385 Y99.315 E.05973
G1 X61.385 Y108.491 E.34876
;WIDTH:0.540486
G1 X61.365 Y108.878 E.01604
;WIDTH:0.580973
G1 X61.345 Y109.266 E.01735
;WIDTH:0.621459
G1 X61.324 Y109.653 E.01865
G1 X61.324 Y115.944 E.30265
G1 X60.746 Y115.944 E.02783
G1 X60.746 Y109.653 E.30265
G1 X60.649 Y109.577 E.00592
;WIDTH:0.580973
G1 X60.599 Y109.538 E.00282
M204 S1000
;WIPE_START
G1 F8640
G1 X60.456 Y109.424 E-.04228
G1 X57.852 Y109.434 E-.6012
G1 X57.454 Y109.536 E-.09487
G1 X57.375 Y109.587 E-.02165
;WIPE_END
G1 E-.04 F2100
G1 Z.6 F720
G1 X58.534 Y94.605 F10800
G1 Z.2 F720
G1 E.8 F2100
M204 S800
;TYPE:Solid infill
;WIDTH:0.500602
G1 F1200
G1 X58.236 Y94.307 E.01602
G1 X57.86 Y94.578 E.01764
G1 X58.328 Y95.046 E.02517
G1 X58.328 Y95.693 E.02463
G1 X57.42 Y94.785 E.04889
G1 X57.224 Y94.859 E.00796
G1 X56.909 Y94.922 E.01222
G1 X58.328 Y96.341 E.07636
G1 X58.328 Y96.988 E.02463
G1 X56.321 Y94.981 E.108
G1 X55.674 Y94.981 E.02463
G1 X58.34 Y97.647 E.14349
G1 X58.355 Y97.799 E.00581
G1 X58.418 Y98.024 E.00886
G1 X58.495 Y98.2 E.00734
G1 X58.652 Y98.441 E.01093
G1 X58.772 Y98.574 E.00682
G1 X58.96 Y98.732 E.00935
G1 X59.277 Y98.902 E.01368
G1 X59.668 Y98.975 E.01514
G1 X60.128 Y99.435 E.02476
G1 X60.128 Y100.082 E.02463
G1 X55.027 Y94.981 E.27454
G1 X54.38 Y94.981 E.02463
G1 X60.128 Y100.73 E.30938
G1 X60.128 Y101.377 E.02463
G1 X53.732 Y94.981 E.34421
G1 X53.085 Y94.981 E.02463
G1 X60.128 Y102.024 E.37905
G1 X60.128 Y102.671 E.02463
G1 X52.438 Y94.981 E.41388
G1 X51.791 Y94.981 E.02463
G1 X60.128 Y103.319 E.44872
G1 X60.128 Y103.966 E.02463
G1 X51.143 Y94.981 E.48356
G1 X50.496 Y94.981 E.02463
G1 X60.128 Y104.613 E.51839
G1 X60.128 Y105.26 E.02463
G1 X49.849 Y94.981 E.55323
G1 X49.202 Y94.981 E.02463
G1 X60.128 Y105.908 E.58806
G1 X60.128 Y106.555 E.02463
G1 X48.554 Y94.981 E.6229
G1 X47.907 Y94.981 E.02463
G1 X60.128 Y107.202 E.65773
G1 X60.128 Y107.85 E.02463
G1 X47.26 Y94.981 E.69257
G1 X46.613 Y94.981 E.02463
G1 X59.801 Y108.17 E.7098
G1 X59.156 Y108.172 E.02454
G1 X45.965 Y94.981 E.70996
G1 X45.317 Y94.98 E.02467
G1 X58.511 Y108.175 E.71014
G1 X57.867 Y108.177 E.02454
G1 X44.668 Y94.979 E.71032
G1 X44.02 Y94.978 E.02467
G1 X57.316 Y108.273 E.71555
G1 X56.956 Y108.381 E.01429
G1 X56.838 Y108.443 E.00507
G1 X43.372 Y94.977 E.72472
G1 X42.724 Y94.976 E.02467
G1 X56.445 Y108.697 E.73846
G1 X56.218 Y108.852 E.01046
G1 X56.086 Y108.986 E.00714
G1 X42.076 Y94.976 E.75403
G1 X41.428 Y94.975 E.02467
G1 X55.796 Y109.343 E.7733
G1 X55.543 Y109.737 E.01783
G1 X40.78 Y94.974 E.79455
G1 X40.132 Y94.973 E.02467
G1 X55.306 Y110.147 E.81666
G1 X55.068 Y110.557 E.01803
G1 X39.483 Y94.972 E.83877
G1 X38.835 Y94.971 E.02467
G1 X54.831 Y110.967 E.86089
G1 X54.594 Y111.377 E.01803
G1 X38.187 Y94.97 E.883
G1 X37.539 Y94.969 E.02467
G1 X54.356 Y111.787 E.90511
G1 X54.119 Y112.197 E.01803
G1 X36.678 Y94.755 E.93868
G1 X36.308 Y94.575 E.01566
G1 X35.926 Y94.301 E.01791
M73 P1 R93
G1 X35.842 Y94.216 E.00454
G1 X35.842 Y94.567 E.01337
G1 X53.882 Y112.607 E.9709
G1 X53.644 Y113.017 E.01803
G1 X35.842 Y95.214 E.95813
G1 X35.842 Y95.861 E.02463
G1 X53.407 Y113.427 E.94536
G1 X53.21 Y113.767 E.01498
G1 X53.101 Y113.767 E.00416
G1 X35.842 Y96.509 E.92886
G1 X35.842 Y97.156 E.02463
G1 X52.453 Y113.767 E.89403
G1 X51.806 Y113.767 E.02463
G1 X35.817 Y97.778 E.86053
G1 X35.752 Y98.026 E.00974
G1 X35.64 Y98.248 E.00948
G1 X51.159 Y113.767 E.83523
G1 X50.512 Y113.767 E.02463
G1 X35.355 Y98.611 E.81574
G1 X35.21 Y98.732 E.00719
G1 X34.962 Y98.865 E.01071
G1 X49.864 Y113.767 E.80206
G1 X49.217 Y113.767 E.02463
G1 X34.437 Y98.987 E.79546
G1 X34.042 Y99 E.01504
M73 P2 R93
G1 X34.042 Y99.239 E.0091
G1 X48.57 Y113.767 E.78189
G1 X47.923 Y113.767 E.02463
M73 Q2 S95
G1 X34.042 Y99.887 E.74705
G1 X34.042 Y100.534 E.02463
G1 X47.275 Y113.767 E.71222
G1 X46.628 Y113.767 E.02463
G1 X34.042 Y101.181 E.67738
G1 X34.042 Y101.828 E.02463
G1 X45.981 Y113.767 E.64255
G1 X45.334 Y113.767 E.02463
G1 X34.042 Y102.476 E.60771
G1 X34.042 Y103.123 E.02463
M73 Q2 S94
G1 X44.686 Y113.767 E.57288
G1 X44.039 Y113.767 E.02463
G1 X34.042 Y103.77 E.53804
G1 X34.042 Y104.418 E.02463
G1 X43.392 Y113.767 E.50321
G1 X42.745 Y113.767 E.02463
G1 X34.042 Y105.065 E.46837
G1 X34.042 Y105.712 E.02463
G1 X36.534 Y108.204 E.13414
