; generated by PrusaSlicer 2.5.0+win64 on 2023-02-02 at 11:11:38 UTC


;
;
; 

; external perimeters extrusion width = 0.50mm
; perimeters extrusion width = 0.50mm
; infill extrusion width = 0.50mm
; solid infill extrusion width = 0.50mm
; top infill extrusion width = 0.50mm
; support material extrusion width = 0.35mm
; first layer extrusion width = 0.50mm

; external perimeters extrusion width = 0.50mm
; perimeters extrusion width = 0.50mm
; infill extrusion width = 0.50mm
; solid infill extrusion width = 0.50mm
; top infill extrusion width = 0.50mm
; support material extrusion width = 0.35mm
; first layer extrusion width = 0.50mm

; external perimeters extrusion width = 0.50mm
; perimeters extrusion width = 0.50mm
; infill extrusion width = 0.50mm
; solid infill extrusion width = 0.50mm
; top infill extrusion width = 0.50mm
; support material extrusion width = 0.35mm
; first layer extrusion width = 0.50mm

; external perimeters extrusion width = 0.50mm
; perimeters extrusion width = 0.50mm
; infill extrusion width = 0.50mm
; solid infill extrusion width = 0.50mm
; top infill extrusion width = 0.50mm
; support material extrusion width = 0.35mm
; first layer extrusion width = 0.50mm

; external perimeters extrusion width = 0.50mm
; perimeters extrusion width = 0.50mm
; infill extrusion width = 0.50mm
; solid infill extrusion width = 0.50mm
; top infill extrusion width = 0.50mm
; support material extrusion width = 0.35mm
; first layer extrusion width = 0.50mm

; external perimeters extrusion width = 0.50mm
; perimeters extrusion width = 0.50mm
; infill extrusion width = 0.50mm
; solid infill extrusion width = 0.50mm
; top infill extrusion width = 0.50mm
; support material extrusion width = 0.35mm
; first layer extrusion width = 0.50mm

; external perimeters extrusion width = 0.50mm
; perimeters extrusion width = 0.50mm
; infill extrusion width = 0.50mm
; solid infill extrusion width = 0.50mm
; top infill extrusion width = 0.50mm
; support material extrusion width = 0.35mm
; first layer extrusion width = 0.50mm

; external perimeters extrusion width = 0.50mm
; perimeters extrusion width = 0.50mm
; infill extrusion width = 0.50mm
; solid infill extrusion width = 0.50mm
; top infill extrusion width = 0.50mm
; support material extrusion width = 0.35mm
; first layer extrusion width = 0.50mm

M73 P0 R135
M73 Q0 S136
M201 X1000 Y1000 Z200 E5000 ; sets maximum accelerations, mm/sec^2
M203 X200 Y200 Z12 E120 ; sets maximum feedrates, mm / sec
M204 P1250 R1250 T1250 ; sets acceleration (P, T) and retract acceleration (R), mm/sec^2
M205 X8.00 Y8.00 Z0.40 E4.50 ; sets the jerk limits, mm/sec
M205 S0 T0 ; sets the minimum extruding and travel feed rate, mm/sec
M107
;TYPE:Custom
M862.3 P "MK3S" ; printer model check
M862.1 P0.4 ; nozzle diameter check
M115 U3.11.0 ; tell printer latest fw version
G90 ; use absolute coordinates
M83 ; extruder relative mode
M104 S215 ; set extruder temp
M140 S60 ; set bed temp
M190 S60 ; wait for bed temp
M109 S215 ; wait for extruder temp
G28 W ; home all without mesh bed level
G80 ; mesh bed leveling

G1 Z0.2 F720
G1 Y-3 F1000 ; go outside print area
G92 E0
G1 X60 E9 F1000 ; intro line
G1 X100 E12.5 F1000 ; intro line

G92 E0
M221 S95

; Don't change E values below. Excessive value can damage the printer.
M907 E430 ; set extruder motor current
G21 ; set units to millimeters
G90 ; use absolute coordinates
M83 ; use relative distances for extrusion
M900 K0.05 ; Filament gcode LA 1.5
M900 K30 ; Filament gcode LA 1.0
M107
;LAYER_CHANGE
;Z:0.2
;HEIGHT:0.2
;BEFORE_LAYER_CHANGE
G92 E0.0
;0.2


M73 P0 R134
G1 E-.8 F2100
G1 Z.4 F720
;AFTER_LAYER_CHANGE
;0.2
G1 X82.321 Y64.709 F10800
G1 Z.2 F720
G1 E.8 F2100
M204 S800
;TYPE:Skirt/Brim
;WIDTH:0.5
G1 F1200
G1 X98.811 Y43.732 E1.01413
G1 X100.384 Y42.819 E.06912
G1 X120.348 Y39.902 E.76679
G1 X151.533 Y39.902 E1.18522
G1 X152.309 Y40.028 E.02992
G1 X159.231 Y42.335 E.27728
G1 X160.691 Y43.651 E.07472
G1 X179.947 Y86.101 E1.7716
G1 X182.347 Y93.261 E.28698
G1 X182.473 Y94.038 E.02992
G1 X182.473 Y125.222 E1.18522
G1 X180.741 Y145.042 E.75616
G1 X180.234 Y146.334 E.05274
G1 X179.108 Y147.145 E.05274
G1 X178.345 Y147.284 E.02946
G1 X100.664 Y148.935 E2.95305
G1 X67.12 Y148.935 E1.27489
G1 X65.789 Y148.543 E.05274
G1 X64.689 Y146.836 E.07716
G1 X61.772 Y126.873 E.76679
G1 X61.772 Y95.688 E1.18522
G1 X61.898 Y94.911 E.02992
G1 X64.205 Y87.99 E.27728
G1 X64.604 Y87.249 E.03201
G1 X82.284 Y64.757 E1.08732
M204 S1000
; printing object LinkCoverV2.0.stl id:6 copy 0
;WIPE_START
G1 F8640
G1 X84.318 Y62.169 E-.76
;WIPE_END
G1 E-.04 F2100
G1 Z.6 F720
G1 X104.068 Y74.374 F10800
G1 Z.2 F720
M73 Q0 S135
G1 E.8 F2100
M204 S800
;TYPE:Support material
G1 F1200
G1 X104.39 Y74.696 E.01732
G1 X115.778 Y74.696 E.43283
G1 X115.778 Y78.742 E.15377
G1 X100.743 Y78.742 E.57143
G1 X100.743 Y68.321 E.39607
G1 X104.068 Y68.321 E.12636
G1 X104.068 Y74.305 E.22744
M204 S1000
G1 X115.138 Y78.536 F10800
M204 S800
G1 F1200
G1 X115.138 Y75.107 E.13032
G1 X114.63 Y75.107 E.0193
G1 X114.63 Y78.331 E.1225
G1 X114.123 Y78.331 E.0193
G1 X114.123 Y75.107 E.1225
G1 X113.615 Y75.107 E.0193
G1 X113.615 Y78.331 E.1225
G1 X113.107 Y78.331 E.0193
G1 X113.107 Y75.107 E.1225
G1 X112.599 Y75.107 E.0193
G1 X112.599 Y78.331 E.1225
G1 X112.091 Y78.331 E.0193
G1 X112.091 Y75.107 E.1225
G1 X111.583 Y75.107 E.0193
G1 X111.583 Y78.331 E.1225
G1 X111.075 Y78.331 E.0193
G1 X111.075 Y75.107 E.1225
G1 X110.568 Y75.107 E.0193
G1 X110.568 Y78.331 E.1225
G1 X110.06 Y78.331 E.0193
G1 X110.06 Y75.107 E.1225
G1 X109.552 Y75.107 E.0193
G1 X109.552 Y78.331 E.1225
G1 X109.044 Y78.331 E.0193
G1 X109.044 Y75.107 E.1225
G1 X108.536 Y75.107 E.0193
G1 X108.536 Y78.331 E.1225
G1 X108.028 Y78.331 E.0193
G1 X108.028 Y75.107 E.1225
G1 X107.52 Y75.107 E.0193
G1 X107.52 Y78.331 E.1225
G1 X107.012 Y78.331 E.0193
G1 X107.012 Y75.107 E.1225
G1 X106.505 Y75.107 E.0193
G1 X106.505 Y78.331 E.1225
G1 X105.997 Y78.331 E.0193
G1 X105.997 Y75.107 E.1225
G1 X105.489 Y75.107 E.0193
G1 X105.489 Y78.331 E.1225
G1 X104.981 Y78.331 E.0193
G1 X104.981 Y75.107 E.1225
G1 X104.473 Y75.107 E.0193
G1 X104.473 Y78.331 E.1225
G1 X103.965 Y78.331 E.0193
G1 X103.965 Y74.853 E.13216
G1 X103.656 Y74.544 E.01661
G1 X103.656 Y68.732 E.22089
G1 X103.457 Y68.732 E.00755
G1 X103.457 Y78.331 E.3648
G1 X102.95 Y78.331 E.0193
G1 X102.95 Y68.732 E.3648
G1 X102.442 Y68.732 E.0193
G1 X102.442 Y78.331 E.3648
G1 X101.934 Y78.331 E.0193
G1 X101.934 Y68.732 E.3648
G1 X101.426 Y68.732 E.0193
G1 X101.426 Y78.536 E.37261
M204 S1000
;WIPE_START
G1 F8640
G1 X101.426 Y75.245 E-.76
;WIPE_END
G1 E-.04 F2100
G1 Z.6 F720
G1 X115.778 Y49.296 F10800
G1 Z.2 F720
G1 E.8 F2100
M204 S800
G1 F1200
G1 X104.39 Y49.296 E.43283
G1 X104.068 Y49.618 E.01732
G1 X104.068 Y55.671 E.23005
G1 X100.743 Y55.671 E.12636
G1 X100.743 Y45.25 E.39607
G1 X115.778 Y45.25 E.57143
G1 X115.778 Y49.227 E.15116
M204 S1000
G1 X115.138 Y49.09 F10800
M204 S800
G1 F1200
G1 X115.138 Y45.661 E.13032
G1 X114.63 Y45.661 E.0193
G1 X114.63 Y48.885 E.1225
G1 X114.123 Y48.885 E.0193
G1 X114.123 Y45.661 E.1225
G1 X113.615 Y45.661 E.0193
G1 X113.615 Y48.885 E.1225
G1 X113.107 Y48.885 E.0193
G1 X113.107 Y45.661 E.1225
G1 X112.599 Y45.661 E.0193
G1 X112.599 Y48.885 E.1225
G1 X112.091 Y48.885 E.0193
G1 X112.091 Y45.661 E.1225
G1 X111.583 Y45.661 E.0193
G1 X111.583 Y48.885 E.1225
G1 X111.075 Y48.885 E.0193
G1 X111.075 Y45.661 E.1225
G1 X110.568 Y45.661 E.0193
G1 X110.568 Y48.885 E.1225
G1 X110.06 Y48.885 E.0193
G1 X110.06 Y45.661 E.1225
G1 X109.552 Y45.661 E.0193
G1 X109.552 Y48.885 E.1225
G1 X109.044 Y48.885 E.0193
G1 X109.044 Y45.661 E.1225
G1 X108.536 Y45.661 E.0193
G1 X108.536 Y48.885 E.1225
G1 X108.028 Y48.885 E.0193
G1 X108.028 Y45.661 E.1225
G1 X107.52 Y45.661 E.0193
G1 X107.52 Y48.885 E.1225
G1 X107.012 Y48.885 E.0193
G1 X107.012 Y45.661 E.1225
G1 X106.505 Y45.661 E.0193
G1 X106.505 Y48.885 E.1225
G1 X105.997 Y48.885 E.0193
G1 X105.997 Y45.661 E.1225
G1 X105.489 Y45.661 E.0193
G1 X105.489 Y48.885 E.1225
G1 X104.981 Y48.885 E.0193
G1 X104.981 Y45.661 E.1225
G1 X104.473 Y45.661 E.0193
G1 X104.473 Y48.885 E.1225
G1 X104.219 Y48.885 E.00965
G1 X103.965 Y49.139 E.01365
G1 X103.965 Y45.661 E.13216
G1 X103.457 Y45.661 E.0193
G1 X103.457 Y55.26 E.3648
G1 X102.95 Y55.26 E.0193
G1 X102.95 Y45.661 E.3648
G1 X102.442 Y45.661 E.0193
G1 X102.442 Y55.26 E.3648
G1 X101.934 Y55.26 E.0193
G1 X101.934 Y45.661 E.3648
G1 X101.426 Y45.661 E.0193
G1 X101.426 Y55.465 E.37261
M204 S1000
;WIPE_START
G1 F8640
G1 X101.426 Y52.174 E-.76
;WIPE_END
G1 E-.04 F2100
G1 Z.6 F720
G1 X105.982 Y51.21 F10800
G1 Z.2 F720
G1 E.8 F2100
M204 S800
;TYPE:Perimeter
;WIDTH:0.499999
G1 F1200
G1 X115.153 Y51.21 E.34858
G1 X115.153 Y72.782 E.81986
G1 X105.982 Y72.782 E.34858
G1 X105.982 Y51.27 E.81758
M204 S1000
G1 X105.525 Y50.753 F10800
M204 S800
G1 F1200
G1 X115.61 Y50.753 E.38333
G1 X115.61 Y73.239 E.8546
G1 X105.525 Y73.239 E.38333
G1 X105.525 Y50.813 E.85232
M204 S1000
G1 X105.068 Y50.296 F10800
M204 S800
;TYPE:External perimeter
G1 F1200
G1 X116.068 Y50.296 E.41807
G1 X116.068 Y73.696 E.88935
G1 X105.068 Y73.696 E.41807
G1 X105.068 Y50.356 E.88707
M204 S1000
G1 X105.439 Y50.443 F10800
;WIPE_START
G1 F8640
G1 X108.359 Y50.338 E-.76
;WIPE_END
G1 E-.04 F2100
G1 Z.6 F720
G1 X114.074 Y51.347 F10800
G1 Z.2 F720
G1 E.8 F2100
M204 S800
;TYPE:Solid infill
;WIDTH:0.508478
G1 F1200
G1 X114.811 Y52.084 E.04031
G1 X114.811 Y52.742 E.02549
G1 X113.622 Y51.553 E.06509
G1 X112.963 Y51.553 E.02549
G1 X114.811 Y53.4 E.10114
G1 X114.811 Y54.059 E.02549
G1 X112.305 Y51.553 E.13718
G1 X111.646 Y51.553 E.02549
G1 X114.811 Y54.717 E.17323
G1 X114.811 Y55.376 E.02549
M73 P0 R133
G1 X110.988 Y51.553 E.20927
G1 X110.33 Y51.553 E.02549
G1 X114.811 Y56.034 E.24532
G1 X114.811 Y56.692 E.02549
G1 X109.671 Y51.553 E.28136
G1 X109.013 Y51.553 E.02549
G1 X114.811 Y57.351 E.31741
G1 X114.811 Y58.009 E.02549
G1 X108.354 Y51.553 E.35345
G1 X107.696 Y51.553 E.02549
G1 X114.811 Y58.668 E.38949
G1 X114.811 Y59.326 E.02549
G1 X107.038 Y51.553 E.42554
G1 X106.379 Y51.553 E.02549
G1 X114.811 Y59.984 E.46158
G1 X114.811 Y60.643 E.02549
G1 X106.324 Y52.157 E.46458
G1 X106.324 Y52.815 E.02549
G1 X114.811 Y61.301 E.46458
G1 X114.811 Y61.96 E.02549
G1 X106.324 Y53.473 E.46458
G1 X106.324 Y54.132 E.02549
G1 X114.811 Y62.618 E.46458
G1 X114.811 Y63.276 E.02549
G1 X106.324 Y54.79 E.46458
G1 X106.324 Y55.449 E.02549
G1 X114.811 Y63.935 E.46458
G1 X114.811 Y64.593 E.02549
G1 X106.324 Y56.107 E.46458
G1 X106.324 Y56.765 E.02549
G1 X114.811 Y65.252 E.46458
G1 X114.811 Y65.91 E.02549
G1 X106.324 Y57.424 E.46458
G1 X106.324 Y58.082 E.02549
G1 X114.811 Y66.568 E.46458
G1 X114.811 Y67.227 E.02549
G1 X106.324 Y58.741 E.46458
G1 X106.324 Y59.399 E.02549
G1 X114.811 Y67.885 E.46458
G1 X114.811 Y68.543 E.02549
G1 X106.324 Y60.057 E.46458
G1 X106.324 Y60.716 E.02549
G1 X114.811 Y69.202 E.46458
G1 X114.811 Y69.86 E.02549
G1 X106.324 Y61.374 E.46458
G1 X106.324 Y62.033 E.02549
G1 X114.811 Y70.519 E.46458
G1 X114.811 Y71.177 E.02549
G1 X106.324 Y62.691 E.46458
G1 X106.324 Y63.349 E.02549
G1 X114.811 Y71.835 E.46458
G1 X114.811 Y72.439 E.02336
G1 X114.756 Y72.439 E.00212
G1 X106.324 Y64.008 E.46158
G1 X106.324 Y64.666 E.02549
G1 X114.097 Y72.439 E.42553
G1 X113.439 Y72.439 E.02549
G1 X106.324 Y65.325 E.38949
G1 X106.324 Y65.983 E.02549
G1 X112.781 Y72.439 E.35344
G1 X112.122 Y72.439 E.02549
G1 X106.324 Y66.641 E.3174
G1 X106.324 Y67.3 E.02549
G1 X111.464 Y72.439 E.28135
G1 X110.805 Y72.439 E.02549
G1 X106.324 Y67.958 E.24531
G1 X106.324 Y68.617 E.02549
G1 X110.147 Y72.439 E.20926
G1 X109.489 Y72.439 E.02549
G1 X106.324 Y69.275 E.17322
G1 X106.324 Y69.933 E.02549
G1 X108.83 Y72.439 E.13717
G1 X108.172 Y72.439 E.02549
G1 X106.324 Y70.592 E.10113
G1 X106.324 Y71.25 E.02549
G1 X107.513 Y72.439 E.06509
G1 X106.855 Y72.439 E.02549
G1 X106.119 Y71.703 E.0403
M204 S1000
; stop printing object LinkCoverV2.0.stl id:6 copy 0
; printing object LinkV2.0.stl id:7 copy 0
;WIPE_START
G1 F8640
G1 X106.855 Y72.439 E-.24038
G1 X107.513 Y72.439 E-.15203
G1 X106.388 Y71.313 E-.36759
;WIPE_END
G1 E-.04 F2100
G1 Z.6 F720
G1 X126.325 Y74.127 F10800
G1 Z.2 F720
M73 P1 R133
G1 E.8 F2100
M204 S800
;TYPE:Support material interface
;WIDTH:0.35
G1 F1200
G1 X126.344 Y74.109 E.00068
G1 X126.724 Y74.109 E.00969
G1 X126.724 Y72.947 E.02965
G1 X127.231 Y72.947 E.01295
G1 X127.231 Y74.109 E.02965
G1 X127.738 Y74.109 E.01295
G1 X127.738 Y72.947 E.02965
M204 S1000
;WIPE_START
G1 F8640
G1 X127.738 Y74.109 E-.2681
G1 X127.231 Y74.109 E-.11709
M73 Q1 S135
G1 X127.231 Y72.947 E-.2681
G1 X126.769 Y72.947 E-.10671
;WIPE_END
G1 E-.04 F2100
G1 Z.6 F720
G1 X126.769 Y76.212 F10800
G1 Z.2 F720
G1 E.8 F2100
M204 S800
;TYPE:Support material
;WIDTH:0.5
G1 F1200
G1 X126.511 Y76.212 E.00981
G1 X126.482 Y76.183 E.00157
G1 X126.482 Y74.541 E.06238
G1 X126.511 Y74.512 E.00157
G1 X126.769 Y74.512 E.00981
G1 X126.769 Y76.143 E.062
M204 S1000
;WIPE_START
G1 F8640
G1 X126.769 Y74.512 E-.37666
G1 X126.511 Y74.512 E-.05958
G1 X126.482 Y74.541 E-.00955
G1 X126.482 Y75.902 E-.31421
;WIPE_END
G1 E-.04 F2100
G1 Z.6 F720
G1 X127.738 Y76.616 F10800
G1 Z.2 F720
G1 E.8 F2100
M204 S800
;TYPE:Support material interface
;WIDTH:0.35
G1 F1200
G1 X127.738 Y77.562 E.02416
G1 X127.231 Y77.562 E.01295
G1 X127.231 Y76.616 E.02416
G1 X126.724 Y76.616 E.01295
G1 X126.724 Y77.562 E.02416
G1 X126.217 Y77.562 E.01295
G1 X126.217 Y76.488 E.02741
G1 X126.079 Y76.35 E.00499
G1 X126.079 Y74.374 E.05045
G1 X126.217 Y74.236 E.00499
G1 X126.217 Y72.947 E.0329
G1 X125.71 Y72.947 E.01295
G1 X125.71 Y77.562 E.11782
M204 S1000
;WIPE_START
G1 F8640
G1 X125.71 Y74.27 E-.76
;WIPE_END
G1 E-.04 F2100
G1 Z.6 F720
G1 X127.75 Y67.959 F10800
G1 Z.2 F720
G1 E.8 F2100
M204 S800
;TYPE:Support material
;WIDTH:0.5
G1 F1200
G1 X127.788 Y68.293 E.01275
G1 X127.912 Y68.641 E.01406
G1 X128.105 Y68.939 E.01351
G1 X128.381 Y69.2 E.01443
G1 X133.109 Y71.941 E.2077
G1 X133.217 Y72.022 E.00514
G1 X133.315 Y72.168 E.00666
G1 X133.345 Y72.281 E.00445
G1 X133.35 Y74.012 E.0658
G1 X128.269 Y74.012 E.19311
G1 X128.269 Y72.544 E.0558
G1 X125.155 Y72.544 E.11837
G1 X125.155 Y77.965 E.20605
G1 X128.155 Y77.965 E.11402
G1 X128.155 Y80.465 E.09501
G1 X120.348 Y80.465 E.29671
G1 X120.348 Y70.044 E.39607
G1 X122.655 Y70.044 E.08768
G1 X122.655 Y67.737 E.08768
G1 X127.75 Y67.737 E.19365
G1 X127.75 Y67.891 E.00585
M204 S1000
;WIPE_START
G1 F8640
G1 X127.75 Y67.737 E-.03552
G1 X124.612 Y67.737 E-.72448
;WIPE_END
G1 E-.04 F2100
G1 Z.6 F720
G1 X132.798 Y73.806 F10800
G1 Z.2 F720
M73 Q1 S134
G1 E.8 F2100
M204 S800
G1 F1200
G1 X132.798 Y72.236 E.05968
G1 X132.291 Y71.943 E.02229
G1 X132.291 Y73.601 E.063
G1 X131.783 Y73.601 E.0193
G1 X131.783 Y71.65 E.07415
G1 X131.275 Y71.357 E.02229
G1 X131.275 Y73.601 E.08529
G1 X130.767 Y73.601 E.0193
G1 X130.767 Y71.063 E.09644
G1 X130.259 Y70.77 E.02229
G1 X130.259 Y73.601 E.10758
G1 X129.751 Y73.601 E.0193
G1 X129.751 Y70.477 E.11872
G1 X129.243 Y70.184 E.02229
G1 X129.243 Y73.601 E.12987
G1 X128.736 Y73.601 E.0193
G1 X128.736 Y69.89 E.14101
G1 X128.228 Y69.592 E.02239
G1 X128.228 Y72.132 E.09656
G1 X127.72 Y72.132 E.0193
G1 X127.72 Y69.111 E.11485
G1 X127.557 Y68.85 E.01167
G1 X127.463 Y68.639 E.0088
G1 X127.386 Y68.381 E.01022
G1 X127.349 Y68.148 E.00896
G1 X127.212 Y68.148 E.00519
G1 X127.212 Y72.132 E.15142
G1 X126.704 Y72.132 E.0193
G1 X126.704 Y68.148 E.15142
G1 X126.196 Y68.148 E.0193
G1 X126.196 Y72.132 E.15142
G1 X125.688 Y72.132 E.0193
G1 X125.688 Y68.148 E.15142
G1 X125.18 Y68.148 E.0193
G1 X125.18 Y72.132 E.15142
G1 X124.743 Y72.132 E.01662
G1 X124.743 Y78.377 E.23732
G1 X125.18 Y78.377 E.01662
G1 X125.18 Y80.054 E.06374
G1 X125.688 Y80.054 E.0193
G1 X125.688 Y78.377 E.06374
G1 X126.196 Y78.377 E.0193
G1 X126.196 Y80.054 E.06374
G1 X126.704 Y80.054 E.0193
G1 X126.704 Y78.377 E.06374
G1 X127.212 Y78.377 E.0193
G1 X127.212 Y80.054 E.06374
G1 X127.72 Y80.054 E.0193
G1 X127.72 Y78.171 E.07156
M204 S1000
G1 X124.673 Y80.259 F10800
M204 S800
G1 F1200
G1 X124.673 Y68.148 E.4603
G1 X124.165 Y68.148 E.0193
G1 X124.165 Y80.054 E.45248
G1 X123.657 Y80.054 E.0193
G1 X123.657 Y68.148 E.45248
