; generated by PrusaSlicer 2.5.0+win64 on 2023-01-31 at 11:06:35 UTC


;
;
; 

; external perimeters extrusion width = 0.50mm
; perimeters extrusion width = 0.50mm
; infill extrusion width = 0.50mm
; solid infill extrusion width = 0.50mm
; top infill extrusion width = 0.50mm
; support material extrusion width = 0.35mm
; first layer extrusion width = 0.50mm

; external perimeters extrusion width = 0.50mm
; perimeters extrusion width = 0.50mm
; infill extrusion width = 0.50mm
; solid infill extrusion width = 0.50mm
; top infill extrusion width = 0.50mm
; support material extrusion width = 0.35mm
; first layer extrusion width = 0.50mm

; external perimeters extrusion width = 0.50mm
; perimeters extrusion width = 0.50mm
; infill extrusion width = 0.50mm
; solid infill extrusion width = 0.50mm
; top infill extrusion width = 0.50mm
; support material extrusion width = 0.35mm
; first layer extrusion width = 0.50mm

; external perimeters extrusion width = 0.50mm
; perimeters extrusion width = 0.50mm
; infill extrusion width = 0.50mm
; solid infill extrusion width = 0.50mm
; top infill extrusion width = 0.50mm
; support material extrusion width = 0.35mm
; first layer extrusion width = 0.50mm

M73 P0 R31
M73 Q0 S31
M201 X1000 Y1000 Z200 E5000 ; sets maximum accelerations, mm/sec^2
M203 X200 Y200 Z12 E120 ; sets maximum feedrates, mm / sec
M204 P1250 R1250 T1250 ; sets acceleration (P, T) and retract acceleration (R), mm/sec^2
M205 X8.00 Y8.00 Z0.40 E4.50 ; sets the jerk limits, mm/sec
M205 S0 T0 ; sets the minimum extruding and travel feed rate, mm/sec
M107
;TYPE:Custom
M862.3 P "MK3S" ; printer model check
M862.1 P0.4 ; nozzle diameter check
M115 U3.11.0 ; tell printer latest fw version
G90 ; use absolute coordinates
M83 ; extruder relative mode
M104 S215 ; set extruder temp
M140 S60 ; set bed temp
M190 S60 ; wait for bed temp
M109 S215 ; wait for extruder temp
G28 W ; home all without mesh bed level
G80 ; mesh bed leveling

G1 Z0.2 F720
G1 Y-3 F1000 ; go outside print area
G92 E0
G1 X60 E9 F1000 ; intro line
G1 X100 E12.5 F1000 ; intro line

G92 E0
M221 S95

; Don't change E values below. Excessive value can damage the printer.
M907 E430 ; set extruder motor current
G21 ; set units to millimeters
G90 ; use absolute coordinates
M83 ; use relative distances for extrusion
M900 K0.05 ; Filament gcode LA 1.5
M900 K30 ; Filament gcode LA 1.0
M107
;LAYER_CHANGE
;Z:0.2
;HEIGHT:0.2
;BEFORE_LAYER_CHANGE
G92 E0.0
;0.2


G1 E-.8 F2100
G1 Z.4 F720
;AFTER_LAYER_CHANGE
;0.2
G1 X110.998 Y74.096 F10800
G1 Z.2 F720
G1 E.8 F2100
M204 S800
;TYPE:Skirt/Brim
;WIDTH:0.5
G1 F1200
G1 X112.061 Y73.204 E.05274
G1 X112.943 Y73.001 E.03439
G1 X138.617 Y71.935 E.97662
G1 X162.983 Y71.933 E.92604
G1 X164.314 Y72.325 E.05274
G1 X165.221 Y73.375 E.05274
G1 X165.44 Y74.39 E.03945
G1 X165.44 Y87.134 E.48437
G1 X165.263 Y113.775 E1.01253
G1 X165.137 Y114.536 E.02931
G1 X162.83 Y121.457 E.27728
G1 X162.037 Y122.596 E.05274
G1 X160.601 Y123.135 E.05831
G1 X134.927 Y124.201 E.97662
G1 X115.175 Y124.203 E.75067
G1 X113.844 Y123.811 E.05274
G1 X112.844 Y122.523 E.06198
G1 X110.537 Y115.602 E.27728
G1 X110.411 Y114.825 E.02992
G1 X110.411 Y88.254 E1.00985
G1 X110.588 Y75.422 E.48774
G1 X110.981 Y74.154 E.05046
M204 S1000
; printing object LINK_65.stl id:0 copy 0
;WIPE_START
G1 F8640
G1 X112.061 Y73.204 E-.33215
G1 X112.943 Y73.001 E-.20893
G1 X113.89 Y72.962 E-.21892
;WIPE_END
G1 E-.04 F2100
G1 Z.6 F720
G1 X123.289 Y101.237 F10800
G1 Z.2 F720
G1 E.8 F2100
M204 S800
;TYPE:Support material
G1 F1200
G1 X119.397 Y101.237 E.14793
G1 X119.397 Y96.104 E.19507
G1 X119.328 Y95.919 E.00751
G1 X119.153 Y95.727 E.00989
G1 X118.944 Y95.572 E.00988
G1 X118.683 Y95.463 E.01076
G1 X118.429 Y95.429 E.00973
G1 X117.147 Y95.429 E.04873
G1 X116.955 Y95.449 E.00733
G1 X116.778 Y95.501 E.00703
G1 X116.563 Y95.616 E.00926
G1 X116.409 Y95.74 E.00751
G1 X116.248 Y95.919 E.00914
G1 X116.18 Y96.104 E.00751
G1 X116.18 Y105.467 E.35584
G1 X116.502 Y105.789 E.01732
M73 Q1 S31
G1 X118.845 Y105.789 E.08904
G1 X118.845 Y111.615 E.2214
M73 P1 R31
G1 X119.167 Y111.937 E.01732
G1 X120.29 Y111.937 E.0427
G1 X120.613 Y111.615 E.01732
G1 X120.613 Y109.2 E.09179
G1 X123.289 Y109.2 E.10173
G1 X123.289 Y121.746 E.47684
G1 X115.175 Y121.746 E.30838
G1 X115.175 Y114.825 E.26305
G1 X112.868 Y114.825 E.08768
G1 X112.868 Y88.254 E1.00985
G1 X123.289 Y88.254 E.39607
G1 X123.289 Y101.169 E.49083
M204 S1000
;WIPE_START
G1 F8640
G1 X123.289 Y97.877 E-.76
;WIPE_END
G1 E-.04 F2100
G1 Z.6 F720
G1 X122.461 Y121.54 F10800
G1 Z.2 F720
G1 E.8 F2100
M204 S800
G1 F1200
G1 X122.461 Y109.611 E.45339
G1 X121.953 Y109.611 E.0193
G1 X121.953 Y121.335 E.44557
G1 X121.445 Y121.335 E.0193
G1 X121.445 Y109.611 E.44557
G1 X121.024 Y109.611 E.016
G1 X121.024 Y111.785 E.08263
G1 X120.937 Y111.872 E.00467
G1 X120.937 Y121.335 E.35964
G1 X120.429 Y121.335 E.0193
G1 X120.429 Y112.348 E.34154
G1 X119.921 Y112.348 E.0193
G1 X119.921 Y121.335 E.34154
G1 X119.413 Y121.335 E.0193
G1 X119.413 Y112.348 E.34154
G1 X118.996 Y112.348 E.01585
G1 X118.906 Y112.257 E.00488
G1 X118.906 Y121.335 E.34499
G1 X118.398 Y121.335 E.0193
G1 X118.398 Y106.201 E.57518
G1 X117.89 Y106.201 E.0193
G1 X117.89 Y121.335 E.57518
G1 X117.382 Y121.335 E.0193
G1 X117.382 Y106.201 E.57518
G1 X116.874 Y106.201 E.0193
G1 X116.874 Y121.335 E.57518
G1 X116.366 Y121.335 E.0193
G1 X116.366 Y105.945 E.58491
M204 S1000
;WIPE_START
G1 F8640
G1 X116.366 Y109.236 E-.76
;WIPE_END
G1 E-.04 F2100
G1 Z.6 F720
G1 X122.461 Y101.031 F10800
G1 Z.2 F720
G1 E.8 F2100
M204 S800
G1 F1200
G1 X122.461 Y88.665 E.46998
G1 X121.953 Y88.665 E.0193
G1 X121.953 Y100.826 E.46217
G1 X121.445 Y100.826 E.0193
G1 X121.445 Y88.665 E.46217
G1 X120.937 Y88.665 E.0193
G1 X120.937 Y100.826 E.46217
G1 X120.429 Y100.826 E.0193
G1 X120.429 Y88.665 E.46217
G1 X119.921 Y88.665 E.0193
G1 X119.921 Y100.826 E.46217
G1 X119.808 Y100.826 E.00429
G1 X119.808 Y96.031 E.18225
G1 X119.688 Y95.707 E.01313
G1 X119.413 Y95.408 E.01542
G1 X119.413 Y88.665 E.25627
G1 X118.906 Y88.665 E.0193
G1 X118.906 Y95.102 E.24465
M73 Q2 S31
G1 X118.663 Y95.038 E.00956
M73 P2 R31
G1 X118.398 Y95.018 E.01009
G1 X118.398 Y88.665 E.24143
G1 X117.89 Y88.665 E.0193
G1 X117.89 Y95.018 E.24143
G1 X117.382 Y95.018 E.0193
G1 X117.382 Y88.665 E.24143
G1 X116.874 Y88.665 E.0193
G1 X116.874 Y95.046 E.24249
G1 X116.624 Y95.12 E.00993
G1 X116.366 Y95.253 E.01101
G1 X116.366 Y88.665 E.25037
G1 X115.858 Y88.665 E.0193
G1 X115.858 Y121.335 E1.24163
G1 X115.587 Y121.335 E.01033
G1 X115.587 Y114.413 E.26305
G1 X115.351 Y114.413 E.00898
G1 X115.351 Y88.665 E.97858
G1 X114.843 Y88.665 E.0193
M73 P2 R30
G1 X114.843 Y114.413 E.97858
G1 X114.335 Y114.413 E.0193
G1 X114.335 Y88.665 E.97858
G1 X113.827 Y88.665 E.0193
G1 X113.827 Y114.413 E.97858
G1 X113.319 Y114.413 E.0193
G1 X113.319 Y88.46 E.9864
M204 S1000
;WIPE_START
G1 F8640
G1 X113.319 Y91.751 E-.76
;WIPE_END
G1 E-.04 F2100
G1 Z.6 F720
G1 X137.132 Y114.825 F10800
G1 Z.2 F720
G1 E.8 F2100
M204 S800
G1 F1200
G1 X134.825 Y114.825 E.08768
G1 X134.825 Y121.746 E.26305
G1 X126.711 Y121.746 E.30838
G1 X126.711 Y109.2 E.47684
G1 X129.387 Y109.2 E.10173
G1 X129.387 Y111.615 E.09179
G1 X129.71 Y111.937 E.01732
G1 X130.833 Y111.937 E.0427
G1 X131.155 Y111.615 E.01732
G1 X131.155 Y105.789 E.2214
G1 X133.498 Y105.789 E.08904
G1 X133.82 Y105.467 E.01732
G1 X133.821 Y96.104 E.35584
G1 X133.752 Y95.919 E.00751
G1 X133.591 Y95.74 E.00914
G1 X133.455 Y95.628 E.0067
G1 X133.2 Y95.493 E.01099
G1 X132.921 Y95.432 E.01085
G1 X131.57 Y95.429 E.05131
G1 X131.379 Y95.449 E.00732
G1 X131.201 Y95.501 E.00703
G1 X130.986 Y95.616 E.00926
G1 X130.833 Y95.741 E.00752
G1 X130.672 Y95.919 E.00913
G1 X130.603 Y96.104 E.00751
G1 X130.603 Y101.237 E.19507
G1 X126.711 Y101.237 E.14793
G1 X126.711 Y88.254 E.49344
G1 X137.132 Y88.254 E.39607
G1 X137.132 Y114.756 E1.00725
M204 S1000
G1 X136.681 Y114.619 F10800
M204 S800
G1 F1200
G1 X136.681 Y88.665 E.9864
G1 X136.173 Y88.665 E.0193
G1 X136.173 Y114.413 E.97858
G1 X135.665 Y114.413 E.0193
M73 P3 R30
M73 Q3 S31
G1 X135.665 Y88.665 E.97858
M73 Q3 S30
G1 X135.157 Y88.665 E.0193
G1 X135.157 Y114.413 E.97858
G1 X134.649 Y114.413 E.0193
G1 X134.649 Y88.665 E.97858
G1 X134.142 Y88.665 E.0193
G1 X134.142 Y121.335 E1.24163
G1 X133.634 Y121.335 E.0193
G1 X133.634 Y106.201 E.57518
G1 X133.126 Y106.201 E.0193
G1 X133.126 Y121.335 E.57518
G1 X132.618 Y121.335 E.0193
G1 X132.618 Y106.201 E.57518
G1 X132.11 Y106.201 E.0193
G1 X132.11 Y121.335 E.57518
G1 X131.602 Y121.335 E.0193
G1 X131.602 Y106.201 E.57518
G1 X131.567 Y106.201 E.00135
G1 X131.567 Y111.785 E.21224
G1 X131.094 Y112.257 E.02539
G1 X131.094 Y121.335 E.34499
G1 X130.587 Y121.335 E.0193
G1 X130.587 Y112.348 E.34154
G1 X130.531 Y112.348 E.00211
G1 X130.079 Y112.348 E.01719
G1 X130.079 Y121.335 E.34154
G1 X129.571 Y121.335 E.0193
G1 X129.571 Y112.348 E.34154
G1 X129.539 Y112.348 E.0012
G1 X129.063 Y111.872 E.0256
G1 X129.063 Y121.335 E.35964
G1 X128.555 Y121.335 E.0193
G1 X128.555 Y109.611 E.44557
G1 X128.047 Y109.611 E.0193
G1 X128.047 Y121.335 E.44557
G1 X127.539 Y121.335 E.0193
G1 X127.539 Y109.405 E.45339
M204 S1000
;WIPE_START
G1 F8640
G1 X127.539 Y112.697 E-.76
;WIPE_END
G1 E-.04 F2100
G1 Z.6 F720
G1 X133.634 Y95.506 F10800
G1 Z.2 F720
G1 E.8 F2100
M204 S800
G1 F1200
G1 X133.634 Y88.665 E.25997
G1 X133.126 Y88.665 E.0193
G1 X133.126 Y95.046 E.24249
G1 X132.947 Y95.022 E.00685
G1 X132.618 Y95.018 E.01251
G1 X132.618 Y88.665 E.24143
G1 X132.11 Y88.665 E.0193
G1 X132.11 Y95.018 E.24143
G1 X131.602 Y95.018 E.0193
G1 X131.602 Y88.665 E.24143
G1 X131.094 Y88.665 E.0193
G1 X131.094 Y95.102 E.24465
G1 X130.823 Y95.232 E.01143
G1 X130.587 Y95.408 E.01121
G1 X130.587 Y88.665 E.25627
G1 X130.079 Y88.665 E.0193
G1 X130.079 Y100.826 E.46217
G1 X129.571 Y100.826 E.0193
M73 P4 R30
G1 X129.571 Y88.665 E.46217
M73 Q4 S30
G1 X129.063 Y88.665 E.0193
G1 X129.063 Y100.826 E.46217
G1 X128.555 Y100.826 E.0193
G1 X128.555 Y88.665 E.46217
G1 X128.047 Y88.665 E.0193
G1 X128.047 Y100.826 E.46217
G1 X127.539 Y100.826 E.0193
G1 X127.539 Y88.46 E.46998
M204 S1000
;WIPE_START
G1 F8640
G1 X127.539 Y91.751 E-.76
;WIPE_END
G1 E-.04 F2100
G1 Z.6 F720
G1 X129.979 Y103.933 F10800
G1 Z.2 F720
G1 E.8 F2100
M204 S800
;TYPE:Perimeter
;WIDTH:0.596558
G1 F1200
G1 X129.955 Y103.947 E.0013
;WIDTH:0.548279
G1 X129.845 Y104.01 E.00531
;WIDTH:0.499999
G1 X129.469 Y104.334 E.01887
G1 X129.286 Y104.7 E.01555
G1 X129.241 Y105.02 E.01229
G1 X129.243 Y106.028 E.03831
G1 X129.249 Y106.762 E.02787
G1 X129.301 Y107.328 E.02163
G1 X128.608 Y107.292 E.02638
G1 X127.961 Y107.285 E.02459
G1 X121.318 Y107.296 E.25248
G1 X120.717 Y107.326 E.02286
G1 X120.755 Y106.661 E.02533
G1 X120.758 Y105.218 E.05484
G1 X120.714 Y104.7 E.01975
G1 X120.531 Y104.334 E.01555
G1 X120.155 Y104.01 E.01887
;WIDTH:0.544478
G1 X119.975 Y103.943 E.008
;WIDTH:0.588957
G1 X119.796 Y103.876 E.00871
;WIDTH:0.633436
G1 X119.616 Y103.808 E.00942
;WIDTH:0.637977
G1 X118.163 Y103.806 E.07191
G1 X118.163 Y103.066 E.03663
G1 X118.493 Y103.213 E.01788
G1 X118.626 Y103.218 E.00657
;WIDTH:0.633436
G1 X119.616 Y103.218 E.04863
G1 X119.867 Y103.196 E.01239
;WIDTH:0.588957
G1 X120.119 Y103.173 E.01145
;WIDTH:0.544478
G1 X120.37 Y103.151 E.01052
;WIDTH:0.499999
G1 X129.63 Y103.151 E.35194
;WIDTH:0.548279
G1 X129.794 Y103.175 E.00697
;WIDTH:0.596558
G1 X129.958 Y103.2 E.00763
;WIDTH:0.644837
G1 X130.122 Y103.224 E.0083
G1 X130.384 Y103.218 E.01311
;WIDTH:0.637979
G1 X131.507 Y103.213 E.05558
G1 X131.837 Y103.066 E.01788
G1 X131.837 Y103.806 E.03663
G1 X131.374 Y103.808 E.0229
;WIDTH:0.644837
G1 X130.174 Y103.821 E.06008
G1 X130.064 Y103.884 E.00633
;WIDTH:0.596558
G1 X130.031 Y103.903 E.00176
M204 S1000
G1 X130.231 Y104.37 F10800
M204 S800
;WIDTH:0.499999
G1 F1200
G1 X130.061 Y104.413 E.00669
G1 X129.835 Y104.607 E.01132
G1 X129.725 Y104.827 E.00933
G1 X129.698 Y105.019 E.00737
G1 X129.7 Y106.027 E.03831
G1 X129.736 Y107.065 E.03946
G1 X129.835 Y107.889 E.03156
G1 X129.524 Y107.814 E.01216
G1 X128.603 Y107.749 E.03512
G1 X127.961 Y107.743 E.02437
G1 X121.318 Y107.753 E.25248
G1 X120.754 Y107.782 E.02149
G1 X120.148 Y107.894 E.02342
G1 X120.277 Y107.163 E.02823
G1 X120.298 Y106.66 E.01912
G1 X120.301 Y105.217 E.05484
G1 X120.275 Y104.827 E.01485
G1 X120.165 Y104.607 E.00933
G1 X119.939 Y104.413 E.01132
G1 X119.616 Y104.332 E.01267
G1 X117.637 Y104.332 E.07523
G1 X117.637 Y102.759 E.05981
G1 X117.617 Y102.384 E.01427
;WIDTH:0.461558
G1 X117.598 Y102.009 E.01307
;WIDTH:0.423124
G1 X117.598 Y96.848 E.16314
G1 X117.978 Y96.849 E.01202
G1 X117.978 Y102.009 E.16312
;WIDTH:0.429459
G1 X117.985 Y102.121 E.00362
;WIDTH:0.464729
G1 X118.077 Y102.321 E.00771
;WIDTH:0.499999
G1 X118.169 Y102.52 E.00835
G1 X118.626 Y102.694 E.01857
G1 X131.374 Y102.694 E.48454
G1 X131.831 Y102.52 E.01857
G1 X131.923 Y102.321 E.00835
;WIDTH:0.464742
G1 X132.015 Y102.121 E.00771
;WIDTH:0.429485
G1 X132.022 Y102.009 E.00362
;WIDTH:0.423141
G1 X132.022 Y96.849 E.16312
G1 X132.402 Y96.849 E.01202
G1 X132.402 Y102.009 E.16312
;WIDTH:0.429485
G1 X132.399 Y102.154 E.00469
;WIDTH:0.464742
G1 X132.381 Y102.456 E.01062
;WIDTH:0.499999
G1 X132.363 Y102.759 E.0115
G1 X132.363 Y104.332 E.05981
G1 X130.384 Y104.332 E.07523
G1 X130.29 Y104.356 E.0037
M204 S1000
G1 X130.344 Y104.793 F10800
M204 S800
;TYPE:External perimeter
G1 F1200
G1 X130.201 Y104.881 E.00641
G1 X130.155 Y105.018 E.0055
G1 X130.158 Y106.026 E.03831
G1 X130.191 Y107.024 E.03793
G1 X130.246 Y107.635 E.02332
G1 X130.38 Y108.303 E.02589
;WIDTH:0.451819
G1 X130.404 Y108.468 E.00567
;WIDTH:0.403638
G1 X130.428 Y108.633 E.005
;WIDTH:0.355457
G1 X130.428 Y110.869 E.05811
G1 X130.379 Y111.07 E.00536
G1 X130.161 Y111.07 E.00565
G1 X130.115 Y110.906 E.00442
G1 X130.115 Y108.633 E.05907
;WIDTH:0.403638
G1 X130.078 Y108.558 E.00252
;WIDTH:0.451819
G1 X130.04 Y108.483 E.00285
;WIDTH:0.499999
G1 X130.002 Y108.408 E.00319
G1 X129.473 Y108.268 E.02081
G1 X128.954 Y108.21 E.01986
G1 X121.023 Y108.212 E.30141
G1 X120.493 Y108.274 E.02031
G1 X120.008 Y108.405 E.01906
G1 X119.967 Y108.481 E.00328
;WIDTH:0.451817
G1 X119.926 Y108.557 E.00294
;WIDTH:0.403635
G1 X119.885 Y108.633 E.00259
;WIDTH:0.355453
G1 X119.885 Y110.869 E.05811
G1 X119.839 Y111.07 E.00534
G1 X119.621 Y111.07 E.00565
G1 X119.572 Y110.89 E.00483
G1 X119.572 Y108.633 E.05865
;WIDTH:0.403635
G1 X119.596 Y108.456 E.00538
;WIDTH:0.451817
G1 X119.62 Y108.278 E.0061
;WIDTH:0.499999
G1 X119.817 Y107.175 E.04259
G1 X119.841 Y106.659 E.01962
G1 X119.845 Y105.018 E.06235
G1 X119.799 Y104.881 E.0055
G1 X119.616 Y104.789 E.00778
G1 X117.18 Y104.789 E.0926
G1 X117.18 Y96.466 E.31633
G1 X117.209 Y96.429 E.0018
G1 X118.397 Y96.435 E.04516
G1 X118.397 Y102.009 E.21184
G1 X118.473 Y102.179 E.0071
G1 X118.626 Y102.237 E.00619
G1 X131.374 Y102.237 E.48454
G1 X131.527 Y102.179 E.00619
G1 X131.603 Y102.009 E.0071
G1 X131.611 Y96.43 E.212
G1 X132.821 Y96.435 E.04595
G1 X132.82 Y104.789 E.31753
G1 X130.404 Y104.793 E.09182
M204 S1000
G1 X130.181 Y104.751 F10800
;WIPE_START
G1 F8640
G1 X130.201 Y104.881 E-.05125
G1 X130.155 Y105.018 E-.0334
G1 X130.158 Y106.026 E-.23275
G1 X130.191 Y107.024 E-.23045
G1 X130.246 Y107.635 E-.1417
G1 X130.306 Y107.934 E-.07045
;WIPE_END
G1 E-.04 F2100
G1 Z.6 F720
G1 X129.191 Y103.288 F10800
G1 Z.2 F720
G1 E.8 F2100
M204 S800
;TYPE:Solid infill
;WIDTH:0.510799
G1 F1200
G1 X129.642 Y103.74 E.02484
G1 X129.286 Y104.046 E.01825
G1 X128.735 Y103.494 E.03035
G1 X128.073 Y103.494 E.02574
G1 X129.031 Y104.452 E.05271
G1 X128.956 Y104.602 E.00653
G1 X128.902 Y104.985 E.01504
G1 X127.411 Y103.494 E.08203
G1 X126.75 Y103.494 E.02574
G1 X128.9 Y105.644 E.1183
G1 X128.901 Y106.307 E.0258
G1 X126.088 Y103.494 E.15478
G1 X125.426 Y103.494 E.02574
G1 X128.889 Y106.956 E.19049
G1 X128.217 Y106.946 E.02613
G1 X124.765 Y103.494 E.18995
G1 X124.103 Y103.494 E.02574
G1 X127.552 Y106.944 E.18979
G1 X126.892 Y106.945 E.02569
G1 X123.441 Y103.494 E.18987
G1 X122.78 Y103.494 E.02574
G1 X126.232 Y106.946 E.18995
G1 X125.572 Y106.948 E.02569
G1 X122.118 Y103.494 E.19003
G1 X121.456 Y103.494 E.02574
G1 X124.912 Y106.949 E.19011
G1 X124.251 Y106.951 E.02569
G1 X120.795 Y103.494 E.19019
