; generated by PrusaSlicer 2.5.0+win64 on 2023-01-31 at 11:47:02 UTC


;
;
; 

; external perimeters extrusion width = 0.50mm
; perimeters extrusion width = 0.50mm
; infill extrusion width = 0.50mm
; solid infill extrusion width = 0.50mm
; top infill extrusion width = 0.50mm
; support material extrusion width = 0.35mm
; first layer extrusion width = 0.50mm

; external perimeters extrusion width = 0.50mm
; perimeters extrusion width = 0.50mm
; infill extrusion width = 0.50mm
; solid infill extrusion width = 0.50mm
; top infill extrusion width = 0.50mm
; support material extrusion width = 0.35mm
; first layer extrusion width = 0.50mm

; external perimeters extrusion width = 0.50mm
; perimeters extrusion width = 0.50mm
; infill extrusion width = 0.50mm
; solid infill extrusion width = 0.50mm
; top infill extrusion width = 0.50mm
; support material extrusion width = 0.35mm
; first layer extrusion width = 0.50mm

; external perimeters extrusion width = 0.50mm
; perimeters extrusion width = 0.50mm
; infill extrusion width = 0.50mm
; solid infill extrusion width = 0.50mm
; top infill extrusion width = 0.50mm
; support material extrusion width = 0.35mm
; first layer extrusion width = 0.50mm

M73 P0 R69
M73 Q0 S70
M201 X1000 Y1000 Z200 E5000 ; sets maximum accelerations, mm/sec^2
M203 X200 Y200 Z12 E120 ; sets maximum feedrates, mm / sec
M204 P1250 R1250 T1250 ; sets acceleration (P, T) and retract acceleration (R), mm/sec^2
M205 X8.00 Y8.00 Z0.40 E4.50 ; sets the jerk limits, mm/sec
M205 S0 T0 ; sets the minimum extruding and travel feed rate, mm/sec
M107
;TYPE:Custom
M862.3 P "MK3S" ; printer model check
M862.1 P0.4 ; nozzle diameter check
M115 U3.11.0 ; tell printer latest fw version
G90 ; use absolute coordinates
M83 ; extruder relative mode
M104 S215 ; set extruder temp
M140 S60 ; set bed temp
M190 S60 ; wait for bed temp
M109 S215 ; wait for extruder temp
G28 W ; home all without mesh bed level
G80 ; mesh bed leveling

G1 Z0.2 F720
G1 Y-3 F1000 ; go outside print area
G92 E0
G1 X60 E9 F1000 ; intro line
G1 X100 E12.5 F1000 ; intro line

G92 E0
M221 S95

; Don't change E values below. Excessive value can damage the printer.
M907 E430 ; set extruder motor current
G21 ; set units to millimeters
G90 ; use absolute coordinates
M83 ; use relative distances for extrusion
M900 K0.05 ; Filament gcode LA 1.5
M900 K30 ; Filament gcode LA 1.0
M107
;LAYER_CHANGE
;Z:0.2
;HEIGHT:0.2
;BEFORE_LAYER_CHANGE
G92 E0.0
;0.2


G1 E-.8 F2100
G1 Z.4 F720
;AFTER_LAYER_CHANGE
;0.2
G1 X94.474 Y66.885 F10800
G1 Z.2 F720
G1 E.8 F2100
M204 S800
;TYPE:Skirt/Brim
;WIDTH:0.5
G1 F1200
G1 X95.537 Y65.993 E.05274
G1 X96.475 Y65.787 E.03647
G1 X134.105 Y65.08 E1.43045
G1 X167.597 Y65.08 E1.2729
G1 X168.928 Y65.472 E.05274
G1 X169.835 Y66.523 E.05274
G1 X170.054 Y67.537 E.03945
G1 X170.054 Y80.292 E.48477
G1 X169.787 Y103.197 E.87058
G1 X167.48 Y121.654 E.70693
G1 X165.066 Y129.047 E.2956
G1 X164.273 Y130.186 E.05274
G1 X162.781 Y130.727 E.06032
G1 X125.196 Y131.433 E1.42869
G1 X100.887 Y131.434 E.92392
G1 X99.556 Y131.042 E.05274
G1 X98.556 Y129.754 E.06198
G1 X96.142 Y122.36 E.2956
G1 X93.834 Y103.904 E.70693
G1 X93.815 Y86.257 E.6707
G1 X94.064 Y68.21 E.68594
G1 X94.456 Y66.942 E.05046
M204 S1000
; printing object LINK_65.stl id:2 copy 0
;WIPE_START
G1 F8640
G1 X95.537 Y65.993 E-.33215
G1 X96.475 Y65.787 E-.22159
G1 X97.368 Y65.771 E-.20626
;WIPE_END
G1 E-.04 F2100
G1 Z.6 F720
G1 X109.001 Y102.596 F10800
G1 Z.2 F720
G1 E.8 F2100
M204 S800
;TYPE:Support material
G1 F1200
G1 X104.89 Y102.596 E.15624
G1 X104.889 Y95.151 E.28298
G1 X104.807 Y94.95 E.00824
G1 X104.6 Y94.75 E.01095
G1 X104.323 Y94.569 E.01255
G1 X104.096 Y94.484 E.00924
G1 X103.791 Y94.443 E.0117
G1 X101.912 Y94.446 E.07142
G1 X101.582 Y94.519 E.01283
G1 X101.296 Y94.668 E.01224
G1 X100.98 Y94.952 E.01615
G1 X100.898 Y95.152 E.00823
G1 X100.898 Y103.599 E.32104
G1 X96.273 Y103.599 E.17579
G1 X96.273 Y86.257 E.65912
G1 X109.001 Y86.257 E.48375
G1 X109.001 Y102.528 E.61841
M204 S1000
G1 X108.448 Y102.391 F10800
M204 S800
G1 F1200
G1 X108.448 Y86.668 E.59756
G1 X107.94 Y86.668 E.0193
G1 X107.94 Y102.185 E.58975
G1 X107.432 Y102.185 E.0193
G1 X107.432 Y86.668 E.58975
G1 X106.924 Y86.668 E.0193
G1 X106.924 Y102.185 E.58975
G1 X106.416 Y102.185 E.0193
G1 X106.416 Y86.668 E.58975
G1 X105.908 Y86.668 E.0193
G1 X105.908 Y102.185 E.58975
G1 X105.4 Y102.185 E.0193
G1 X105.4 Y86.668 E.58975
G1 X104.893 Y86.668 E.0193
G1 X104.893 Y94.459 E.29612
G1 X104.639 Y94.273 E.01196
G1 X104.385 Y94.147 E.01078
G1 X104.385 Y86.668 E.28425
G1 X103.877 Y86.668 E.0193
G1 X103.877 Y94.035 E.27998
G1 X103.369 Y94.031 E.0193
G1 X103.369 Y86.668 E.27985
G1 X102.861 Y86.668 E.0193
G1 X102.861 Y94.031 E.27985
G1 X102.353 Y94.031 E.0193
G1 X102.353 Y86.668 E.27985
G1 X101.845 Y86.668 E.0193
G1 X101.845 Y94.039 E.28015
G1 X101.59 Y94.085 E.00986
G1 X101.338 Y94.175 E.01019
G1 X101.338 Y86.668 E.28532
G1 X100.83 Y86.668 E.0193
G1 X100.83 Y94.518 E.29836
G1 X100.63 Y94.721 E.01081
G1 X100.486 Y95.071 E.01439
G1 X100.486 Y103.188 E.30848
G1 X100.322 Y103.188 E.00626
G1 X100.322 Y86.668 E.62785
G1 X99.814 Y86.668 E.0193
G1 X99.814 Y103.188 E.62785
G1 X99.306 Y103.188 E.0193
G1 X99.306 Y86.668 E.62785
G1 X98.798 Y86.668 E.0193
G1 X98.798 Y103.188 E.62785
G1 X98.29 Y103.188 E.0193
G1 X98.29 Y86.668 E.62785
G1 X97.782 Y86.668 E.0193
M73 Q0 S69
G1 X97.782 Y103.188 E.62785
G1 X97.275 Y103.188 E.0193
G1 X97.275 Y86.668 E.62785
G1 X96.767 Y86.668 E.0193
G1 X96.767 Y103.393 E.63566
M204 S1000
;WIPE_START
G1 F8640
M73 P1 R69
G1 X96.767 Y100.102 E-.76
;WIPE_END
G1 E-.04 F2100
G1 Z.6 F720
M73 Q1 S69
G1 X101.356 Y108.566 F10800
G1 Z.2 F720
G1 E.8 F2100
M204 S800
;TYPE:Support material interface
;WIDTH:0.35
G1 F1200
G1 X101.356 Y109.924 E.03467
G1 X100.849 Y109.924 E.01295
G1 X100.849 Y108.355 E.04007
G1 X100.794 Y108.3 E.00196
G1 X100.794 Y107.617 E.01745
G1 X100.341 Y107.617 E.01156
G1 X100.341 Y109.924 E.05891
G1 X99.834 Y109.924 E.01295
G1 X99.834 Y107.617 E.05891
G1 X99.327 Y107.617 E.01295
G1 X99.327 Y109.924 E.05891
M204 S1000
G1 X98.772 Y110.327 F10800
M204 S800
;TYPE:Support material
;WIDTH:0.5
G1 F1200
G1 X101.887 Y110.327 E.11837
G1 X101.887 Y109.327 E.03801
G1 X104.639 Y109.327 E.10461
G1 X104.639 Y114.134 E.18269
G1 X103.387 Y114.134 E.04761
G1 X103.387 Y117.249 E.11837
G1 X105.468 Y117.249 E.07912
G1 X105.324 Y117.104 E.00778
G1 X105.884 Y117.104 E.02128
G1 X105.912 Y117.104 E.00107
G1 X105.767 Y117.249 E.00778
G1 X108.808 Y117.249 E.11556
G1 X108.808 Y114.249 E.11402
G1 X111.308 Y114.248 E.09501
G1 X111.308 Y128.977 E.55979
G1 X100.887 Y128.977 E.39607
G1 X100.887 Y122.056 E.26305
G1 X98.58 Y122.056 E.08768
G1 X98.58 Y109.327 E.48375
G1 X98.772 Y109.327 E.00732
G1 X98.772 Y110.259 E.0354
M204 S1000
G1 X110.479 Y128.771 F10800
M204 S800
G1 F1200
G1 X110.479 Y114.66 E.53633
G1 X109.971 Y114.66 E.0193
G1 X109.971 Y128.565 E.52851
G1 X109.463 Y128.565 E.0193
G1 X109.463 Y114.66 E.5285
G1 X109.219 Y114.66 E.00928
G1 X109.219 Y117.66 E.11402
G1 X108.956 Y117.66 E.01003
G1 X108.956 Y128.565 E.41447
G1 X108.448 Y128.565 E.0193
G1 X108.448 Y117.66 E.41447
G1 X107.94 Y117.66 E.0193
G1 X107.94 Y128.565 E.41447
G1 X107.432 Y128.565 E.0193
G1 X107.432 Y117.66 E.41447
G1 X106.924 Y117.66 E.0193
G1 X106.924 Y128.565 E.41447
G1 X106.416 Y128.565 E.0193
G1 X106.416 Y117.66 E.41447
G1 X105.908 Y117.66 E.0193
G1 X105.908 Y128.565 E.41447
G1 X105.4 Y128.565 E.0193
G1 X105.4 Y117.66 E.41447
G1 X104.893 Y117.66 E.0193
G1 X104.893 Y128.565 E.41447
G1 X104.385 Y128.565 E.0193
M73 P1 R68
G1 X104.385 Y117.66 E.41447
G1 X103.877 Y117.66 E.0193
G1 X103.877 Y128.565 E.41447
G1 X103.369 Y128.565 E.0193
G1 X103.369 Y117.66 E.41447
G1 X102.975 Y117.66 E.01497
G1 X102.975 Y113.723 E.14964
G1 X103.369 Y113.723 E.01497
G1 X103.369 Y109.739 E.15142
G1 X103.877 Y109.739 E.0193
G1 X103.877 Y113.929 E.15924
M204 S1000
;WIPE_START
G1 F8640
G1 X103.877 Y110.637 E-.76
;WIPE_END
G1 E-.04 F2100
G1 Z.6 F720
G1 X102.861 Y128.771 F10800
G1 Z.2 F720
G1 E.8 F2100
M204 S800
G1 F1200
G1 X102.861 Y109.739 E.72335
G1 X102.353 Y109.739 E.0193
G1 X102.353 Y128.565 E.71553
G1 X101.845 Y128.565 E.0193
G1 X101.845 Y110.739 E.67752
G1 X101.338 Y110.739 E.0193
G1 X101.338 Y128.565 E.67752
G1 X101.298 Y128.565 E.0015
G1 X101.298 Y121.644 E.26305
G1 X100.83 Y121.644 E.0178
G1 X100.83 Y110.739 E.41447
G1 X100.322 Y110.739 E.0193
G1 X100.322 Y121.644 E.41447
G1 X99.814 Y121.644 E.0193
G1 X99.814 Y110.739 E.41447
G1 X99.306 Y110.739 E.0193
G1 X99.306 Y121.85 E.42229
M204 S1000
;WIPE_START
G1 F8640
G1 X99.306 Y118.558 E-.76
;WIPE_END
G1 E-.04 F2100
G1 Z.6 F720
G1 X103.891 Y114.538 F10800
G1 Z.2 F720
G1 E.8 F2100
M204 S800
;TYPE:Support material interface
;WIDTH:0.35
G1 F1200
G1 X103.891 Y116.845 E.05891
G1 X104.398 Y116.845 E.01295
G1 X104.398 Y114.538 E.05891
M204 S1000
;WIPE_START
G1 F8640
G1 X104.398 Y116.845 E-.53272
G1 X103.891 Y116.845 E-.11709
G1 X103.891 Y116.368 E-.1102
;WIPE_END
G1 E-.04 F2100
G1 Z.6 F720
G1 X106.7 Y116.399 F10800
G1 Z.2 F720
G1 E.8 F2100
M204 S800
G1 F1200
G1 X106.7 Y116.845 E.01139
G1 X106.934 Y116.845 E.00597
G1 X106.934 Y114.538 E.05891
G1 X107.441 Y114.538 E.01295
G1 X107.441 Y116.845 E.05891
G1 X107.948 Y116.845 E.01295
G1 X107.948 Y114.538 E.05891
G1 X108.404 Y114.538 E.01166
G1 X108.404 Y116.845 E.05891
G1 X108.101 Y116.845 E.00774
M204 S1000
;WIPE_START
G1 F8640
G1 X108.404 Y116.845 E-.06999
G1 X108.404 Y114.538 E-.53272
G1 X107.948 Y114.538 E-.10544
G1 X107.948 Y114.763 E-.05185
;WIPE_END
G1 E-.04 F2100
G1 Z.6 F720
G1 X117.936 Y114.538 F10800
G1 Z.2 F720
G1 E.8 F2100
M204 S800
G1 F1200
G1 X117.633 Y114.538 E.00774
G1 X117.633 Y116.845 E.05891
G1 X118.089 Y116.845 E.01166
G1 X118.089 Y114.538 E.05891
G1 X118.596 Y114.538 E.01295
G1 X118.596 Y116.845 E.05891
G1 X119.103 Y116.845 E.01295
G1 X119.103 Y114.538 E.05891
G1 X119.337 Y114.538 E.00597
G1 X119.337 Y114.984 E.0114
M204 S1000
;WIPE_START
G1 F8640
G1 X119.337 Y114.538 E-.10308
G1 X119.103 Y114.538 E-.05397
G1 X119.103 Y116.845 E-.53272
G1 X118.799 Y116.845 E-.07023
;WIPE_END
G1 E-.04 F2100
G1 Z.6 F720
G1 X121.639 Y114.538 F10800
G1 Z.2 F720
G1 E.8 F2100
M204 S800
G1 F1200
G1 X121.639 Y116.845 E.05891
G1 X122.146 Y116.845 E.01295
G1 X122.146 Y114.538 E.05891
M204 S1000
;WIPE_START
G1 F8640
G1 X122.146 Y116.845 E-.53272
G1 X121.639 Y116.845 E-.11709
G1 X121.639 Y116.368 E-.1102
;WIPE_END
G1 E-.04 F2100
G1 Z.6 F720
G1 X124.15 Y110.327 F10800
G1 Z.2 F720
G1 E.8 F2100
M204 S800
;TYPE:Support material
;WIDTH:0.5
G1 F1200
G1 X127.265 Y110.327 E.11837
G1 X127.265 Y109.327 E.03801
G1 X127.457 Y109.327 E.00732
G1 X127.457 Y122.056 E.48375
G1 X125.15 Y122.056 E.08768
G1 X125.15 Y128.977 E.26305
G1 X114.729 Y128.977 E.39607
G1 X114.729 Y114.249 E.55976
G1 X117.229 Y114.249 E.09501
G1 X117.229 Y117.249 E.11402
G1 X120.27 Y117.249 E.11557
G1 X120.125 Y117.104 E.00778
G1 X120.713 Y117.104 E.02236
G1 X120.569 Y117.249 E.00778
G1 X122.65 Y117.249 E.07912
G1 X122.65 Y114.134 E.11837
G1 X121.398 Y114.134 E.04761
G1 X121.398 Y109.327 E.18269
G1 X124.15 Y109.327 E.10461
G1 X124.15 Y110.259 E.0354
M204 S1000
G1 X126.731 Y121.85 F10800
M204 S800
G1 F1200
G1 X126.731 Y110.739 E.42229
G1 X126.223 Y110.739 E.0193
G1 X126.223 Y121.644 E.41447
G1 X125.715 Y121.644 E.0193
G1 X125.715 Y110.739 E.41447
G1 X125.207 Y110.739 E.0193
G1 X125.207 Y121.644 E.41447
G1 X124.739 Y121.644 E.0178
G1 X124.739 Y128.565 E.26305
G1 X124.699 Y128.565 E.0015
G1 X124.699 Y110.739 E.67752
G1 X124.192 Y110.739 E.0193
G1 X124.192 Y128.565 E.67752
G1 X123.684 Y128.565 E.0193
G1 X123.684 Y109.739 E.71553
G1 X123.176 Y109.739 E.0193
G1 X123.176 Y128.565 E.71553
G1 X122.668 Y128.565 E.0193
G1 X122.668 Y117.66 E.41447
G1 X122.16 Y117.66 E.0193
G1 X122.16 Y128.565 E.41447
G1 X121.652 Y128.565 E.0193
G1 X121.652 Y117.66 E.41447
G1 X121.144 Y117.66 E.0193
G1 X121.144 Y128.565 E.41447
G1 X120.636 Y128.565 E.0193
G1 X120.636 Y117.66 E.41447
G1 X120.129 Y117.66 E.0193
G1 X120.129 Y128.565 E.41447
G1 X119.621 Y128.565 E.0193
G1 X119.621 Y117.66 E.41447
G1 X119.113 Y117.66 E.0193
G1 X119.113 Y128.565 E.41447
G1 X118.605 Y128.565 E.0193
M73 P2 R68
G1 X118.605 Y117.66 E.41447
M73 Q2 S69
G1 X118.097 Y117.66 E.0193
G1 X118.097 Y128.565 E.41447
G1 X117.589 Y128.565 E.0193
G1 X117.589 Y117.66 E.41447
G1 X117.081 Y117.66 E.0193
G1 X117.081 Y128.565 E.41447
G1 X116.574 Y128.565 E.0193
G1 X116.574 Y114.66 E.52849
G1 X116.066 Y114.66 E.0193
G1 X116.066 Y128.565 E.52849
G1 X115.558 Y128.565 E.0193
G1 X115.558 Y114.454 E.53631
M204 S1000
;WIPE_START
G1 F8640
G1 X115.558 Y117.746 E-.76
;WIPE_END
G1 E-.04 F2100
G1 Z.6 F720
G1 X122.668 Y113.929 F10800
G1 Z.2 F720
G1 E.8 F2100
M204 S800
G1 F1200
G1 X122.668 Y109.739 E.15924
G1 X122.16 Y109.739 E.0193
G1 X122.16 Y113.929 E.15924
M204 S1000
;WIPE_START
G1 F8640
G1 X122.16 Y110.637 E-.76
;WIPE_END
G1 E-.04 F2100
G1 Z.6 F720
G1 X125.035 Y109.924 F10800
G1 Z.2 F720
G1 E.8 F2100
M204 S800
;TYPE:Support material interface
;WIDTH:0.35
G1 F1200
G1 X124.681 Y109.924 E.00903
G1 X124.681 Y108.566 E.03467
G1 X124.977 Y108.566 E.00755
G1 X125.08 Y108.463 E.00371
M204 S1000
G1 X125.243 Y107.617 F10800
M204 S800
G1 F1200
G1 X125.243 Y108.3 E.01745
G1 X125.188 Y108.355 E.00196
G1 X125.188 Y109.924 E.04007
G1 X125.695 Y109.924 E.01295
G1 X125.695 Y107.617 E.05891
G1 X126.203 Y107.617 E.01295
G1 X126.203 Y109.924 E.05891
G1 X126.71 Y109.924 E.01295
G1 X126.71 Y107.617 E.05891
M204 S1000
;WIPE_START
G1 F8640
G1 X126.71 Y109.924 E-.53272
G1 X126.203 Y109.924 E-.11709
G1 X126.203 Y109.447 E-.1102
;WIPE_END
G1 E-.04 F2100
G1 Z.6 F720
G1 X129.764 Y103.599 F10800
G1 Z.2 F720
G1 E.8 F2100
M204 S800
;TYPE:Support material
;WIDTH:0.5
G1 F1200
G1 X125.139 Y103.599 E.17579
G1 X125.138 Y95.151 E.32108
G1 X125.056 Y94.95 E.00824
G1 X124.741 Y94.668 E.01609
G1 X124.455 Y94.519 E.01225
G1 X124.125 Y94.446 E.01283
G1 X122.246 Y94.443 E.07143
G1 X121.942 Y94.484 E.01168
G1 X121.714 Y94.569 E.00924
G1 X121.437 Y94.75 E.01256
G1 X121.229 Y94.952 E.011
G1 X121.147 Y95.152 E.00823
G1 X121.147 Y102.596 E.28293
G1 X117.036 Y102.596 E.15624
G1 X117.036 Y86.257 E.62102
G1 X129.764 Y86.257 E.48375
G1 X129.764 Y103.53 E.65651
M204 S1000
G1 X129.27 Y103.393 F10800
M204 S800
G1 F1200
G1 X129.27 Y86.668 E.63566
G1 X128.762 Y86.668 E.0193
G1 X128.762 Y103.188 E.62785
G1 X128.254 Y103.188 E.0193
G1 X128.254 Y86.668 E.62785
G1 X127.747 Y86.668 E.0193
G1 X127.747 Y103.188 E.62785
G1 X127.239 Y103.188 E.0193
G1 X127.239 Y86.668 E.62785
G1 X126.731 Y86.668 E.0193
M73 Q2 S68
G1 X126.731 Y103.188 E.62785
G1 X126.223 Y103.188 E.0193
G1 X126.223 Y86.668 E.62785
G1 X125.715 Y86.668 E.0193
G1 X125.715 Y103.188 E.62785
G1 X125.551 Y103.188 E.00626
G1 X125.55 Y95.07 E.30853
G1 X125.406 Y94.719 E.01441
G1 X125.207 Y94.518 E.01074
G1 X125.207 Y86.668 E.29835
G1 X124.699 Y86.668 E.0193
G1 X124.699 Y94.175 E.28532
G1 X124.447 Y94.085 E.01018
G1 X124.192 Y94.039 E.00987
G1 X124.192 Y86.668 E.28015
G1 X123.684 Y86.668 E.0193
G1 X123.684 Y94.031 E.27985
G1 X123.176 Y94.031 E.0193
G1 X123.176 Y86.668 E.27985
G1 X122.668 Y86.668 E.0193
G1 X122.668 Y94.031 E.27985
G1 X122.16 Y94.035 E.0193
G1 X122.16 Y86.668 E.27998
G1 X121.652 Y86.668 E.0193
G1 X121.652 Y94.147 E.28425
G1 X121.398 Y94.274 E.0108
G1 X121.144 Y94.459 E.01195
G1 X121.144 Y86.668 E.29612
G1 X120.636 Y86.668 E.0193
G1 X120.636 Y102.185 E.58975
G1 X120.129 Y102.185 E.0193
G1 X120.129 Y86.668 E.58975
G1 X119.621 Y86.668 E.0193
G1 X119.621 Y102.185 E.58975
G1 X119.113 Y102.185 E.0193
G1 X119.113 Y86.668 E.58975
G1 X118.605 Y86.668 E.0193
G1 X118.605 Y102.185 E.58975
G1 X118.097 Y102.185 E.0193
G1 X118.097 Y86.668 E.58975
G1 X117.589 Y86.668 E.0193
G1 X117.589 Y102.391 E.59756
M204 S1000
;WIPE_START
G1 F8640
G1 X117.589 Y99.099 E-.76
;WIPE_END
G1 E-.04 F2100
G1 Z.6 F720
G1 X119.498 Y107.559 F10800
G1 Z.2 F720
G1 E.8 F2100
M204 S800
;TYPE:Perimeter
;WIDTH:0.499999
G1 F1200
G1 X119.484 Y107.692 E.00507
G1 X119.49 Y110.884 E.12132
G1 X119.531 Y111.399 E.01965
G1 X118.929 Y111.346 E.02296
G1 X117.999 Y111.336 E.03536
G1 X107.54 Y111.337 E.39749
G1 X106.506 Y111.402 E.03938
G1 X106.551 Y110.794 E.02318
