; generated by PrusaSlicer 2.5.0+win64 on 2023-01-23 at 12:14:47 UTC


;
;
; 

; external perimeters extrusion width = 0.50mm
; perimeters extrusion width = 0.50mm
; infill extrusion width = 0.50mm
; solid infill extrusion width = 0.50mm
; top infill extrusion width = 0.50mm
; first layer extrusion width = 0.50mm

; external perimeters extrusion width = 0.50mm
; perimeters extrusion width = 0.50mm
; infill extrusion width = 0.50mm
; solid infill extrusion width = 0.50mm
; top infill extrusion width = 0.50mm
; first layer extrusion width = 0.50mm

; external perimeters extrusion width = 0.50mm
; perimeters extrusion width = 0.50mm
; infill extrusion width = 0.50mm
; solid infill extrusion width = 0.50mm
; top infill extrusion width = 0.50mm
; first layer extrusion width = 0.50mm

; external perimeters extrusion width = 0.50mm
; perimeters extrusion width = 0.50mm
; infill extrusion width = 0.50mm
; solid infill extrusion width = 0.50mm
; top infill extrusion width = 0.50mm
; first layer extrusion width = 0.50mm

M73 P0 R17
M73 Q0 S18
M201 X1000 Y1000 Z200 E5000 ; sets maximum accelerations, mm/sec^2
M203 X200 Y200 Z12 E120 ; sets maximum feedrates, mm / sec
M204 P1250 R1250 T1250 ; sets acceleration (P, T) and retract acceleration (R), mm/sec^2
M205 X8.00 Y8.00 Z0.40 E4.50 ; sets the jerk limits, mm/sec
M205 S0 T0 ; sets the minimum extruding and travel feed rate, mm/sec
M107
;TYPE:Custom
M862.3 P "MK3S" ; printer model check
M862.1 P0.4 ; nozzle diameter check
M115 U3.11.0 ; tell printer latest fw version
G90 ; use absolute coordinates
M83 ; extruder relative mode
M104 S215 ; set extruder temp
M140 S60 ; set bed temp
M190 S60 ; wait for bed temp
M109 S215 ; wait for extruder temp
G28 W ; home all without mesh bed level
G80 ; mesh bed leveling

G1 Z0.2 F720
G1 Y-3 F1000 ; go outside print area
G92 E0
G1 X60 E9 F1000 ; intro line
G1 X100 E12.5 F1000 ; intro line

G92 E0
M221 S95

; Don't change E values below. Excessive value can damage the printer.
M907 E430 ; set extruder motor current
G21 ; set units to millimeters
G90 ; use absolute coordinates
M83 ; use relative distances for extrusion
M900 K0.05 ; Filament gcode LA 1.5
M900 K30 ; Filament gcode LA 1.0
M107
;LAYER_CHANGE
;Z:0.3
;HEIGHT:0.3
;BEFORE_LAYER_CHANGE
G92 E0.0
;0.3


M73 Q0 S17
G1 E-.8 F2100
G1 Z.4 F720
;AFTER_LAYER_CHANGE
;0.3
G1 X116.669 Y99.917 F10800
G1 Z.3 F720
G1 E.8 F2100
M204 S800
;TYPE:Skirt/Brim
;WIDTH:0.5
G1 F1200
G1 X117.432 Y99.225 E.05596
G1 X123.782 Y95.558 E.39839
G1 X125.049 Y95.233 E.07109
G1 X142.777 Y95.593 E.96336
G1 X143.945 Y95.919 E.0659
G1 X150.295 Y99.585 E.39839
G1 X151.246 Y100.586 E.07506
G1 X151.513 Y101.694 E.0619
G1 X151.513 Y109.051 E.39974
G1 X151.31 Y128.833 E1.07486
G1 X150.904 Y130.154 E.07506
G1 X150.092 Y130.917 E.06058
M73 Q1 S17
G1 X143.742 Y134.584 E.39839
G1 X142.498 Y134.91 E.06988
M73 P1 R17
G1 X124.056 Y134.711 E1.00206
G1 X122.865 Y134.385 E.06712
G1 X116.515 Y130.718 E.39839
G1 X115.563 Y129.717 E.07506
G1 X115.297 Y128.609 E.0619
G1 X115.297 Y121.277 E.39839
G1 X116.217 Y101.222 E1.09078
G1 X116.65 Y99.973 E.0718
M204 S1000
; printing object M8 nut .stl id:3 copy 0
;WIPE_START
G1 F8640
G1 X117.432 Y99.225 E-.25008
G1 X119.345 Y98.12 E-.50992
;WIPE_END
G1 E-.04 F2100
G1 Z.7 F720
G1 X126.201 Y129.452 F10800
G1 Z.3 F720
G1 E.8 F2100
M204 S800
;TYPE:Perimeter
;WIDTH:0.629273
G1 F1200
G1 X126.154 Y129.504 E.00492
;WIDTH:0.586783
G1 X126.107 Y129.555 E.00455
;WIDTH:0.544293
G1 X126.06 Y129.607 E.00418
;WIDTH:0.501804
G1 X126.013 Y129.658 E.00381
;WIDTH:0.459314
G1 X125.966 Y129.71 E.00344
;WIDTH:0.416824
G1 X125.919 Y129.762 E.00307
;WIDTH:0.409963
G1 X125.659 Y129.891 E.01251
;WIDTH:0.445591
G1 X125.4 Y130.021 E.0138
;WIDTH:0.48122
G1 X125.14 Y130.15 E.01509
;WIDTH:0.523927
G1 X124.928 Y130.247 E.01335
;WIDTH:0.566634
G1 X124.717 Y130.345 E.01459
;WIDTH:0.609342
G1 X124.505 Y130.442 E.01583
;WIDTH:0.652049
G1 X124.294 Y130.54 E.01707
;WIDTH:0.694757
G1 X124.082 Y130.637 E.01831
G1 X123.754 Y130.472 E.02891
;WIDTH:0.652138
G1 X123.583 Y130.398 E.01366
;WIDTH:0.60952
G1 X123.412 Y130.324 E.01267
;WIDTH:0.566902
G1 X123.241 Y130.25 E.01168
;WIDTH:0.524284
G1 X122.957 Y130.112 E.0181
;WIDTH:0.478274
G1 X122.673 Y129.975 E.01629
;WIDTH:0.432265
G1 X122.389 Y129.838 E.01448
;WIDTH:0.386256
G1 X121.569 Y129.392 E.03745
;WIDTH:0.37769
G1 X120.767 Y128.906 E.03666
;WIDTH:0.421838
G1 X120.501 Y128.727 E.01431
;WIDTH:0.465986
G1 X120.234 Y128.548 E.01607
;WIDTH:0.510134
G1 X119.968 Y128.368 E.01784
;WIDTH:0.555923
G1 X119.764 Y128.224 E.01535
;WIDTH:0.601713
G1 X119.559 Y128.079 E.01678
;WIDTH:0.647502
G1 X119.355 Y127.935 E.01821
;WIDTH:0.693292
G1 X119.15 Y127.79 E.01964
G1 X119.128 Y127.429 E.02838
;WIDTH:0.649049
G1 X119.104 Y127.19 E.01755
;WIDTH:0.600652
G1 X119.08 Y126.95 E.0161
;WIDTH:0.552255
G1 X119.055 Y126.711 E.01465
;WIDTH:0.503858
G1 X119.031 Y126.471 E.01319
;WIDTH:0.455462
G1 X119.007 Y126.017 E.0222
;WIDTH:0.405865
G1 X118.982 Y125.562 E.01939
;WIDTH:0.356269
G1 X118.973 Y124.846 E.02607
;WIDTH:0.365771
G1 X118.986 Y124.371 E.01789
;WIDTH:0.393102
G1 X119 Y123.895 E.01951
;WIDTH:0.442713
G1 X119.025 Y123.573 E.01524
;WIDTH:0.492325
G1 X119.05 Y123.251 E.01724
;WIDTH:0.541937
G1 X119.075 Y122.929 E.01923
;WIDTH:0.580756
G1 X119.094 Y122.721 E.01347
;WIDTH:0.619576
G1 X119.113 Y122.513 E.01448
;WIDTH:0.658395
G1 X119.133 Y122.305 E.01549
;WIDTH:0.697215
G1 X119.152 Y122.096 E.01651
G1 X120.43 Y121.359 E.11642
G1 X121.069 Y120.961 E.05943
;WIDTH:0.652045
G1 X121.041 Y120.981 E.00253
;WIDTH:0.697215
G1 X120.338 Y121.605 E.07416
G1 X119.9 Y122.174 E.05665
G1 X119.751 Y122.422 E.02287
G1 X119.695 Y122.585 E.01359
;WIDTH:0.656718
G1 X119.64 Y122.748 E.01272
;WIDTH:0.616222
G1 X119.584 Y122.911 E.01185
;WIDTH:0.575725
G1 X119.528 Y123.074 E.01098
;WIDTH:0.535229
G1 X119.473 Y123.237 E.01011
;WIDTH:0.494733
G1 X119.414 Y123.536 E.01635
;WIDTH:0.45383
G1 X119.355 Y123.835 E.0148
;WIDTH:0.412927
G1 X119.297 Y124.134 E.01324
;WIDTH:0.372025
G1 X119.245 Y125.024 E.0342
;WIDTH:0.370906
G1 X119.291 Y125.718 E.0266
;WIDTH:0.412377
G1 X119.349 Y126.02 E.01334
;WIDTH:0.453848
G1 X119.406 Y126.322 E.01493
;WIDTH:0.495319
G1 X119.463 Y126.623 E.01651
;WIDTH:0.533751
G1 X119.519 Y126.795 E.01056
;WIDTH:0.572184
G1 X119.575 Y126.967 E.01143
;WIDTH:0.610616
G1 X119.631 Y127.138 E.01229
;WIDTH:0.649049
G1 X119.687 Y127.31 E.01316
;WIDTH:0.669739
G1 X119.786 Y127.505 E.01654
G1 X119.911 Y127.642 E.01398
;WIDTH:0.629371
G1 X120.036 Y127.779 E.01304
;WIDTH:0.589004
G1 X120.16 Y127.915 E.01211
;WIDTH:0.548637
G1 X120.285 Y128.052 E.01118
;WIDTH:0.50827
G1 X120.41 Y128.189 E.01025
;WIDTH:0.467903
G1 X120.643 Y128.383 E.01528
;WIDTH:0.432071
G1 X120.876 Y128.578 E.01392
;WIDTH:0.396239
G1 X121.109 Y128.772 E.01256
;WIDTH:0.360407
G1 X121.879 Y129.251 E.03347
;WIDTH:0.376221
G1 X122.296 Y129.435 E.01775
;WIDTH:0.411117
G1 X122.714 Y129.62 E.01974
;WIDTH:0.450514
G1 X122.931 Y129.683 E.01088
;WIDTH:0.489911
G1 X123.148 Y129.746 E.01199
;WIDTH:0.529308
G1 X123.365 Y129.808 E.0131
;WIDTH:0.568705
G1 X123.582 Y129.871 E.01421
;WIDTH:0.610723
G1 X123.754 Y129.9 E.01187
;WIDTH:0.65274
G1 X123.925 Y129.929 E.01278
;WIDTH:0.694757
G1 X124.097 Y129.958 E.0137
G1 X124.202 Y129.939 E.00838
;WIDTH:0.661969
G1 X124.307 Y129.92 E.00794
;WIDTH:0.629182
G1 X124.531 Y129.865 E.01625
;WIDTH:0.582805
G1 X124.755 Y129.811 E.01492
;WIDTH:0.536428
G1 X124.979 Y129.757 E.01358
;WIDTH:0.490051
G1 X125.203 Y129.702 E.01225
;WIDTH:0.443674
G1 X125.499 Y129.591 E.01495
;WIDTH:0.409004
G1 X125.795 Y129.48 E.01359
;WIDTH:0.416824
G1 X125.863 Y129.475 E.00298
;WIDTH:0.459314
G1 X125.93 Y129.47 E.00334
;WIDTH:0.501804
G1 X125.998 Y129.466 E.0037
;WIDTH:0.544293
G1 X126.066 Y129.461 E.00406
;WIDTH:0.586783
G1 X126.133 Y129.456 E.00442
;WIDTH:0.629273
G1 X126.141 Y129.456 E.00055
M204 S1000
;WIPE_START
G1 F8640
G1 X126.154 Y129.504 E-.01137
G1 X126.107 Y129.555 E-.01612
G1 X126.06 Y129.607 E-.01612
G1 X126.013 Y129.658 E-.01612
G1 X125.966 Y129.71 E-.01612
G1 X125.919 Y129.762 E-.01612
G1 X125.659 Y129.891 E-.06701
G1 X125.4 Y130.021 E-.06701
G1 X125.14 Y130.15 E-.06701
G1 X124.928 Y130.247 E-.05377
G1 X124.717 Y130.345 E-.05377
G1 X124.505 Y130.442 E-.05377
G1 X124.294 Y130.54 E-.05377
G1 X124.082 Y130.637 E-.05377
G1 X123.754 Y130.472 E-.08491
G1 X123.583 Y130.398 E-.04303
G1 X123.412 Y130.324 E-.04303
G1 X123.304 Y130.277 E-.0272
;WIPE_END
G1 E-.04 F2100
G1 Z.7 F720
G1 X127.124 Y128.904 F10800
G1 Z.3 F720
G1 E.8 F2100
M204 S800
;WIDTH:0.697215
G1 F1200
G1 X127.827 Y128.281 E.07416
G1 X128.265 Y127.712 E.05665
G1 X128.414 Y127.464 E.02287
G1 X128.469 Y127.301 E.01359
;WIDTH:0.656719
G1 X128.525 Y127.138 E.01272
;WIDTH:0.616223
G1 X128.581 Y126.975 E.01185
;WIDTH:0.575726
G1 X128.636 Y126.812 E.01098
;WIDTH:0.53523
G1 X128.692 Y126.649 E.01011
;WIDTH:0.494734
G1 X128.751 Y126.35 E.01635
;WIDTH:0.453831
G1 X128.809 Y126.051 E.0148
;WIDTH:0.412928
G1 X128.868 Y125.752 E.01324
;WIDTH:0.372026
G1 X128.92 Y124.862 E.0342
;WIDTH:0.370906
G1 X128.873 Y124.168 E.0266
;WIDTH:0.412377
G1 X128.816 Y123.866 E.01334
;WIDTH:0.453849
G1 X128.759 Y123.564 E.01493
;WIDTH:0.495321
G1 X128.701 Y123.262 E.01651
;WIDTH:0.533753
G1 X128.645 Y123.091 E.01056
;WIDTH:0.572186
G1 X128.589 Y122.919 E.01143
;WIDTH:0.610618
G1 X128.534 Y122.748 E.01229
;WIDTH:0.649051
G1 X128.478 Y122.576 E.01316
;WIDTH:0.669735
G1 X128.379 Y122.381 E.01654
G1 X128.254 Y122.244 E.01398
;WIDTH:0.629368
G1 X128.129 Y122.107 E.01304
;WIDTH:0.589001
G1 X128.004 Y121.97 E.01211
;WIDTH:0.548635
G1 X127.88 Y121.834 E.01118
;WIDTH:0.508268
G1 X127.755 Y121.697 E.01025
;WIDTH:0.467902
G1 X127.522 Y121.502 E.01528
;WIDTH:0.43207
G1 X127.289 Y121.308 E.01392
;WIDTH:0.396238
G1 X127.056 Y121.114 E.01256
;WIDTH:0.360407
G1 X126.286 Y120.635 E.03347
;WIDTH:0.374075
G1 X125.88 Y120.454 E.01716
;WIDTH:0.406823
G1 X125.474 Y120.273 E.01898
;WIDTH:0.44641
G1 X125.245 Y120.203 E.01142
;WIDTH:0.485997
G1 X125.016 Y120.133 E.01261
;WIDTH:0.525584
G1 X124.786 Y120.063 E.01379
;WIDTH:0.566978
G1 X124.609 Y120.03 E.01133
;WIDTH:0.608371
G1 X124.431 Y119.996 E.01226
;WIDTH:0.649766
G1 X124.253 Y119.963 E.01319
;WIDTH:0.69116
G1 X124.076 Y119.93 E.01413
G1 X123.967 Y119.948 E.00864
;WIDTH:0.660125
G1 X123.858 Y119.966 E.00822
;WIDTH:0.629091
G1 X123.634 Y120.02 E.01624
;WIDTH:0.582736
G1 X123.409 Y120.075 E.01491
;WIDTH:0.536382
G1 X123.185 Y120.129 E.01357
;WIDTH:0.490027
G1 X122.961 Y120.184 E.01224
;WIDTH:0.443673
G1 X122.665 Y120.295 E.01495
;WIDTH:0.409004
G1 X122.37 Y120.406 E.01359
;WIDTH:0.416824
G1 X122.302 Y120.411 E.00298
;WIDTH:0.459314
G1 X122.234 Y120.415 E.00334
;WIDTH:0.501804
G1 X122.167 Y120.42 E.0037
;WIDTH:0.544293
G1 X122.099 Y120.425 E.00406
;WIDTH:0.586783
G1 X122.031 Y120.429 E.00442
;WIDTH:0.629273
G1 X121.964 Y120.434 E.00478
G1 X122.011 Y120.382 E.00492
;WIDTH:0.586783
G1 X122.058 Y120.331 E.00455
;WIDTH:0.544293
G1 X122.105 Y120.279 E.00418
;WIDTH:0.501804
G1 X122.152 Y120.227 E.00381
;WIDTH:0.459314
G1 X122.199 Y120.176 E.00344
;WIDTH:0.416824
G1 X122.246 Y120.124 E.00307
;WIDTH:0.409961
G1 X122.505 Y119.995 E.01251
;WIDTH:0.445587
G1 X122.765 Y119.865 E.0138
;WIDTH:0.481214
G1 X123.025 Y119.736 E.01509
;WIDTH:0.523938
G1 X123.236 Y119.638 E.01335
;WIDTH:0.566662
G1 X123.448 Y119.541 E.01459
;WIDTH:0.609387
G1 X123.659 Y119.444 E.01583
;WIDTH:0.652111
G1 X123.871 Y119.346 E.01707
;WIDTH:0.694836
G1 X124.082 Y119.249 E.01831
G1 X124.255 Y119.346 E.01555
;WIDTH:0.69116
G1 X124.426 Y119.421 E.01468
;WIDTH:0.649955
G1 X124.598 Y119.497 E.01371
;WIDTH:0.60875
G1 X124.77 Y119.572 E.01275
;WIDTH:0.567546
G1 X124.942 Y119.648 E.01178
;WIDTH:0.526341
G1 X125.114 Y119.723 E.01082
;WIDTH:0.485137
G1 X125.445 Y119.886 E.01933
;WIDTH:0.435713
G1 X125.775 Y120.048 E.01706
;WIDTH:0.38629
G1 X126.595 Y120.494 E.03747
;WIDTH:0.377691
G1 X127.398 Y120.98 E.03666
;WIDTH:0.421838
G1 X127.664 Y121.159 E.01431
;WIDTH:0.465986
G1 X127.93 Y121.338 E.01607
;WIDTH:0.510134
G1 X128.196 Y121.517 E.01784
;WIDTH:0.555923
G1 X128.401 Y121.662 E.01535
;WIDTH:0.601713
G1 X128.605 Y121.806 E.01678
;WIDTH:0.647502
G1 X128.81 Y121.951 E.01821
;WIDTH:0.693292
G1 X129.014 Y122.095 E.01964
G1 X129.014 Y122.277 E.01424
G1 X129.037 Y122.456 E.01419
;WIDTH:0.649051
G1 X129.061 Y122.696 E.01755
;WIDTH:0.600653
G1 X129.085 Y122.935 E.0161
;WIDTH:0.552256
G1 X129.109 Y123.175 E.01465
;WIDTH:0.503859
G1 X129.133 Y123.414 E.01319
;WIDTH:0.455462
G1 X129.158 Y123.869 E.0222
;WIDTH:0.405865
G1 X129.183 Y124.323 E.01939
;WIDTH:0.356269
G1 X129.192 Y125.039 E.02607
;WIDTH:0.365771
G1 X129.178 Y125.515 E.01789
;WIDTH:0.393102
G1 X129.165 Y125.991 E.01951
;WIDTH:0.442713
G1 X129.14 Y126.313 E.01524
;WIDTH:0.492324
G1 X129.115 Y126.635 E.01724
;WIDTH:0.541936
G1 X129.09 Y126.956 E.01923
;WIDTH:0.580756
G1 X129.071 Y127.165 E.01347
;WIDTH:0.619576
G1 X129.051 Y127.373 E.01448
;WIDTH:0.658396
G1 X129.032 Y127.581 E.01549
;WIDTH:0.697215
G1 X129.012 Y127.789 E.01651
G1 X127.735 Y128.527 E.11642
G1 X127.175 Y128.873 E.05197
M204 S1000
;WIPE_START
G1 F8640
G1 X127.827 Y128.281 E-.20332
G1 X128.265 Y127.712 E-.16572
G1 X128.414 Y127.464 E-.06691
G1 X128.469 Y127.301 E-.03977
G1 X128.525 Y127.138 E-.03977
G1 X128.581 Y126.975 E-.03977
G1 X128.636 Y126.812 E-.03977
G1 X128.692 Y126.649 E-.03977
G1 X128.751 Y126.35 E-.07033
G1 X128.796 Y126.117 E-.05488
;WIPE_END
G1 E-.04 F2100
G1 Z.7 F720
G1 X124.082 Y131.253 F10800
G1 Z.3 F720
G1 E.8 F2100
M204 S800
;WIDTH:0.5
G1 F1200
G1 X118.618 Y128.098 E.34283
G1 X118.618 Y121.788 E.34282
G1 X124.082 Y118.633 E.34282
G1 X129.547 Y121.788 E.34283
G1 X129.547 Y128.098 E.34282
G1 X124.134 Y131.223 E.33957
M204 S1000
G1 X124.082 Y131.756 F10800
M204 S800
;TYPE:External perimeter
G1 F1200
G1 X118.182 Y128.349 E.37015
G1 X118.182 Y121.537 E.37015
G1 X124.082 Y118.13 E.37015
M73 Q2 S17
G1 X129.982 Y121.537 E.37015
G1 X129.982 Y128.349 E.37015
M73 P2 R17
G1 X124.134 Y131.726 E.3669
M204 S1000
G1 X123.882 Y131.409 F10800
;WIPE_START
G1 F8640
G1 X121.271 Y130.102 E-.76
;WIPE_END
G1 E-.04 F2100
G1 Z.7 F720
G1 X127.354 Y128 F10800
G1 Z.3 F720
G1 E.8 F2100
M204 S800
;TYPE:Perimeter
G1 F1200
G1 X126.783 Y128.521 E.04198
G1 X126.243 Y128.873 E.03503
G1 X125.766 Y129.098 E.02867
G1 X125.081 Y129.313 E.039
G1 X124.248 Y129.423 E.04564
G1 X123.604 Y129.402 E.03503
G1 X122.795 Y129.237 E.04482
G1 X122.017 Y128.922 E.04562
G1 X121.311 Y128.467 E.04562
G1 X120.703 Y127.889 E.04562
G1 X120.213 Y127.207 E.04562
G1 X119.859 Y126.446 E.04562
G1 X119.652 Y125.632 E.04564
G1 X119.598 Y124.998 E.03453
G1 X119.667 Y124.168 E.04527
G1 X119.889 Y123.357 E.04567
G1 X120.227 Y122.664 E.04195
G1 X120.761 Y121.931 E.04924
G1 X121.381 Y121.365 E.04564
G1 X121.944 Y121 E.03641
G1 X122.399 Y120.788 E.02729
G1 X123.084 Y120.572 E.039
G1 X123.916 Y120.463 E.04562
G1 X124.755 Y120.51 E.04564
G1 X125.384 Y120.652 E.03503
G1 X126.147 Y120.964 E.04482
G1 X126.853 Y121.418 E.04562
G1 X127.462 Y121.997 E.04562
G1 X127.952 Y122.679 E.04562
G1 X128.306 Y123.44 E.04562
G1 X128.512 Y124.254 E.04564
G1 X128.566 Y124.887 E.03453
G1 X128.498 Y125.718 E.04527
G1 X128.276 Y126.528 E.04567
G1 X127.937 Y127.222 E.04195
G1 X127.398 Y127.96 E.04964
M204 S1000
G1 X127.072 Y127.67 F10800
M204 S800
;TYPE:External perimeter
G1 F1200
G1 X126.494 Y128.196 E.04244
G1 X126.01 Y128.504 E.03116
G1 X125.552 Y128.709 E.02724
G1 X124.95 Y128.898 E.0343
G1 X124.197 Y128.99 E.04122
G1 X123.624 Y128.966 E.03116
G1 X122.887 Y128.812 E.04095
G1 X122.186 Y128.521 E.0412
G1 X121.552 Y128.104 E.0412
G1 X121.007 Y127.577 E.0412
G1 X120.57 Y126.958 E.0412
G1 X120.256 Y126.267 E.0412
G1 X120.076 Y125.53 E.04122
G1 X120.033 Y124.967 E.03068
G1 X120.1 Y124.208 E.04141
G1 X120.307 Y123.478 E.04122
G1 X120.616 Y122.86 E.03753
G1 X121.106 Y122.197 E.04482
G1 X121.671 Y121.69 E.04122
G1 X122.162 Y121.377 E.03162
G1 X122.612 Y121.177 E.02678
G1 X123.214 Y120.988 E.0343
G1 X123.967 Y120.895 E.0412
G1 X124.724 Y120.945 E.04122
G1 X125.283 Y121.075 E.03116
G1 X125.978 Y121.365 E.04095
G1 X126.612 Y121.781 E.0412
G1 X127.157 Y122.308 E.0412
G1 X127.595 Y122.928 E.0412
G1 X127.909 Y123.618 E.0412
